; G-Code generated by Simplify3D(R) Version 4.1.0
; Mar 26, 2020 at 5:44:49 PM
; Settings Summary
;   processName,Process1
;   applyToModels,Body1
;   profileName,PETG (0.2mm) (modified)
;   profileVersion,2020-02-28 21:43:21
;   baseProfile,Wanhao Duplicator i3
;   printMaterial,PETG
;   printQuality,Medium
;   printExtruders,
;   extruderName,Primary Extruder
;   extruderToolheadNumber,0
;   extruderDiameter,0.4
;   extruderAutoWidth,0
;   extruderWidth,0.4
;   extrusionMultiplier,0.96
;   extruderUseRetract,1
;   extruderRetractionDistance,0.3
;   extruderExtraRestartDistance,0
;   extruderRetractionZLift,0
;   extruderRetractionSpeed,2100
;   extruderUseCoasting,0
;   extruderCoastingDistance,0.1
;   extruderUseWipe,0
;   extruderWipeDistance,5
;   primaryExtruder,0
;   layerHeight,0.2
;   topSolidLayers,5
;   bottomSolidLayers,5
;   perimeterOutlines,2
;   printPerimetersInsideOut,1
;   startPointOption,2
;   startPointOriginX,0
;   startPointOriginY,0
;   sequentialIslands,0
;   spiralVaseMode,0
;   firstLayerHeightPercentage,90
;   firstLayerWidthPercentage,100
;   firstLayerUnderspeed,0.5
;   useRaft,0
;   raftExtruder,0
;   raftTopLayers,3
;   raftBaseLayers,0
;   raftOffset,3
;   raftSeparationDistance,0.14
;   raftTopInfill,100
;   aboveRaftSpeedMultiplier,0.3
;   useSkirt,0
;   skirtExtruder,0
;   skirtLayers,3
;   skirtOutlines,6
;   skirtOffset,0.32
;   usePrimePillar,0
;   primePillarExtruder,999
;   primePillarWidth,12
;   primePillarLocation,7
;   primePillarSpeedMultiplier,1
;   useOozeShield,0
;   oozeShieldExtruder,999
;   oozeShieldOffset,2
;   oozeShieldOutlines,1
;   oozeShieldSidewallShape,1
;   oozeShieldSidewallAngle,30
;   oozeShieldSpeedMultiplier,1
;   infillExtruder,0
;   internalInfillPattern,Fast Honeycomb
;   externalInfillPattern,Rectilinear
;   infillPercentage,15
;   outlineOverlapPercentage,30
;   infillExtrusionWidthPercentage,105
;   minInfillLength,5
;   infillLayerInterval,1
;   internalInfillAngles,0
;   overlapInternalInfillAngles,0
;   externalInfillAngles,45,-45
;   generateSupport,0
;   supportExtruder,0
;   supportInfillPercentage,30
;   supportExtraInflation,0.2
;   supportBaseLayers,0
;   denseSupportExtruder,0
;   denseSupportLayers,2
;   denseSupportInfillPercentage,70
;   supportLayerInterval,1
;   supportHorizontalPartOffset,0.38
;   supportUpperSeparationLayers,1
;   supportLowerSeparationLayers,1
;   supportType,0
;   supportGridSpacing,2.5
;   maxOverhangAngle,80
;   supportAngles,0
;   temperatureName,Primary Extruder,Heated Bed
;   temperatureNumber,0,0
;   temperatureSetpointCount,2,1
;   temperatureSetpointLayers,1,2,1
;   temperatureSetpointTemperatures,245,240,85
;   temperatureStabilizeAtStartup,1,1
;   temperatureHeatedBed,0,1
;   fanLayers,1,2,30
;   fanSpeeds,0,15,25
;   blipFanToFullPower,0
;   adjustSpeedForCooling,1
;   minSpeedLayerTime,5
;   minCoolingSpeedSlowdown,20
;   increaseFanForCooling,0
;   minFanLayerTime,45
;   maxCoolingFanSpeed,35
;   increaseFanForBridging,0
;   bridgingFanSpeed,45
;   use5D,1
;   relativeEdistances,0
;   allowEaxisZeroing,1
;   independentExtruderAxes,0
;   includeM10123,0
;   stickySupport,1
;   applyToolheadOffsets,0
;   gcodeXoffset,0
;   gcodeYoffset,0
;   gcodeZoffset,0.01
;   overrideMachineDefinition,1
;   machineTypeOverride,0
;   strokeXoverride,200
;   strokeYoverride,200
;   strokeZoverride,180
;   originOffsetXoverride,0
;   originOffsetYoverride,0
;   originOffsetZoverride,0
;   homeXdirOverride,-1
;   homeYdirOverride,-1
;   homeZdirOverride,-1
;   flipXoverride,1
;   flipYoverride,-1
;   flipZoverride,1
;   toolheadOffsets,0,0|0,0|0,0|0,0|0,0|0,0
;   overrideFirmwareConfiguration,1
;   firmwareTypeOverride,RepRap (Marlin/Repetier/Sprinter)
;   GPXconfigOverride,r2
;   baudRateOverride,115200
;   overridePrinterModels,1
;   printerModelsOverride
;   startingGcode,G28 ; home all axes,M117 Relieving backpressure,G92 E0 ; reset extruder,G1 Z2.0 F3000 ; move z up little to prevent scratching of surface,G1 E-2 F300 ; retract filament 2mm,M117 Purging extruder,G1 X0.1 Y20 Z0.5 F5000.0 ; move to start-line position,G1 E5 F100 ; extrude filament 10mm,G92 E0,G1 X0.1 Y40.0 Z0.5 F200.0 E10 ; draw 1st line,G1 X0.4 Y40.0 Z0.5 F5000.0 ; move to side a little,G1 X0.4 Y23 Z0.5 F200.0 E20 ; draw 2nd line,G92 E0 ; reset extruder,; done purging extruder,G1 Z1.0 F3000 ; move z up little to prevent scratching of surface,
;   layerChangeGcode,
;   retractionGcode,
;   toolChangeGcode,
;   endingGcode,M117 Relieving backpressure,G1 E-10 F300; retract filament 10mm,G91 ; relative movements,G1 Z10 F3000 ; move z up to prevent hitting screwheads,G90 ; absolute movements,G28 X0 ; home X-axis,M104 S0 ; turn off extruder,M107 ; turn off fans,M140 S0 ; turn off bed,M84 ; disable motors
;   exportFileFormat,gcode
;   celebration,0
;   celebrationSong,Star Wars
;   postProcessing,curl -k -H "X-Api-Key: 4B9F0C1561C34405BE062DAB0E43C5AF" -F "select=false" -F "print=true" -F "file=@[output_filepath]" "http://192.168.1.109:5000/api/files/local" {STRIP "; postProcessing"},,
;   defaultSpeed,1800
;   outlineUnderspeed,0.5
;   solidInfillUnderspeed,0.8
;   supportUnderspeed,0.8
;   rapidXYspeed,12000
;   rapidZspeed,600
;   minBridgingArea,50
;   bridgingExtraInflation,0
;   bridgingExtrusionMultiplier,1
;   bridgingSpeedMultiplier,1
;   useFixedBridgingAngle,0
;   fixedBridgingAngle,0
;   applyBridgingToPerimeters,0
;   filamentDiameters,1.75|1.75|1.75|1.75|1.75|1.75
;   filamentPricesPerKg,24|24|24|24|24|24
;   filamentDensities,1.25|1.25|1.25|1.25|1.25|1.25
;   useMinPrintHeight,1
;   minPrintHeight,0
;   useMaxPrintHeight,0
;   maxPrintHeight,0.2
;   useDiaphragm,0
;   diaphragmLayerInterval,20
;   robustSlicing,1
;   mergeAllIntoSolid,0
;   onlyRetractWhenCrossingOutline,1
;   retractBetweenLayers,1
;   useRetractionMinTravel,0
;   retractionMinTravel,5
;   retractWhileWiping,0
;   onlyWipeOutlines,1
;   avoidCrossingOutline,1
;   maxMovementDetourFactor,3
;   toolChangeRetractionDistance,12
;   toolChangeExtraRestartDistance,-0.5
;   toolChangeRetractionSpeed,600
;   externalThinWallType,0
;   internalThinWallType,2
;   thinWallAllowedOverlapPercentage,10
;   singleExtrusionMinLength,1
;   singleExtrusionMinPrintingWidthPercentage,50
;   singleExtrusionMaxPrintingWidthPercentage,200
;   singleExtrusionEndpointExtension,0.2
;   horizontalSizeCompensation,0
G90
M82
M106 S0
M140 S85
M190 S85
M104 S245 T0
M109 S245 T0
G28 ; home all axes
M117 Relieving backpressure
G92 E0 ; reset extruder
G1 Z2.0 F3000 ; move z up little to prevent scratching of surface
G1 E-2 F300 ; retract filament 2mm
M117 Purging extruder
G1 X0.1 Y20 Z0.5 F5000.0 ; move to start-line position
G1 E5 F100 ; extrude filament 10mm
G92 E0
G1 X0.1 Y40.0 Z0.5 F200.0 E10 ; draw 1st line
G1 X0.4 Y40.0 Z0.5 F5000.0 ; move to side a little
G1 X0.4 Y23 Z0.5 F200.0 E20 ; draw 2nd line
G92 E0 ; reset extruder
; done purging extruder
G1 Z1.0 F3000 ; move z up little to prevent scratching of surface
; process Process1
; layer 1, Z = 0.190
T0
G92 E0.0000
G1 E-0.3000 F2100
; feature inner perimeter
; tool H0.180 W0.400
G1 Z0.190 F600
G1 X85.973 Y86.392 F12000
G1 E0.0000 F2100
G92 E0.0000
G1 X86.484 Y85.884 E0.0207 F675
G1 X86.981 Y85.424 E0.0402
G1 X87.464 Y85.007 E0.0585
G1 X88.024 Y84.556 E0.0792
G1 X88.568 Y84.149 E0.0987
G1 X89.090 Y83.785 E0.1170
G1 X89.695 Y83.394 E0.1377
G1 X90.278 Y83.046 E0.1572
G1 X90.835 Y82.739 E0.1755
G1 X91.478 Y82.413 E0.1962
G1 X92.093 Y82.127 E0.2157
G1 X92.718 Y81.864 E0.2352
G1 X93.313 Y81.636 E0.2535
G1 X93.994 Y81.402 E0.2742
G1 X94.643 Y81.205 E0.2937
G1 X95.299 Y81.030 E0.3132
G1 X95.920 Y80.887 E0.3315
G1 X96.627 Y80.750 E0.3522
G1 X97.298 Y80.644 E0.3717
G1 X97.929 Y80.567 E0.3900
G1 X98.605 Y80.506 E0.4095
G1 X99.325 Y80.468 E0.4302
G1 X99.962 Y80.457 E0.4485
G1 X100.640 Y80.467 E0.4680
G1 X101.359 Y80.504 E0.4887
G1 X101.994 Y80.558 E0.5070
G1 X102.667 Y80.639 E0.5265
G1 X103.379 Y80.751 E0.5472
G1 X104.004 Y80.871 E0.5655
G1 X104.666 Y81.022 E0.5850
G1 X105.362 Y81.206 E0.6057
G1 X105.972 Y81.391 E0.6240
G1 X106.614 Y81.610 E0.6435
G1 X107.248 Y81.850 E0.6630
G1 X107.912 Y82.130 E0.6837
G1 X108.490 Y82.397 E0.7020
G1 X109.096 Y82.702 E0.7215
G1 X109.691 Y83.028 E0.7410
G1 X110.310 Y83.397 E0.7617
G1 X110.845 Y83.742 E0.7800
G1 X111.403 Y84.128 E0.7995
G1 X111.980 Y84.559 E0.8202
G1 X112.477 Y84.958 E0.8385
G1 X112.992 Y85.400 E0.8580
G1 X113.491 Y85.860 E0.8775
G1 X114.003 Y86.366 E0.8982
G1 X114.439 Y86.829 E0.9165
G1 X114.888 Y87.339 E0.9360
G1 X115.318 Y87.863 E0.9555
G1 X115.755 Y88.436 E0.9762
G1 X116.124 Y88.955 E0.9945
G1 X116.497 Y89.522 E1.0139
G1 X116.872 Y90.137 E1.0346
G1 X117.185 Y90.692 E1.0530
G1 X117.497 Y91.294 E1.0724
G1 X117.806 Y91.944 E1.0931
G1 X118.059 Y92.529 E1.1114
G1 X118.308 Y93.160 E1.1310
G1 X118.547 Y93.839 E1.1516
G1 X118.738 Y94.447 E1.1699
G1 X118.920 Y95.101 E1.1895
G1 X119.078 Y95.760 E1.2089
G1 X119.222 Y96.467 E1.2296
G1 X119.326 Y97.094 E1.2479
G1 X119.416 Y97.768 E1.2675
G1 X119.482 Y98.443 E1.2869
G1 X119.524 Y99.131 E1.3068
G1 X119.543 Y100.191 E1.3372
G1 X119.523 Y100.898 E1.3576
G1 X119.484 Y101.533 E1.3758
G1 X119.419 Y102.208 E1.3953
G1 X119.324 Y102.921 E1.4160
G1 X119.219 Y103.549 E1.4343
G1 X119.085 Y104.212 E1.4537
G1 X118.916 Y104.911 E1.4744
G1 X118.747 Y105.525 E1.4927
G1 X118.544 Y106.171 E1.5122
G1 X118.304 Y106.849 E1.5328
G1 X118.071 Y107.442 E1.5511
G1 X117.803 Y108.063 E1.5706
G1 X117.493 Y108.713 E1.5912
G1 X117.201 Y109.278 E1.6095
G1 X116.869 Y109.869 E1.6290
G1 X116.517 Y110.447 E1.6485
G1 X116.121 Y111.048 E1.6691
G1 X115.753 Y111.567 E1.6874
G1 X115.343 Y112.106 E1.7069
G1 X114.914 Y112.631 E1.7264
G1 X114.438 Y113.171 E1.7470
G1 X114.003 Y113.634 E1.7653
G1 X113.521 Y114.111 E1.7848
G1 X112.993 Y114.599 E1.8055
G1 X112.511 Y115.014 E1.8237
G1 X111.983 Y115.439 E1.8432
G1 X111.406 Y115.869 E1.8639
G1 X110.884 Y116.233 E1.8822
G1 X110.315 Y116.600 E1.9016
G1 X109.697 Y116.968 E1.9223
G1 X109.140 Y117.275 E1.9406
G1 X108.535 Y117.581 E1.9601
G1 X107.921 Y117.867 E1.9795
G1 X107.258 Y118.145 E2.0002
G1 X106.663 Y118.373 E2.0185
G1 X106.023 Y118.593 E2.0380
G1 X105.374 Y118.790 E2.0574
G1 X104.679 Y118.975 E2.0781
G1 X104.059 Y119.118 E2.0964
G1 X103.394 Y119.247 E2.1159
G1 X102.724 Y119.353 E2.1353
G1 X102.093 Y119.431 E2.1536
G1 X101.376 Y119.495 E2.1743
G1 X100.700 Y119.531 E2.1938
G1 X100.023 Y119.544 E2.2132
G1 X99.386 Y119.533 E2.2315
G1 X98.668 Y119.498 E2.2522
G1 X97.993 Y119.440 E2.2717
G1 X97.320 Y119.359 E2.2911
G1 X96.692 Y119.261 E2.3094
G1 X95.984 Y119.127 E2.3301
G1 X95.325 Y118.976 E2.3495
G1 X94.709 Y118.813 E2.3678
G1 X94.020 Y118.606 E2.3885
G1 X93.379 Y118.388 E2.4080
G1 X92.746 Y118.147 E2.4274
G1 X92.159 Y117.901 E2.4457
G1 X91.505 Y117.601 E2.4664
G1 X90.901 Y117.296 E2.4859
G1 X90.306 Y116.970 E2.5053
G1 X89.759 Y116.645 E2.5236
G1 X89.153 Y116.257 E2.5443
G1 X88.596 Y115.871 E2.5638
G1 X88.086 Y115.492 E2.5820
G1 X87.524 Y115.043 E2.6027
G1 X87.010 Y114.601 E2.6222
G1 X86.511 Y114.142 E2.6417
G1 X86.059 Y113.696 E2.6599
G1 X85.563 Y113.173 E2.6806
G1 X85.116 Y112.665 E2.7001
G1 X84.686 Y112.142 E2.7196
G1 X84.299 Y111.636 E2.7378
G1 X83.881 Y111.051 E2.7585
G1 X83.508 Y110.486 E2.7780
G1 X83.175 Y109.943 E2.7963
G1 X82.820 Y109.317 E2.8169
G1 X82.508 Y108.716 E2.8364
G1 X82.234 Y108.142 E2.8547
G1 X81.947 Y107.485 E2.8753
G1 X81.572 Y106.508 E2.9054
G1 X81.353 Y105.851 E2.9253
G1 X81.161 Y105.200 E2.9448
G1 X81.002 Y104.583 E2.9631
G1 X80.846 Y103.880 E2.9838
G1 X80.723 Y103.213 E3.0033
G1 X80.628 Y102.582 E3.0216
G1 X80.546 Y101.867 E3.0423
G1 X80.493 Y101.190 E3.0618
G1 X80.465 Y100.555 E3.0801
G1 X80.457 Y99.834 E3.1008
G1 X80.475 Y99.156 E3.1203
G1 X80.513 Y98.520 E3.1386
G1 X80.581 Y97.803 E3.1593
G1 X80.668 Y97.131 E3.1788
G1 X80.780 Y96.461 E3.1983
G1 X80.905 Y95.837 E3.2166
G1 X81.072 Y95.136 E3.2373
G1 X81.252 Y94.482 E3.2568
G1 X81.455 Y93.834 E3.2763
G1 X81.666 Y93.233 E3.2946
G1 X81.927 Y92.562 E3.3153
G1 X82.196 Y91.939 E3.3348
G1 X82.468 Y91.364 E3.3531
G1 X82.799 Y90.724 E3.3738
G1 X83.131 Y90.132 E3.3933
G1 X83.462 Y89.587 E3.4116
G1 X83.856 Y88.985 E3.4323
G1 X84.224 Y88.465 E3.4506
G1 X84.660 Y87.891 E3.4713
G1 X85.089 Y87.367 E3.4907
G1 X85.537 Y86.856 E3.5103
G1 X85.973 Y86.392 E3.5286
; feature outer perimeter
G1 X85.686 Y86.113 F12000
G92 E0.0000
G1 X86.207 Y85.596 E0.0211 F450
G1 X86.715 Y85.125 E0.0410
G1 X87.207 Y84.700 E0.0597
G1 X87.779 Y84.240 E0.0808
G1 X88.334 Y83.825 E0.1007
G1 X88.867 Y83.453 E0.1194
G1 X89.484 Y83.054 E0.1405
G1 X90.078 Y82.700 E0.1604
G1 X90.648 Y82.385 E0.1791
G1 X91.303 Y82.053 E0.2002
G1 X91.931 Y81.762 E0.2201
G1 X92.569 Y81.493 E0.2400
G1 X93.177 Y81.260 E0.2587
G1 X93.871 Y81.022 E0.2798
G1 X94.534 Y80.820 E0.2997
G1 X95.203 Y80.642 E0.3196
G1 X95.837 Y80.496 E0.3383
G1 X96.558 Y80.356 E0.3594
G1 X97.242 Y80.248 E0.3793
G1 X97.887 Y80.169 E0.3980
G1 X98.577 Y80.107 E0.4179
G1 X99.310 Y80.068 E0.4390
G1 X99.961 Y80.056 E0.4577
G1 X100.653 Y80.067 E0.4776
G1 X101.387 Y80.105 E0.4987
G1 X102.035 Y80.160 E0.5174
G1 X102.722 Y80.243 E0.5373
G1 X103.448 Y80.357 E0.5584
G1 X104.086 Y80.480 E0.5770
G1 X104.762 Y80.633 E0.5970
G1 X105.471 Y80.822 E0.6180
G1 X106.094 Y81.010 E0.6367
G1 X106.750 Y81.233 E0.6566
G1 X107.397 Y81.479 E0.6765
G1 X108.074 Y81.764 E0.6976
G1 X108.664 Y82.037 E0.7163
G1 X109.283 Y82.348 E0.7362
G1 X109.890 Y82.681 E0.7561
G1 X110.520 Y83.057 E0.7772
G1 X111.067 Y83.409 E0.7959
G1 X111.637 Y83.803 E0.8158
G1 X112.225 Y84.242 E0.8369
G1 X112.733 Y84.650 E0.8556
G1 X113.258 Y85.101 E0.8755
G1 X113.767 Y85.570 E0.8954
G1 X114.289 Y86.087 E0.9165
G1 X114.735 Y86.560 E0.9352
G1 X115.193 Y87.080 E0.9551
G1 X115.632 Y87.615 E0.9750
G1 X116.077 Y88.199 E0.9961
G1 X116.454 Y88.729 E1.0148
G1 X116.835 Y89.307 E1.0347
G1 X117.217 Y89.934 E1.0558
G1 X117.536 Y90.501 E1.0745
G1 X117.856 Y91.116 E1.0944
G1 X118.170 Y91.779 E1.1155
G1 X118.429 Y92.376 E1.1342
G1 X118.683 Y93.020 E1.1541
G1 X118.927 Y93.713 E1.1752
G1 X119.122 Y94.334 E1.1939
G1 X119.307 Y95.001 E1.2138
G1 X119.469 Y95.674 E1.2337
G1 X119.615 Y96.394 E1.2548
G1 X119.722 Y97.035 E1.2735
G1 X119.813 Y97.722 E1.2934
G1 X119.880 Y98.411 E1.3133
G1 X119.924 Y99.115 E1.3335
G1 X119.943 Y100.193 E1.3645
G1 X119.922 Y100.916 E1.3853
G1 X119.882 Y101.565 E1.4040
G1 X119.816 Y102.253 E1.4239
G1 X119.719 Y102.980 E1.4449
G1 X119.612 Y103.621 E1.4636
G1 X119.475 Y104.299 E1.4835
G1 X119.303 Y105.012 E1.5046
G1 X119.130 Y105.638 E1.5232
G1 X118.923 Y106.298 E1.5431
G1 X118.678 Y106.989 E1.5642
G1 X118.442 Y107.594 E1.5828
G1 X118.167 Y108.229 E1.6027
G1 X117.852 Y108.891 E1.6238
G1 X117.553 Y109.468 E1.6425
G1 X117.214 Y110.071 E1.6623
G1 X116.855 Y110.661 E1.6822
G1 X116.451 Y111.274 E1.7033
G1 X116.076 Y111.804 E1.7220
G1 X115.657 Y112.354 E1.7418
G1 X115.219 Y112.889 E1.7617
G1 X114.734 Y113.440 E1.7828
G1 X114.289 Y113.913 E1.8015
G1 X113.798 Y114.400 E1.8213
G1 X113.259 Y114.897 E1.8424
G1 X112.767 Y115.322 E1.8611
G1 X112.228 Y115.755 E1.8809
G1 X111.640 Y116.194 E1.9020
G1 X111.107 Y116.565 E1.9207
G1 X110.526 Y116.940 E1.9406
G1 X109.896 Y117.315 E1.9616
G1 X109.327 Y117.629 E1.9803
G1 X108.710 Y117.941 E2.0002
G1 X108.083 Y118.232 E2.0200
G1 X107.407 Y118.517 E2.0411
G1 X106.800 Y118.749 E2.0598
G1 X106.146 Y118.973 E2.0797
G1 X105.484 Y119.175 E2.0995
G1 X104.775 Y119.363 E2.1206
G1 X104.142 Y119.509 E2.1393
G1 X103.463 Y119.641 E2.1592
G1 X102.780 Y119.749 E2.1790
G1 X102.135 Y119.828 E2.1977
G1 X101.405 Y119.894 E2.2188
G1 X100.715 Y119.931 E2.2387
G1 X100.023 Y119.944 E2.2585
