; G-Code generated by Simplify3D(R) Version 4.1.0
; Jan 27, 2019 at 3:46:25 AM
; Settings Summary
;   processName,Process1
;   applyToModels,Dado_Dice_XYZ_20mm
;   profileName,PLA - 0.2mm (modified)
;   profileVersion,2019-01-23 14:06:02
;   baseProfile,Wanhao Duplicator i3
;   printMaterial,PLA
;   printQuality,Medium
;   printExtruders,
;   extruderName,Primary Extruder
;   extruderToolheadNumber,0
;   extruderDiameter,0.4
;   extruderAutoWidth,0
;   extruderWidth,0.4
;   extrusionMultiplier,0.94
;   extruderUseRetract,1
;   extruderRetractionDistance,0.3
;   extruderExtraRestartDistance,0
;   extruderRetractionZLift,0.2
;   extruderRetractionSpeed,2100
;   extruderUseCoasting,0
;   extruderCoastingDistance,0.1
;   extruderUseWipe,0
;   extruderWipeDistance,5
;   primaryExtruder,0
;   layerHeight,0.2
;   topSolidLayers,5
;   bottomSolidLayers,3
;   perimeterOutlines,2
;   printPerimetersInsideOut,1
;   startPointOption,2
;   startPointOriginX,0
;   startPointOriginY,0
;   sequentialIslands,0
;   spiralVaseMode,0
;   firstLayerHeightPercentage,90
;   firstLayerWidthPercentage,100
;   firstLayerUnderspeed,0.25
;   useRaft,0
;   raftExtruder,0
;   raftTopLayers,3
;   raftBaseLayers,0
;   raftOffset,3
;   raftSeparationDistance,0.14
;   raftTopInfill,100
;   aboveRaftSpeedMultiplier,0.3
;   useSkirt,1
;   skirtExtruder,0
;   skirtLayers,2
;   skirtOutlines,3
;   skirtOffset,0.3
;   usePrimePillar,0
;   primePillarExtruder,999
;   primePillarWidth,12
;   primePillarLocation,7
;   primePillarSpeedMultiplier,1
;   useOozeShield,0
;   oozeShieldExtruder,999
;   oozeShieldOffset,2
;   oozeShieldOutlines,1
;   oozeShieldSidewallShape,1
;   oozeShieldSidewallAngle,30
;   oozeShieldSpeedMultiplier,1
;   infillExtruder,0
;   internalInfillPattern,Fast Honeycomb
;   externalInfillPattern,Rectilinear
;   infillPercentage,15
;   outlineOverlapPercentage,30
;   infillExtrusionWidthPercentage,105
;   minInfillLength,5
;   infillLayerInterval,1
;   internalInfillAngles,0
;   overlapInternalInfillAngles,0
;   externalInfillAngles,45,-45
;   generateSupport,0
;   supportExtruder,0
;   supportInfillPercentage,30
;   supportExtraInflation,0.2
;   supportBaseLayers,0
;   denseSupportExtruder,0
;   denseSupportLayers,2
;   denseSupportInfillPercentage,70
;   supportLayerInterval,1
;   supportHorizontalPartOffset,0.38
;   supportUpperSeparationLayers,1
;   supportLowerSeparationLayers,1
;   supportType,0
;   supportGridSpacing,1.5
;   maxOverhangAngle,60
;   supportAngles,0
;   temperatureName,Primary Extruder,Heated Bed
;   temperatureNumber,0,0
;   temperatureSetpointCount,2,2
;   temperatureSetpointLayers,1,2,1,2
;   temperatureSetpointTemperatures,210,200,75,70
;   temperatureStabilizeAtStartup,1,0
;   temperatureHeatedBed,0,1
;   fanLayers,1,2,30
;   fanSpeeds,0,25,50
;   blipFanToFullPower,0
;   adjustSpeedForCooling,1
;   minSpeedLayerTime,5
;   minCoolingSpeedSlowdown,20
;   increaseFanForCooling,0
;   minFanLayerTime,15
;   maxCoolingFanSpeed,100
;   increaseFanForBridging,1
;   bridgingFanSpeed,100
;   use5D,1
;   relativeEdistances,0
;   allowEaxisZeroing,1
;   independentExtruderAxes,0
;   includeM10123,0
;   stickySupport,1
;   applyToolheadOffsets,0
;   gcodeXoffset,0
;   gcodeYoffset,0
;   gcodeZoffset,-0.01
;   overrideMachineDefinition,1
;   machineTypeOverride,0
;   strokeXoverride,200
;   strokeYoverride,200
;   strokeZoverride,180
;   originOffsetXoverride,0
;   originOffsetYoverride,0
;   originOffsetZoverride,0
;   homeXdirOverride,-1
;   homeYdirOverride,-1
;   homeZdirOverride,-1
;   flipXoverride,1
;   flipYoverride,-1
;   flipZoverride,1
;   toolheadOffsets,0,0|0,0|0,0|0,0|0,0|0,0
;   overrideFirmwareConfiguration,1
;   firmwareTypeOverride,RepRap (Marlin/Repetier/Sprinter)
;   GPXconfigOverride,r2
;   baudRateOverride,115200
;   overridePrinterModels,1
;   printerModelsOverride
;   startingGcode,G28 ; home all axes,M117 Relieving backpressure,G92 E0 ; reset extruder,G1 Z2.0 F3000 ; move z up little to prevent scratching of surface,G1 E-2 F300 ; retract filament 2mm,M117 Purging extruder,G1 X0.1 Y20 Z0.5 F5000.0 ; move to start-line position,G1 E5 F100 ; extrude filament 10mm,G92 E0,G1 X0.1 Y40.0 Z0.5 F100.0 E10 ; draw 1st line,G1 X0.4 Y40.0 Z0.5 F5000.0 ; move to side a little,G1 X0.4 Y23 Z0.5 F100.0 E20 ; draw 2nd line,G92 E0 ; reset extruder,; done purging extruder,G1 Z1.0 F3000 ; move z up little to prevent scratching of surface,
;   layerChangeGcode,
;   retractionGcode,
;   toolChangeGcode,
;   endingGcode,M117 Relieving backpressure,G1 E-10 F300; retract filament 10mm,G91 ; relative movements,G1 Z10 F3000 ; move z up to prevent hitting screwheads,G90 ; absolute movements,G28 X0 ; home X-axis,M104 S0 ; turn off extruder,M107 ; turn off fans,M140 S0 ; turn off bed,M84 ; disable motors
;   exportFileFormat,gcode
;   celebration,0
;   celebrationSong,Star Wars
;   postProcessing,curl -k -H "X-Api-Key: 22CC1DFDF92842F6AFA41AFDA74ECE58" -F "select=false" -F "print=true" -F "file=@[output_filepath]" "http://192.168.1.109:5000/api/files/local" {STRIP "; postProcessing"},,
;   defaultSpeed,1800
;   outlineUnderspeed,0.5
;   solidInfillUnderspeed,0.8
;   supportUnderspeed,0.8
;   rapidXYspeed,12000
;   rapidZspeed,600
;   minBridgingArea,50
;   bridgingExtraInflation,0
;   bridgingExtrusionMultiplier,1
;   bridgingSpeedMultiplier,1
;   useFixedBridgingAngle,0
;   fixedBridgingAngle,0
;   applyBridgingToPerimeters,0
;   filamentDiameters,1.75|1.75|1.75|1.75|1.75|1.75
;   filamentPricesPerKg,24|24|24|24|24|24
;   filamentDensities,1.25|1.25|1.25|1.25|1.25|1.25
;   useMinPrintHeight,1
;   minPrintHeight,0
;   useMaxPrintHeight,0
;   maxPrintHeight,0.2
;   useDiaphragm,0
;   diaphragmLayerInterval,20
;   robustSlicing,1
;   mergeAllIntoSolid,0
;   onlyRetractWhenCrossingOutline,1
;   retractBetweenLayers,1
;   useRetractionMinTravel,0
;   retractionMinTravel,5
;   retractWhileWiping,0
;   onlyWipeOutlines,1
;   avoidCrossingOutline,1
;   maxMovementDetourFactor,3
;   toolChangeRetractionDistance,12
;   toolChangeExtraRestartDistance,-0.5
;   toolChangeRetractionSpeed,600
;   externalThinWallType,0
;   internalThinWallType,2
;   thinWallAllowedOverlapPercentage,10
;   singleExtrusionMinLength,1
;   singleExtrusionMinPrintingWidthPercentage,50
;   singleExtrusionMaxPrintingWidthPercentage,200
;   singleExtrusionEndpointExtension,0.2
;   horizontalSizeCompensation,0
G90
M82
M106 S0
M140 S75
M104 S210 T0
M109 S210 T0
G28 ; home all axes
M117 Relieving backpressure
G92 E0 ; reset extruder
G1 Z2.0 F3000 ; move z up little to prevent scratching of surface
G1 E-2 F300 ; retract filament 2mm
M117 Purging extruder
G1 X0.1 Y20 Z0.5 F5000.0 ; move to start-line position
G1 E5 F100 ; extrude filament 10mm
G92 E0
G1 X0.1 Y40.0 Z0.5 F100.0 E10 ; draw 1st line
G1 X0.4 Y40.0 Z0.5 F5000.0 ; move to side a little
G1 X0.4 Y23 Z0.5 F100.0 E20 ; draw 2nd line
G92 E0 ; reset extruder
; done purging extruder
G1 Z1.0 F3000 ; move z up little to prevent scratching of surface
; process Process1
; layer 1, Z = 0.170
T0
G92 E0.0000
G1 E-0.3000 F2100
; feature skirt
; tool H0.180 W0.400
G1 Z0.200 F600
G1 X90.361 Y90.311 F12000
G1 Z0.170 F600
G1 E0.0000 F2100
G92 E0.0000
G1 X90.965 Y89.904 E0.0205 F450
G1 X91.198 Y89.806 E0.0276
G1 X91.771 Y89.687 E0.0441
G1 X91.904 Y89.673 E0.0478
G1 X108.096 Y89.673 E0.5035
G1 X108.229 Y89.687 E0.5072
G1 X108.802 Y89.806 E0.5237
G1 X109.035 Y89.904 E0.5308
G1 X109.639 Y90.311 E0.5513
G1 X109.850 Y90.542 E0.5601
G1 X110.156 Y91.102 E0.5781
G1 X110.225 Y91.297 E0.5839
G1 X110.316 Y91.793 E0.5981
G1 X110.327 Y91.911 E0.6014
G1 X110.327 Y108.089 E1.0566
G1 X110.316 Y108.207 E1.0599
G1 X110.223 Y108.712 E1.0744
G1 X110.145 Y108.923 E1.0807
G1 X109.799 Y109.517 E1.1001
G1 X109.584 Y109.741 E1.1088
G1 X109.015 Y110.106 E1.1278
G1 X108.795 Y110.195 E1.1345
G1 X108.229 Y110.313 E1.1508
G1 X108.096 Y110.327 E1.1545
G1 X91.904 Y110.327 E1.6102
G1 X91.771 Y110.313 E1.6139
G1 X91.205 Y110.195 E1.6302
G1 X90.985 Y110.106 E1.6369
G1 X90.415 Y109.741 E1.6559
G1 X90.201 Y109.517 E1.6646
G1 X89.855 Y108.923 E1.6840
G1 X89.777 Y108.712 E1.6903
G1 X89.684 Y108.207 E1.7047
G1 X89.673 Y108.089 E1.7081
G1 X89.673 Y91.911 E2.1633
G1 X89.684 Y91.793 E2.1666
G1 X89.775 Y91.297 E2.1808
G1 X89.844 Y91.102 E2.1866
G1 X90.150 Y90.542 E2.2046
G1 X90.361 Y90.311 E2.2134
G92 E0.0000
G1 E-0.3000 F2100
G1 Z0.370 F600
G1 X90.624 Y90.616 F12000
G1 Z0.170 F600
G1 E0.0000 F2100
G92 E0.0000
G1 X91.156 Y90.258 E0.0180 F450
G1 X91.317 Y90.190 E0.0230
G1 X91.832 Y90.083 E0.0378
G1 X91.924 Y90.073 E0.0404
G1 X108.076 Y90.073 E0.4948
G1 X108.168 Y90.083 E0.4974
G1 X108.683 Y90.190 E0.5123
G1 X108.844 Y90.258 E0.5172
G1 X109.376 Y90.616 E0.5352
G1 X109.522 Y90.776 E0.5413
G1 X109.789 Y91.266 E0.5570
G1 X109.837 Y91.401 E0.5610
G1 X109.919 Y91.848 E0.5738
G1 X109.927 Y91.929 E0.5761
G1 X109.927 Y108.071 E1.0303
G1 X109.919 Y108.152 E1.0326
G1 X109.836 Y108.605 E1.0456
G1 X109.782 Y108.751 E1.0500
G1 X109.477 Y109.275 E1.0670
G1 X109.329 Y109.430 E1.0731
G1 X108.830 Y109.749 E1.0897
G1 X108.678 Y109.811 E1.0944
G1 X108.168 Y109.917 E1.1090
G1 X108.076 Y109.927 E1.1116
G1 X91.924 Y109.927 E1.5661
G1 X91.832 Y109.917 E1.5687
G1 X91.322 Y109.811 E1.5833
G1 X91.170 Y109.749 E1.5880
G1 X90.671 Y109.430 E1.6046
G1 X90.523 Y109.275 E1.6107
G1 X90.218 Y108.751 E1.6277
G1 X90.164 Y108.605 E1.6321
G1 X90.081 Y108.152 E1.6451
G1 X90.073 Y108.071 E1.6474
G1 X90.073 Y91.929 E2.1015
G1 X90.081 Y91.848 E2.1039
G1 X90.163 Y91.401 E2.1166
G1 X90.211 Y91.266 E2.1207
G1 X90.478 Y90.776 E2.1364
G1 X90.624 Y90.616 E2.1425
G92 E0.0000
G1 E-0.3000 F2100
G1 Z0.370 F600
G1 X90.887 Y90.921 F12000
G1 Z0.170 F600
G1 E0.0000 F2100
G92 E0.0000
G1 X91.347 Y90.611 E0.0156 F450
G1 X91.437 Y90.573 E0.0183
G1 X91.894 Y90.478 E0.0315
G1 X91.945 Y90.473 E0.0329
G1 X108.055 Y90.473 E0.4862
G1 X108.106 Y90.478 E0.4877
G1 X108.563 Y90.573 E0.5008
G1 X108.653 Y90.611 E0.5035
G1 X109.113 Y90.921 E0.5191
G1 X109.194 Y91.010 E0.5225
G1 X109.423 Y91.430 E0.5360
G1 X109.449 Y91.504 E0.5382
G1 X109.523 Y91.902 E0.5496
G1 X109.527 Y91.948 E0.5509
G1 X109.527 Y108.052 E1.0040
G1 X109.523 Y108.098 E1.0053
G1 X109.449 Y108.499 E1.0168
G1 X109.419 Y108.580 E1.0192
G1 X109.155 Y109.033 E1.0340
G1 X109.073 Y109.119 E1.0373
G1 X108.645 Y109.393 E1.0516
G1 X108.560 Y109.427 E1.0542
G1 X108.106 Y109.522 E1.0672
G1 X108.055 Y109.527 E1.0687
G1 X91.945 Y109.527 E1.5220
G1 X91.894 Y109.522 E1.5235
G1 X91.439 Y109.427 E1.5365
G1 X91.355 Y109.393 E1.5391
G1 X90.927 Y109.119 E1.5534
G1 X90.845 Y109.033 E1.5567
G1 X90.581 Y108.580 E1.5715
G1 X90.551 Y108.499 E1.5739
G1 X90.477 Y108.098 E1.5854
G1 X90.473 Y108.052 E1.5867
G1 X90.473 Y91.948 E2.0398
G1 X90.477 Y91.902 E2.0411
G1 X90.551 Y91.504 E2.0525
G1 X90.577 Y91.430 E2.0547
G1 X90.806 Y91.010 E2.0682
G1 X90.887 Y90.921 E2.0715
G92 E0.0000
G1 E-0.3000 F2100
; feature inner perimeter
G1 Z0.370 F600
G1 X91.707 Y91.716 F12000
G1 X92.014 Y92.014
G1 Z0.170 F600
G1 E0.0000 F2100
G92 E0.0000
G1 X100.562 Y92.014 E0.2405 F337
G1 X107.986 Y92.014 E0.4494
G1 X107.986 Y107.986 E0.8988
G1 X92.014 Y107.986 E1.3482
G1 X92.014 Y92.014 E1.7976
; feature outer perimeter
G1 X92.003 Y91.614 F12000
G92 E0.0000
G1 X100.562 Y91.614 E0.2408 F225
G1 X107.997 Y91.614 E0.4500
G1 X108.292 Y91.714 E0.4588
G1 X108.386 Y92.002 E0.4673
G1 X108.386 Y107.998 E0.9174
G1 X108.292 Y108.286 E0.9259
G1 X107.997 Y108.386 E0.9347
G1 X92.003 Y108.386 E1.3847
G1 X91.708 Y108.286 E1.3935
G1 X91.614 Y107.998 E1.4020
G1 X91.614 Y92.002 E1.8521
G1 X91.708 Y91.714 E1.8607
G1 X92.003 Y91.614 E1.8694
; feature inner perimeter
G1 X98.348 Y98.349 F12000
G92 E0.0000
G1 X97.977 Y98.832 E0.0172 F337
G1 X97.744 Y99.396 E0.0343
G1 X97.664 Y100.000 E0.0515
G1 X97.744 Y100.604 E0.0686
G1 X97.977 Y101.168 E0.0858
G1 X98.348 Y101.651 E0.1029
G1 X98.832 Y102.023 E0.1201
G1 X99.156 Y102.157 E0.1299
G1 X99.395 Y102.256 E0.1372
G1 X100.000 Y102.336 E0.1544
G1 X100.604 Y102.256 E0.1716
G1 X101.168 Y102.023 E0.1887
G1 X101.651 Y101.651 E0.2059
G1 X102.023 Y101.168 E0.2230
G1 X102.256 Y100.604 E0.2402
G1 X102.336 Y100.000 E0.2573
G1 X102.256 Y99.396 E0.2745
G1 X102.023 Y98.832 E0.2917
G1 X101.651 Y98.349 E0.3088
G1 X101.168 Y97.977 E0.3260
G1 X100.604 Y97.744 E0.3431
G1 X100.000 Y97.664 E0.3603
G1 X99.395 Y97.744 E0.3774
G1 X98.832 Y97.977 E0.3946
G1 X98.348 Y98.349 E0.4117
; feature outer perimeter
G1 X98.634 Y98.634 F12000
G92 E0.0000
G1 X98.327 Y99.034 E0.0142 F225
G1 X98.134 Y99.500 E0.0284
G1 X98.068 Y100.000 E0.0426
G1 X98.134 Y100.500 E0.0568
G1 X98.327 Y100.966 E0.0710
G1 X98.634 Y101.366 E0.0852
G1 X99.034 Y101.673 E0.0993
G1 X99.309 Y101.787 E0.1077
G1 X99.500 Y101.866 E0.1135
G1 X100.000 Y101.932 E0.1277
G1 X100.500 Y101.866 E0.1419
G1 X100.966 Y101.673 E0.1561
G1 X101.366 Y101.366 E0.1703
G1 X101.673 Y100.966 E0.1845
G1 X101.866 Y100.500 E0.1987
G1 X101.932 Y100.000 E0.2129
G1 X101.866 Y99.500 E0.2271
G1 X101.673 Y99.034 E0.2413
G1 X101.366 Y98.634 E0.2555
G1 X100.966 Y98.327 E0.2697
G1 X100.500 Y98.134 E0.2838
G1 X100.000 Y98.068 E0.2980
G1 X99.500 Y98.134 E0.3122
G1 X99.034 Y98.327 E0.3264
G1 X98.634 Y98.634 E0.3406
; feature solid layer
G1 X98.327 Y99.034 F12000
G1 X98.134 Y99.500
G1 X98.068 Y100.000
G1 X98.134 Y100.500
G1 X98.327 Y100.966
G1 X98.634 Y101.366
G1 X98.923 Y101.588
G1 X99.002 Y102.396
G92 E0.0000
G1 X104.312 Y107.706 E0.2113 F360
G1 X104.877 Y107.706 E0.2272
G1 X99.758 Y102.586 E0.4309
G1 X100.000 Y102.618 E0.4378
G1 X100.314 Y102.577 E0.4467
G1 X105.443 Y107.706 E0.6508
G1 X106.009 Y107.706 E0.6668
G1 X100.787 Y102.484 E0.8746
G1 X101.187 Y102.318 E0.8867
G1 X106.574 Y107.706 E1.1011
G1 X107.140 Y107.706 E1.1171
G1 X101.531 Y102.097 E1.3403
G1 X101.851 Y101.851 E1.3516
G1 X107.706 Y107.706 E1.5846
G1 X107.706 Y107.140 E1.6005
G1 X102.097 Y101.531 E1.8237
G1 X102.267 Y101.309 E1.8316
G1 X102.318 Y101.187 E1.8353
G1 X107.706 Y106.574 E2.0497
G1 X107.706 Y106.009 E2.0656
G1 X102.484 Y100.787 E2.2734
G1 X102.529 Y100.678 E2.2768
G1 X102.577 Y100.314 E2.2871
G1 X107.706 Y105.443 E2.4912
G1 X107.706 Y104.877 E2.5071
G1 X102.586 Y99.758 E2.7108
G1 X107.568 Y92.294 F12000
G92 E0.0000
G1 X107.706 Y92.432 E0.0055 F360
G1 X107.706 Y92.998 E0.0214
G1 X107.002 Y92.294 E0.0494
G1 X106.436 Y92.294 E0.0653
G1 X107.706 Y93.564 E0.1159
G1 X107.706 Y94.129 E0.1318
G1 X105.871 Y92.294 E0.2048
G1 X105.305 Y92.294 E0.2207
G1 X107.706 Y94.695 E0.3163
G1 X107.706 Y95.261 E0.3322
G1 X104.739 Y92.294 E0.4502
G1 X104.174 Y92.294 E0.4661
G1 X107.706 Y95.826 E0.6067
G1 X107.706 Y96.392 E0.6226
G1 X103.608 Y92.294 E0.7857
G1 X103.042 Y92.294 E0.8016
G1 X107.706 Y96.958 E0.9872
G1 X107.706 Y97.523 E1.0031
G1 X102.477 Y92.294 E1.2112
G1 X101.911 Y92.294 E1.2271
G1 X107.706 Y98.089 E1.4577
G1 X107.706 Y98.655 E1.4736
G1 X101.345 Y92.294 E1.7267
G1 X100.779 Y92.294 E1.7427
G1 X107.706 Y99.221 E2.0183
G1 X107.706 Y99.786 E2.0342
G1 X100.214 Y92.294 E2.3323
G1 X99.648 Y92.294 E2.3483
G1 X107.706 Y100.352 E2.6689
G1 X107.706 Y100.918 E2.6848
G1 X99.082 Y92.294 E3.0280
G1 X98.517 Y92.294 E3.0439
G1 X107.706 Y101.483 E3.4095
G1 X107.706 Y102.049 E3.4255
G1 X97.951 Y92.294 E3.8136
G1 X97.385 Y92.294 E3.8296
G1 X107.706 Y102.615 E4.2402
G1 X107.706 Y103.180 E4.2562
G1 X96.820 Y92.294 E4.6894
G1 X96.254 Y92.294 E4.7053
G1 X107.706 Y103.746 E5.1610
G1 X107.706 Y104.312 E5.1769
G1 X102.396 Y99.002 E5.3882
G1 X102.267 Y98.691 E5.3977
G1 X101.851 Y98.149 E5.4169
G1 X101.309 Y97.733 E5.4361
G1 X100.998 Y97.604 E5.4456
G1 X95.688 Y92.294 E5.6569
G1 X95.123 Y92.294 E5.6728
G1 X100.242 Y97.414 E5.8765
