; G-Code generated by Simplify3D(R) Version 4.1.0
; Mar 23, 2020 at 12:36:09 PM
; Settings Summary
;   processName,Process1
;   applyToModels,MontanaMaskFilter
;   profileName,PETG (0.2mm) (modified)
;   profileVersion,2020-02-28 21:43:21
;   baseProfile,Wanhao Duplicator i3
;   printMaterial,PETG
;   printQuality,Medium
;   printExtruders,
;   extruderName,Primary Extruder
;   extruderToolheadNumber,0
;   extruderDiameter,0.4
;   extruderAutoWidth,0
;   extruderWidth,0.4
;   extrusionMultiplier,0.96
;   extruderUseRetract,1
;   extruderRetractionDistance,0.3
;   extruderExtraRestartDistance,0
;   extruderRetractionZLift,0
;   extruderRetractionSpeed,2100
;   extruderUseCoasting,0
;   extruderCoastingDistance,0.1
;   extruderUseWipe,0
;   extruderWipeDistance,5
;   primaryExtruder,0
;   layerHeight,0.2
;   topSolidLayers,5
;   bottomSolidLayers,5
;   perimeterOutlines,2
;   printPerimetersInsideOut,1
;   startPointOption,2
;   startPointOriginX,0
;   startPointOriginY,0
;   sequentialIslands,0
;   spiralVaseMode,0
;   firstLayerHeightPercentage,90
;   firstLayerWidthPercentage,100
;   firstLayerUnderspeed,0.5
;   useRaft,0
;   raftExtruder,0
;   raftTopLayers,3
;   raftBaseLayers,0
;   raftOffset,3
;   raftSeparationDistance,0.14
;   raftTopInfill,100
;   aboveRaftSpeedMultiplier,0.3
;   useSkirt,0
;   skirtExtruder,0
;   skirtLayers,2
;   skirtOutlines,6
;   skirtOffset,0.35
;   usePrimePillar,0
;   primePillarExtruder,999
;   primePillarWidth,12
;   primePillarLocation,7
;   primePillarSpeedMultiplier,1
;   useOozeShield,0
;   oozeShieldExtruder,999
;   oozeShieldOffset,2
;   oozeShieldOutlines,1
;   oozeShieldSidewallShape,1
;   oozeShieldSidewallAngle,30
;   oozeShieldSpeedMultiplier,1
;   infillExtruder,0
;   internalInfillPattern,Fast Honeycomb
;   externalInfillPattern,Rectilinear
;   infillPercentage,35
;   outlineOverlapPercentage,30
;   infillExtrusionWidthPercentage,105
;   minInfillLength,5
;   infillLayerInterval,1
;   internalInfillAngles,0
;   overlapInternalInfillAngles,0
;   externalInfillAngles,45,-45
;   generateSupport,1
;   supportExtruder,0
;   supportInfillPercentage,30
;   supportExtraInflation,0.2
;   supportBaseLayers,0
;   denseSupportExtruder,0
;   denseSupportLayers,2
;   denseSupportInfillPercentage,70
;   supportLayerInterval,1
;   supportHorizontalPartOffset,0.38
;   supportUpperSeparationLayers,1
;   supportLowerSeparationLayers,1
;   supportType,0
;   supportGridSpacing,2.5
;   maxOverhangAngle,80
;   supportAngles,0
;   temperatureName,Primary Extruder,Heated Bed
;   temperatureNumber,0,0
;   temperatureSetpointCount,2,1
;   temperatureSetpointLayers,1,2,1
;   temperatureSetpointTemperatures,245,240,85
;   temperatureStabilizeAtStartup,1,1
;   temperatureHeatedBed,0,1
;   fanLayers,1,2,30
;   fanSpeeds,0,15,25
;   blipFanToFullPower,0
;   adjustSpeedForCooling,1
;   minSpeedLayerTime,5
;   minCoolingSpeedSlowdown,20
;   increaseFanForCooling,0
;   minFanLayerTime,45
;   maxCoolingFanSpeed,35
;   increaseFanForBridging,0
;   bridgingFanSpeed,45
;   use5D,1
;   relativeEdistances,0
;   allowEaxisZeroing,1
;   independentExtruderAxes,0
;   includeM10123,0
;   stickySupport,1
;   applyToolheadOffsets,0
;   gcodeXoffset,0
;   gcodeYoffset,0
;   gcodeZoffset,0.01
;   overrideMachineDefinition,1
;   machineTypeOverride,0
;   strokeXoverride,200
;   strokeYoverride,200
;   strokeZoverride,180
;   originOffsetXoverride,0
;   originOffsetYoverride,0
;   originOffsetZoverride,0
;   homeXdirOverride,-1
;   homeYdirOverride,-1
;   homeZdirOverride,-1
;   flipXoverride,1
;   flipYoverride,-1
;   flipZoverride,1
;   toolheadOffsets,0,0|0,0|0,0|0,0|0,0|0,0
;   overrideFirmwareConfiguration,1
;   firmwareTypeOverride,RepRap (Marlin/Repetier/Sprinter)
;   GPXconfigOverride,r2
;   baudRateOverride,115200
;   overridePrinterModels,1
;   printerModelsOverride
;   startingGcode,G28 ; home all axes,M117 Relieving backpressure,G92 E0 ; reset extruder,G1 Z2.0 F3000 ; move z up little to prevent scratching of surface,G1 E-2 F300 ; retract filament 2mm,M117 Purging extruder,G1 X0.1 Y20 Z0.5 F5000.0 ; move to start-line position,G1 E5 F100 ; extrude filament 10mm,G92 E0,G1 X0.1 Y40.0 Z0.5 F200.0 E10 ; draw 1st line,G1 X0.4 Y40.0 Z0.5 F5000.0 ; move to side a little,G1 X0.4 Y23 Z0.5 F200.0 E20 ; draw 2nd line,G92 E0 ; reset extruder,; done purging extruder,G1 Z1.0 F3000 ; move z up little to prevent scratching of surface,
;   layerChangeGcode,
;   retractionGcode,
;   toolChangeGcode,
;   endingGcode,M117 Relieving backpressure,G1 E-10 F300; retract filament 10mm,G91 ; relative movements,G1 Z10 F3000 ; move z up to prevent hitting screwheads,G90 ; absolute movements,G28 X0 ; home X-axis,M104 S0 ; turn off extruder,M107 ; turn off fans,M140 S0 ; turn off bed,M84 ; disable motors
;   exportFileFormat,gcode
;   celebration,0
;   celebrationSong,Star Wars
;   postProcessing,curl -k -H "X-Api-Key: 4B9F0C1561C34405BE062DAB0E43C5AF" -F "select=false" -F "print=true" -F "file=@[output_filepath]" "http://192.168.1.109:5000/api/files/local" {STRIP "; postProcessing"},,
;   defaultSpeed,1800
;   outlineUnderspeed,0.5
;   solidInfillUnderspeed,0.8
;   supportUnderspeed,0.8
;   rapidXYspeed,12000
;   rapidZspeed,600
;   minBridgingArea,50
;   bridgingExtraInflation,0
;   bridgingExtrusionMultiplier,1
;   bridgingSpeedMultiplier,1
;   useFixedBridgingAngle,0
;   fixedBridgingAngle,0
;   applyBridgingToPerimeters,0
;   filamentDiameters,1.75|1.75|1.75|1.75|1.75|1.75
;   filamentPricesPerKg,24|24|24|24|24|24
;   filamentDensities,1.25|1.25|1.25|1.25|1.25|1.25
;   useMinPrintHeight,1
;   minPrintHeight,0
;   useMaxPrintHeight,0
;   maxPrintHeight,0.2
;   useDiaphragm,0
;   diaphragmLayerInterval,20
;   robustSlicing,1
;   mergeAllIntoSolid,0
;   onlyRetractWhenCrossingOutline,1
;   retractBetweenLayers,1
;   useRetractionMinTravel,0
;   retractionMinTravel,5
;   retractWhileWiping,0
;   onlyWipeOutlines,1
;   avoidCrossingOutline,1
;   maxMovementDetourFactor,3
;   toolChangeRetractionDistance,12
;   toolChangeExtraRestartDistance,-0.5
;   toolChangeRetractionSpeed,600
;   externalThinWallType,0
;   internalThinWallType,2
;   thinWallAllowedOverlapPercentage,10
;   singleExtrusionMinLength,1
;   singleExtrusionMinPrintingWidthPercentage,50
;   singleExtrusionMaxPrintingWidthPercentage,200
;   singleExtrusionEndpointExtension,0.2
;   horizontalSizeCompensation,0
G90
M82
M106 S0
M140 S85
M190 S85
M104 S245 T0
M109 S245 T0
G28 ; home all axes
M117 Relieving backpressure
G92 E0 ; reset extruder
G1 Z2.0 F3000 ; move z up little to prevent scratching of surface
G1 E-2 F300 ; retract filament 2mm
M117 Purging extruder
G1 X0.1 Y20 Z0.5 F5000.0 ; move to start-line position
G1 E5 F100 ; extrude filament 10mm
G92 E0
G1 X0.1 Y40.0 Z0.5 F200.0 E10 ; draw 1st line
G1 X0.4 Y40.0 Z0.5 F5000.0 ; move to side a little
G1 X0.4 Y23 Z0.5 F200.0 E20 ; draw 2nd line
G92 E0 ; reset extruder
; done purging extruder
G1 Z1.0 F3000 ; move z up little to prevent scratching of surface
; process Process1
; layer 1, Z = 0.190
T0
G92 E0.0000
G1 E-0.3000 F2100
; feature inner perimeter
; tool H0.180 W0.400
G1 Z0.190 F600
G1 X79.228 Y79.382 F12000
G1 E0.0000 F2100
G92 E0.0000
G1 X79.385 Y79.226 E0.0064 F675
G1 X79.555 Y79.084 E0.0127
G1 X79.738 Y78.959 E0.0191
G1 X79.932 Y78.851 E0.0255
G1 X80.135 Y78.762 E0.0319
G1 X80.345 Y78.692 E0.0382
G1 X80.561 Y78.641 E0.0446
G1 X80.776 Y78.611 E0.0508
G1 X81.133 Y78.600 E0.0611
G1 X118.987 Y78.600 E1.1489
G1 X119.222 Y78.611 E1.1557
G1 X119.442 Y78.642 E1.1620
G1 X119.658 Y78.693 E1.1684
G1 X119.868 Y78.763 E1.1748
G1 X120.071 Y78.853 E1.1811
G1 X120.264 Y78.961 E1.1875
G1 X120.447 Y79.086 E1.1939
G1 X120.618 Y79.228 E1.2003
G1 X120.774 Y79.385 E1.2066
G1 X120.916 Y79.555 E1.2130
G1 X121.041 Y79.738 E1.2194
G1 X121.149 Y79.932 E1.2257
G1 X121.236 Y80.131 E1.2320
G1 X121.308 Y80.346 E1.2385
G1 X121.359 Y80.561 E1.2448
G1 X121.389 Y80.781 E1.2512
G1 X121.400 Y81.014 E1.2579
G1 X121.400 Y118.987 E2.3492
G1 X121.389 Y119.222 E2.3559
G1 X121.358 Y119.442 E2.3623
G1 X121.307 Y119.658 E2.3687
G1 X121.237 Y119.868 E2.3750
G1 X121.147 Y120.071 E2.3814
G1 X121.039 Y120.264 E2.3878
G1 X120.914 Y120.447 E2.3942
G1 X120.772 Y120.618 E2.4005
G1 X120.615 Y120.774 E2.4069
G1 X120.445 Y120.916 E2.4133
G1 X120.262 Y121.041 E2.4196
G1 X120.068 Y121.149 E2.4260
G1 X119.869 Y121.236 E2.4322
G1 X119.655 Y121.308 E2.4388
G1 X119.439 Y121.359 E2.4451
G1 X119.219 Y121.389 E2.4515
G1 X118.986 Y121.400 E2.4582
G1 X81.013 Y121.400 E3.5494
G1 X80.778 Y121.389 E3.5562
G1 X80.558 Y121.358 E3.5626
G1 X80.342 Y121.307 E3.5689
G1 X80.132 Y121.237 E3.5753
G1 X79.929 Y121.147 E3.5817
G1 X79.736 Y121.039 E3.5880
G1 X79.553 Y120.914 E3.5944
G1 X79.382 Y120.772 E3.6008
G1 X79.226 Y120.615 E3.6072
G1 X79.084 Y120.445 E3.6135
G1 X78.959 Y120.262 E3.6199
G1 X78.851 Y120.068 E3.6263
G1 X78.762 Y119.865 E3.6326
G1 X78.692 Y119.655 E3.6390
G1 X78.641 Y119.439 E3.6454
G1 X78.611 Y119.219 E3.6518
G1 X78.600 Y118.989 E3.6584
G1 X78.600 Y81.136 E4.7462
G1 X78.612 Y80.773 E4.7566
G1 X78.642 Y80.558 E4.7628
G1 X78.693 Y80.342 E4.7692
G1 X78.763 Y80.132 E4.7756
G1 X78.853 Y79.929 E4.7819
G1 X78.961 Y79.736 E4.7883
G1 X79.086 Y79.553 E4.7947
G1 X79.228 Y79.382 E4.8010
; feature outer perimeter
G1 X78.932 Y79.113 F12000
G92 E0.0000
G1 X79.115 Y78.930 E0.0074 F450
G1 X79.314 Y78.765 E0.0149
G1 X79.528 Y78.619 E0.0223
G1 X79.754 Y78.493 E0.0297
G1 X79.990 Y78.389 E0.0372
G1 X80.236 Y78.307 E0.0446
G1 X80.488 Y78.248 E0.0520
G1 X80.743 Y78.212 E0.0594
G1 X81.126 Y78.200 E0.0705
G1 X118.997 Y78.200 E1.1587
G1 X119.260 Y78.212 E1.1663
G1 X119.516 Y78.248 E1.1737
G1 X119.768 Y78.307 E1.1812
G1 X120.013 Y78.390 E1.1886
G1 X120.249 Y78.494 E1.1960
G1 X120.475 Y78.620 E1.2035
G1 X120.688 Y78.767 E1.2109
G1 X120.888 Y78.932 E1.2183
G1 X121.070 Y79.115 E1.2258
G1 X121.235 Y79.314 E1.2332
G1 X121.381 Y79.528 E1.2406
G1 X121.507 Y79.754 E1.2481
G1 X121.610 Y79.986 E1.2554
G1 X121.693 Y80.236 E1.2629
G1 X121.752 Y80.488 E1.2704
G1 X121.788 Y80.744 E1.2778
G1 X121.800 Y81.005 E1.2853
G1 X121.800 Y118.997 E2.3771
G1 X121.788 Y119.260 E2.3846
G1 X121.752 Y119.516 E2.3921
G1 X121.693 Y119.767 E2.3995
G1 X121.610 Y120.013 E2.4069
G1 X121.506 Y120.249 E2.4144
G1 X121.380 Y120.475 E2.4218
G1 X121.233 Y120.688 E2.4292
G1 X121.068 Y120.888 E2.4367
G1 X120.885 Y121.070 E2.4441
G1 X120.686 Y121.235 E2.4515
G1 X120.472 Y121.381 E2.4590
G1 X120.246 Y121.507 E2.4664
G1 X120.014 Y121.610 E2.4737
G1 X119.764 Y121.693 E2.4813
G1 X119.512 Y121.752 E2.4887
G1 X119.256 Y121.788 E2.4961
G1 X118.995 Y121.800 E2.5036
G1 X81.003 Y121.800 E3.5954
G1 X80.740 Y121.788 E3.6030
G1 X80.484 Y121.752 E3.6104
G1 X80.232 Y121.692 E3.6178
G1 X79.987 Y121.610 E3.6253
G1 X79.751 Y121.506 E3.6327
G1 X79.525 Y121.380 E3.6401
G1 X79.311 Y121.233 E3.6476
G1 X79.113 Y121.068 E3.6550
G1 X78.930 Y120.885 E3.6624
G1 X78.765 Y120.686 E3.6699
G1 X78.619 Y120.472 E3.6773
G1 X78.493 Y120.246 E3.6847
G1 X78.389 Y120.010 E3.6922
G1 X78.307 Y119.764 E3.6996
G1 X78.248 Y119.512 E3.7070
G1 X78.212 Y119.256 E3.7145
G1 X78.200 Y118.998 E3.7219
G1 X78.200 Y81.129 E4.8101
G1 X78.213 Y80.739 E4.8213
G1 X78.248 Y80.484 E4.8287
G1 X78.307 Y80.232 E4.8362
G1 X78.390 Y79.987 E4.8436
G1 X78.494 Y79.751 E4.8510
G1 X78.620 Y79.525 E4.8585
G1 X78.767 Y79.311 E4.8659
G1 X78.932 Y79.113 E4.8733
; feature inner perimeter
G1 X80.074 Y80.223 F12000
G92 E0.0000
G1 X79.864 Y80.586 E0.0121 F675
G1 X79.800 Y80.948 E0.0226
G1 X79.800 Y99.400 E0.5529
G1 X99.400 Y99.400 E1.1161
G1 X99.400 Y79.800 E1.6794
G1 X80.945 Y79.800 E2.2097
G1 X80.612 Y79.859 E2.2194
G1 X80.375 Y79.970 E2.2269
G1 X80.074 Y80.223 E2.2382
; feature outer perimeter
G1 X80.385 Y80.484 F12000
G92 E0.0000
G1 X80.245 Y80.725 E0.0080 F450
G1 X80.200 Y80.983 E0.0155
G1 X80.200 Y99.000 E0.5333
G1 X99.000 Y99.000 E1.0735
G1 X99.000 Y80.200 E1.6138
G1 X80.980 Y80.200 E2.1316
G1 X80.734 Y80.244 E2.1388
G1 X80.592 Y80.310 E2.1433
G1 X80.385 Y80.484 E2.1511
; feature inner perimeter
G1 X80.245 Y80.725 F12000
G1 X80.200 Y80.983
G1 X80.200 Y86.837
G1 X79.800 Y100.600
G92 E0.0000
G1 X79.809 Y119.210 E0.5348 F675
G1 X79.944 Y119.579 E0.5461
G1 X80.094 Y119.794 E0.5536
G1 X80.375 Y120.030 E0.5642
G1 X80.613 Y120.141 E0.5717
G1 X80.947 Y120.200 E0.5815
G1 X99.400 Y120.200 E1.1117
G1 X99.400 Y100.600 E1.6750
G1 X79.800 Y100.600 E2.2382
; feature outer perimeter
G1 X80.200 Y101.000 F12000
G92 E0.0000
G1 X80.209 Y119.139 E0.5213 F450
G1 X80.301 Y119.393 E0.5290
G1 X80.392 Y119.522 E0.5335
G1 X80.592 Y119.690 E0.5410
G1 X80.734 Y119.756 E0.5456
G1 X80.983 Y119.800 E0.5528
G1 X99.000 Y119.800 E1.0706
G1 X99.000 Y101.000 E1.6108
G1 X80.200 Y101.000 E2.1511
; feature inner perimeter
G1 X100.600 Y100.600 F12000
G92 E0.0000
G1 X100.600 Y120.200 E0.5632 F675
G1 X119.054 Y120.200 E1.0936
G1 X119.414 Y120.136 E1.1040
G1 X119.777 Y119.926 E1.1161
G1 X120.030 Y119.625 E1.1274
G1 X120.141 Y119.387 E1.1350
G1 X120.200 Y119.052 E1.1447
G1 X120.200 Y100.600 E1.6750
G1 X100.600 Y100.600 E2.2382
; feature outer perimeter
G1 X101.000 Y101.000 F12000
G92 E0.0000
G1 X101.000 Y119.800 E0.5403 F450
G1 X119.019 Y119.800 E1.0581
G1 X119.275 Y119.755 E1.0655
G1 X119.516 Y119.615 E1.0735
G1 X119.690 Y119.408 E1.0813
G1 X119.756 Y119.266 E1.0858
G1 X119.800 Y119.017 E1.0931
G1 X119.800 Y101.000 E1.6108
G1 X101.000 Y101.000 E2.1511
; feature inner perimeter
G1 X100.600 Y99.400 F12000
G92 E0.0000
G1 X120.200 Y99.400 E0.5632 F675
G1 X120.200 Y80.946 E1.0936
G1 X120.141 Y80.613 E1.1033
G1 X120.030 Y80.375 E1.1108
G1 X119.777 Y80.074 E1.1221
G1 X119.414 Y79.864 E1.1342
G1 X119.052 Y79.800 E1.1447
G1 X100.600 Y79.800 E1.6750
G1 X100.600 Y99.400 E2.2382
; feature outer perimeter
G1 X101.000 Y99.000 F12000
G92 E0.0000
G1 X119.800 Y99.000 E0.5403 F450
G1 X119.800 Y80.981 E1.0581
G1 X119.756 Y80.734 E1.0653
G1 X119.690 Y80.592 E1.0698
G1 X119.516 Y80.385 E1.0775
G1 X119.275 Y80.245 E1.0856
G1 X119.017 Y80.200 E1.0931
G1 X101.000 Y80.200 E1.6108
G1 X101.000 Y99.000 E2.1511
; feature solid layer
G1 X100.320 Y100.320 F12000
G92 E0.0000
G1 X99.680 Y99.680 E0.0260 F720
G1 X99.114 Y99.680 E0.0423
G1 X100.320 Y100.886 E0.0913
G1 X100.320 Y101.451 E0.1075
G1 X99.680 Y100.811 E0.1335
G1 X99.680 Y101.377 E0.1498
G1 X100.320 Y102.017 E0.1758
G1 X100.320 Y102.583 E0.1920
G1 X99.680 Y101.943 E0.2181
G1 X99.680 Y102.508 E0.2343
G1 X100.320 Y103.148 E0.2603
G1 X100.320 Y103.714 E0.2766
G1 X99.680 Y103.074 E0.3026
G1 X99.680 Y103.640 E0.3188
G1 X100.320 Y104.280 E0.3449
G1 X100.320 Y104.845 E0.3611
G1 X99.680 Y104.205 E0.3871
G1 X99.680 Y104.771 E0.4034
G1 X100.320 Y105.411 E0.4294
G1 X100.320 Y105.977 E0.4456
G1 X99.680 Y105.337 E0.4716
G1 X99.680 Y105.903 E0.4879
G1 X100.320 Y106.543 E0.5139
G1 X100.320 Y107.108 E0.5302
G1 X99.680 Y106.468 E0.5562
G1 X99.680 Y107.034 E0.5724
G1 X100.320 Y107.674 E0.5984
G1 X100.320 Y108.240 E0.6147
G1 X99.680 Y107.600 E0.6407
G1 X99.680 Y108.165 E0.6570
G1 X100.320 Y108.805 E0.6830
G1 X100.320 Y109.371 E0.6992
G1 X99.680 Y108.731 E0.7252
G1 X99.680 Y109.297 E0.7415
G1 X100.320 Y109.937 E0.7675
G1 X100.320 Y110.502 E0.7838
G1 X99.680 Y109.862 E0.8098
G1 X99.680 Y110.428 E0.8260
G1 X100.320 Y111.068 E0.8520
G1 X100.320 Y111.634 E0.8683
G1 X99.680 Y110.994 E0.8943
G1 X99.680 Y111.559 E0.9106
G1 X100.320 Y112.199 E0.9366
G1 X100.320 Y112.765 E0.9528
G1 X99.680 Y112.125 E0.9788
G1 X99.680 Y112.691 E0.9951
G1 X100.320 Y113.331 E1.0211
G1 X100.320 Y113.896 E1.0374
G1 X99.680 Y113.256 E1.0634
G1 X99.680 Y113.822 E1.0796
G1 X100.320 Y114.462 E1.1056
G1 X100.320 Y115.028 E1.1219
