; G-Code generated by Simplify3D(R) Version 4.1.0
; Feb 28, 2020 at 9:44:28 PM
; Settings Summary
;   processName,Process1
;   applyToModels,No_Smoking_insert
;   profileName,PLA - 0.2mm
;   profileVersion,2019-11-14 02:12:14
;   baseProfile,Wanhao Duplicator i3
;   printMaterial,PLA
;   printQuality,Medium
;   printExtruders,
;   extruderName,Primary Extruder
;   extruderToolheadNumber,0
;   extruderDiameter,0.4
;   extruderAutoWidth,0
;   extruderWidth,0.4
;   extrusionMultiplier,0.94
;   extruderUseRetract,1
;   extruderRetractionDistance,0.3
;   extruderExtraRestartDistance,0
;   extruderRetractionZLift,0.2
;   extruderRetractionSpeed,2100
;   extruderUseCoasting,0
;   extruderCoastingDistance,0.1
;   extruderUseWipe,0
;   extruderWipeDistance,5
;   primaryExtruder,0
;   layerHeight,0.2
;   topSolidLayers,5
;   bottomSolidLayers,5
;   perimeterOutlines,2
;   printPerimetersInsideOut,1
;   startPointOption,2
;   startPointOriginX,0
;   startPointOriginY,0
;   sequentialIslands,0
;   spiralVaseMode,0
;   firstLayerHeightPercentage,90
;   firstLayerWidthPercentage,100
;   firstLayerUnderspeed,0.5
;   useRaft,0
;   raftExtruder,0
;   raftTopLayers,3
;   raftBaseLayers,0
;   raftOffset,3
;   raftSeparationDistance,0.14
;   raftTopInfill,100
;   aboveRaftSpeedMultiplier,0.3
;   useSkirt,0
;   skirtExtruder,0
;   skirtLayers,2
;   skirtOutlines,6
;   skirtOffset,0.3
;   usePrimePillar,0
;   primePillarExtruder,999
;   primePillarWidth,12
;   primePillarLocation,7
;   primePillarSpeedMultiplier,1
;   useOozeShield,0
;   oozeShieldExtruder,999
;   oozeShieldOffset,2
;   oozeShieldOutlines,1
;   oozeShieldSidewallShape,1
;   oozeShieldSidewallAngle,30
;   oozeShieldSpeedMultiplier,1
;   infillExtruder,0
;   internalInfillPattern,Fast Honeycomb
;   externalInfillPattern,Rectilinear
;   infillPercentage,15
;   outlineOverlapPercentage,30
;   infillExtrusionWidthPercentage,105
;   minInfillLength,5
;   infillLayerInterval,1
;   internalInfillAngles,0
;   overlapInternalInfillAngles,0
;   externalInfillAngles,45,-45
;   generateSupport,0
;   supportExtruder,0
;   supportInfillPercentage,30
;   supportExtraInflation,0.2
;   supportBaseLayers,0
;   denseSupportExtruder,0
;   denseSupportLayers,2
;   denseSupportInfillPercentage,70
;   supportLayerInterval,1
;   supportHorizontalPartOffset,0.38
;   supportUpperSeparationLayers,1
;   supportLowerSeparationLayers,1
;   supportType,0
;   supportGridSpacing,2.5
;   maxOverhangAngle,60
;   supportAngles,0
;   temperatureName,Primary Extruder,Heated Bed
;   temperatureNumber,0,0
;   temperatureSetpointCount,2,2
;   temperatureSetpointLayers,1,2,1,2
;   temperatureSetpointTemperatures,200,190,75,70
;   temperatureStabilizeAtStartup,1,1
;   temperatureHeatedBed,0,1
;   fanLayers,1,2,30
;   fanSpeeds,0,25,35
;   blipFanToFullPower,0
;   adjustSpeedForCooling,1
;   minSpeedLayerTime,5
;   minCoolingSpeedSlowdown,20
;   increaseFanForCooling,1
;   minFanLayerTime,15
;   maxCoolingFanSpeed,45
;   increaseFanForBridging,1
;   bridgingFanSpeed,100
;   use5D,1
;   relativeEdistances,0
;   allowEaxisZeroing,1
;   independentExtruderAxes,0
;   includeM10123,0
;   stickySupport,1
;   applyToolheadOffsets,0
;   gcodeXoffset,0
;   gcodeYoffset,0
;   gcodeZoffset,0.01
;   overrideMachineDefinition,1
;   machineTypeOverride,0
;   strokeXoverride,200
;   strokeYoverride,200
;   strokeZoverride,180
;   originOffsetXoverride,0
;   originOffsetYoverride,0
;   originOffsetZoverride,0
;   homeXdirOverride,-1
;   homeYdirOverride,-1
;   homeZdirOverride,-1
;   flipXoverride,1
;   flipYoverride,-1
;   flipZoverride,1
;   toolheadOffsets,0,0|0,0|0,0|0,0|0,0|0,0
;   overrideFirmwareConfiguration,1
;   firmwareTypeOverride,RepRap (Marlin/Repetier/Sprinter)
;   GPXconfigOverride,r2
;   baudRateOverride,115200
;   overridePrinterModels,1
;   printerModelsOverride
;   startingGcode,G28 ; home all axes,M117 Relieving backpressure,G92 E0 ; reset extruder,G1 Z2.0 F3000 ; move z up little to prevent scratching of surface,G1 E-2 F300 ; retract filament 2mm,M117 Purging extruder,G1 X0.1 Y20 Z0.5 F5000.0 ; move to start-line position,G1 E5 F100 ; extrude filament 10mm,G92 E0,G1 X0.1 Y40.0 Z0.5 F100.0 E10 ; draw 1st line,G1 X0.4 Y40.0 Z0.5 F5000.0 ; move to side a little,G1 X0.4 Y23 Z0.5 F100.0 E20 ; draw 2nd line,G92 E0 ; reset extruder,; done purging extruder,G1 Z1.0 F3000 ; move z up little to prevent scratching of surface,
;   layerChangeGcode,
;   retractionGcode,
;   toolChangeGcode,
;   endingGcode,M117 Relieving backpressure,G1 E-10 F300; retract filament 10mm,G91 ; relative movements,G1 Z10 F3000 ; move z up to prevent hitting screwheads,G90 ; absolute movements,G28 X0 ; home X-axis,M104 S0 ; turn off extruder,M107 ; turn off fans,M140 S0 ; turn off bed,M84 ; disable motors
;   exportFileFormat,gcode
;   celebration,0
;   celebrationSong,Star Wars
;   postProcessing,curl -k -H "X-Api-Key: C9733D65F2D947BA94223AA0A6D15129" -F "select=false" -F "print=true" -F "file=@[output_filepath]" "http://192.168.1.109:5000/api/files/local" {STRIP "; postProcessing"},,
;   defaultSpeed,3000
;   outlineUnderspeed,0.5
;   solidInfillUnderspeed,0.8
;   supportUnderspeed,0.8
;   rapidXYspeed,12000
;   rapidZspeed,600
;   minBridgingArea,50
;   bridgingExtraInflation,0
;   bridgingExtrusionMultiplier,1
;   bridgingSpeedMultiplier,1
;   useFixedBridgingAngle,0
;   fixedBridgingAngle,0
;   applyBridgingToPerimeters,0
;   filamentDiameters,1.75|1.75|1.75|1.75|1.75|1.75
;   filamentPricesPerKg,24|24|24|24|24|24
;   filamentDensities,1.25|1.25|1.25|1.25|1.25|1.25
;   useMinPrintHeight,1
;   minPrintHeight,0
;   useMaxPrintHeight,0
;   maxPrintHeight,0.2
;   useDiaphragm,0
;   diaphragmLayerInterval,20
;   robustSlicing,1
;   mergeAllIntoSolid,0
;   onlyRetractWhenCrossingOutline,1
;   retractBetweenLayers,1
;   useRetractionMinTravel,0
;   retractionMinTravel,5
;   retractWhileWiping,0
;   onlyWipeOutlines,1
;   avoidCrossingOutline,1
;   maxMovementDetourFactor,3
;   toolChangeRetractionDistance,12
;   toolChangeExtraRestartDistance,-0.5
;   toolChangeRetractionSpeed,600
;   externalThinWallType,0
;   internalThinWallType,2
;   thinWallAllowedOverlapPercentage,10
;   singleExtrusionMinLength,1
;   singleExtrusionMinPrintingWidthPercentage,50
;   singleExtrusionMaxPrintingWidthPercentage,200
;   singleExtrusionEndpointExtension,0.2
;   horizontalSizeCompensation,0
G90
M82
M106 S0
M140 S75
M190 S75
M104 S200 T0
M109 S200 T0
G28 ; home all axes
M117 Relieving backpressure
G92 E0 ; reset extruder
G1 Z2.0 F3000 ; move z up little to prevent scratching of surface
G1 E-2 F300 ; retract filament 2mm
M117 Purging extruder
G1 X0.1 Y20 Z0.5 F5000.0 ; move to start-line position
G1 E5 F100 ; extrude filament 10mm
G92 E0
G1 X0.1 Y40.0 Z0.5 F100.0 E10 ; draw 1st line
G1 X0.4 Y40.0 Z0.5 F5000.0 ; move to side a little
G1 X0.4 Y23 Z0.5 F100.0 E20 ; draw 2nd line
G92 E0 ; reset extruder
; done purging extruder
G1 Z1.0 F3000 ; move z up little to prevent scratching of surface
; process Process1
; layer 1, Z = 0.190
T0
G92 E0.0000
G1 E-0.3000 F2100
; feature inner perimeter
; tool H0.180 W0.400
G1 Z0.200 F600
G1 X76.716 Y76.795 F12000
G1 Z0.190 F600
G1 E0.0000 F2100
G92 E0.0000
G1 X78.280 Y75.312 E0.0606 F1125
G1 X79.894 Y73.954 E0.1200
G1 X82.417 Y72.143 E0.2074
G1 X85.048 Y70.613 E0.2930
G1 X87.793 Y69.361 E0.3779
G1 X90.653 Y68.386 E0.4629
G1 X93.630 Y67.687 E0.5490
G1 X96.726 Y67.265 E0.6369
G1 X99.944 Y67.120 E0.7275
G1 X102.096 Y67.178 E0.7881
G1 X104.195 Y67.359 E0.8474
G1 X107.257 Y67.863 E0.9347
G1 X110.198 Y68.643 E1.0203
G1 X113.024 Y69.700 E1.1052
G1 X115.735 Y71.034 E1.1903
G1 X118.335 Y72.647 E1.2764
G1 X120.824 Y74.540 E1.3643
G1 X123.205 Y76.716 E1.4551
G1 X124.688 Y78.280 E1.5158
G1 X126.046 Y79.894 E1.5751
G1 X127.857 Y82.417 E1.6625
G1 X129.387 Y85.048 E1.7481
G1 X130.639 Y87.793 E1.8330
G1 X131.614 Y90.653 E1.9181
G1 X132.313 Y93.630 E2.0041
G1 X132.735 Y96.725 E2.0920
G1 X132.880 Y99.944 E2.1826
G1 X132.822 Y102.096 E2.2432
G1 X132.641 Y104.196 E2.3025
G1 X132.137 Y107.257 E2.3898
G1 X131.357 Y110.198 E2.4754
G1 X130.300 Y113.023 E2.5603
G1 X128.966 Y115.736 E2.6454
G1 X127.353 Y118.335 E2.7315
G1 X125.460 Y120.824 E2.8194
G1 X123.284 Y123.205 E2.9102
G1 X121.720 Y124.688 E2.9709
G1 X120.106 Y126.046 E3.0302
G1 X117.583 Y127.857 E3.1176
G1 X114.952 Y129.387 E3.2032
G1 X112.207 Y130.639 E3.2881
G1 X109.347 Y131.614 E3.3732
G1 X106.370 Y132.313 E3.4592
G1 X103.275 Y132.735 E3.5471
G1 X100.056 Y132.880 E3.6377
G1 X97.904 Y132.822 E3.6983
G1 X95.804 Y132.641 E3.7576
G1 X92.743 Y132.137 E3.8449
G1 X89.802 Y131.357 E3.9305
G1 X86.977 Y130.300 E4.0154
G1 X84.265 Y128.966 E4.1005
G1 X81.665 Y127.353 E4.1866
G1 X79.176 Y125.460 E4.2745
G1 X76.795 Y123.284 E4.3653
G1 X75.312 Y121.720 E4.4260
G1 X73.954 Y120.106 E4.4853
G1 X72.143 Y117.583 E4.5727
G1 X70.613 Y114.952 E4.6583
G1 X69.361 Y112.207 E4.7432
G1 X68.386 Y109.347 E4.8283
G1 X67.687 Y106.370 E4.9143
G1 X67.265 Y103.274 E5.0022
G1 X67.120 Y100.056 E5.0929
G1 X67.178 Y97.904 E5.1534
G1 X67.359 Y95.804 E5.2127
G1 X67.863 Y92.743 E5.3000
G1 X68.643 Y89.802 E5.3856
G1 X69.700 Y86.977 E5.4705
G1 X71.034 Y84.264 E5.5556
G1 X72.647 Y81.665 E5.6417
G1 X74.540 Y79.176 E5.7296
G1 X76.716 Y76.795 E5.8204
; feature outer perimeter
G1 X76.430 Y76.514 F12000
G92 E0.0000
G1 X78.014 Y75.013 E0.0614 F750
G1 X79.648 Y73.638 E0.1215
G1 X82.199 Y71.807 E0.2099
G1 X84.864 Y70.257 E0.2966
G1 X87.645 Y68.989 E0.3826
G1 X90.543 Y68.001 E0.4688
G1 X93.557 Y67.293 E0.5559
G1 X96.689 Y66.866 E0.6448
G1 X99.940 Y66.720 E0.7364
G1 X102.119 Y66.778 E0.7977
G1 X104.245 Y66.962 E0.8578
G1 X107.341 Y67.471 E0.9461
G1 X110.320 Y68.261 E1.0328
G1 X113.182 Y69.332 E1.1188
G1 X115.930 Y70.684 E1.2049
G1 X118.562 Y72.317 E1.2921
G1 X121.081 Y74.232 E1.3811
G1 X123.486 Y76.430 E1.4728
G1 X124.987 Y78.014 E1.5342
G1 X126.362 Y79.648 E1.5943
G1 X128.193 Y82.199 E1.6827
G1 X129.743 Y84.864 E1.7694
G1 X131.011 Y87.645 E1.8554
G1 X131.999 Y90.543 E1.9415
G1 X132.707 Y93.557 E2.0287
G1 X133.134 Y96.689 E2.1176
G1 X133.280 Y99.941 E2.2092
G1 X133.222 Y102.119 E2.2705
G1 X133.039 Y104.245 E2.3306
G1 X132.529 Y107.341 E2.4189
G1 X131.739 Y110.320 E2.5056
G1 X130.668 Y113.182 E2.5916
G1 X129.316 Y115.930 E2.6777
G1 X127.683 Y118.562 E2.7649
G1 X125.768 Y121.081 E2.8539
G1 X123.570 Y123.486 E2.9456
G1 X121.986 Y124.987 E3.0070
G1 X120.352 Y126.362 E3.0671
G1 X117.801 Y128.193 E3.1555
G1 X115.136 Y129.743 E3.2422
G1 X112.355 Y131.011 E3.3282
G1 X109.457 Y131.999 E3.4143
G1 X106.443 Y132.707 E3.5015
G1 X103.311 Y133.134 E3.5904
G1 X100.060 Y133.280 E3.6820
G1 X97.881 Y133.222 E3.7433
G1 X95.755 Y133.038 E3.8034
G1 X92.659 Y132.529 E3.8917
G1 X89.680 Y131.739 E3.9784
G1 X86.818 Y130.668 E4.0644
G1 X84.070 Y129.316 E4.1505
G1 X81.438 Y127.683 E4.2377
G1 X78.919 Y125.768 E4.3267
G1 X76.514 Y123.570 E4.4184
G1 X75.013 Y121.986 E4.4798
G1 X73.638 Y120.352 E4.5399
G1 X71.807 Y117.801 E4.6282
G1 X70.257 Y115.136 E4.7150
G1 X68.989 Y112.355 E4.8010
G1 X68.001 Y109.457 E4.8871
G1 X67.293 Y106.443 E4.9743
G1 X66.866 Y103.311 E5.0632
G1 X66.720 Y100.059 E5.1548
G1 X66.778 Y97.881 E5.2161
G1 X66.961 Y95.755 E5.2762
G1 X67.471 Y92.659 E5.3644
G1 X68.261 Y89.680 E5.4511
G1 X69.332 Y86.818 E5.5371
G1 X70.684 Y84.070 E5.6233
G1 X72.317 Y81.438 E5.7105
G1 X74.232 Y78.919 E5.7995
G1 X76.430 Y76.514 E5.8912
; feature inner perimeter
G1 X79.653 Y79.722 F12000
G92 E0.0000
G1 X78.364 Y81.092 E0.0530 F1125
G1 X77.180 Y82.509 E0.1049
G1 X75.612 Y84.712 E0.1810
G1 X74.282 Y87.020 E0.2559
G1 X73.195 Y89.430 E0.3303
G1 X72.350 Y91.940 E0.4049
G1 X71.748 Y94.548 E0.4802
G1 X71.390 Y97.253 E0.5569
G1 X71.276 Y100.111 E0.6374
G1 X71.317 Y101.632 E0.6803
G1 X71.438 Y103.191 E0.7242
G1 X71.837 Y105.839 E0.7996
G1 X72.478 Y108.409 E0.8741
G1 X73.360 Y110.894 E0.9483
G1 X74.482 Y113.293 E1.0228
G1 X75.844 Y115.604 E1.0983
G1 X77.842 Y118.379 E1.1945
G1 X89.325 Y106.854 E1.6523
G1 X86.361 Y106.593 E1.7361
G1 X84.856 Y106.386 E1.7788
G1 X83.021 Y105.996 E1.8316
G1 X81.922 Y105.653 E1.8640
G1 X81.168 Y105.342 E1.8869
G1 X80.519 Y104.998 E1.9076
G1 X80.110 Y104.726 E1.9214
G1 X79.759 Y104.439 E1.9342
G1 X79.466 Y104.141 E1.9459
G1 X79.225 Y103.825 E1.9571
G1 X79.100 Y103.617 E1.9639
G1 X78.993 Y103.397 E1.9708
G1 X78.909 Y103.171 E1.9776
G1 X78.791 Y102.732 E1.9904
G1 X78.707 Y102.224 E2.0049
G1 X78.692 Y101.916 E2.0136
G1 X78.703 Y101.581 E2.0230
G1 X78.737 Y101.258 E2.0321
G1 X78.767 Y101.103 E2.0366
G1 X79.030 Y101.073 E2.0440
G1 X79.109 Y101.251 E2.0495
G1 X79.291 Y101.565 E2.0597
G1 X79.515 Y101.862 E2.0702
G1 X79.776 Y102.137 E2.0809
G1 X80.073 Y102.393 E2.0919
G1 X80.483 Y102.678 E2.1060
G1 X80.948 Y102.937 E2.1209
G1 X81.567 Y103.209 E2.1400
G1 X82.498 Y103.514 E2.1675
G1 X83.843 Y103.811 E2.2063
G1 X86.734 Y104.118 E2.2881
G1 X91.781 Y104.390 E2.4303
G1 X100.500 Y95.638 E2.7779
G1 X84.281 Y95.668 E3.2343
G1 X84.272 Y90.613 E3.3765
G1 X105.546 Y90.574 E3.9751
G1 X118.246 Y77.827 E4.4814
G1 X116.443 Y76.477 E4.5448
G1 X115.147 Y75.606 E4.5888
G1 X112.826 Y74.281 E4.6640
G1 X110.415 Y73.194 E4.7384
G1 X107.920 Y72.350 E4.8125
G1 X105.343 Y71.749 E4.8870
G1 X102.685 Y71.390 E4.9624
G1 X99.952 Y71.275 E5.0394
G1 X98.070 Y71.332 E5.0924
G1 X96.231 Y71.497 E5.1443
G1 X93.565 Y71.945 E5.2204
G1 X90.992 Y72.637 E5.2954
G1 X88.519 Y73.572 E5.3698
G1 X86.147 Y74.749 E5.4443
G1 X83.878 Y76.168 E5.5196
G1 X81.712 Y77.827 E5.5963
G1 X79.653 Y79.722 E5.6751
; feature outer perimeter
G1 X79.935 Y80.006 F12000
G92 E0.0000
G1 X78.663 Y81.358 E0.0522 F750
G1 X77.497 Y82.754 E0.1034
G1 X75.949 Y84.928 E0.1785
G1 X74.639 Y87.203 E0.2524
G1 X73.567 Y89.577 E0.3257
G1 X72.735 Y92.049 E0.3991
G1 X72.142 Y94.619 E0.4733
G1 X71.789 Y97.287 E0.5490
G1 X71.676 Y100.114 E0.6286
G1 X71.716 Y101.611 E0.6708
G1 X71.836 Y103.146 E0.7141
G1 X72.230 Y105.761 E0.7885
G1 X72.862 Y108.293 E0.8619
G1 X73.731 Y110.742 E0.9350
G1 X74.837 Y113.106 E1.0085
G1 X76.180 Y115.385 E1.0829
G1 X77.891 Y117.763 E1.1654
G1 X88.438 Y107.178 E1.5858
G1 X86.315 Y106.990 E1.6458
G1 X84.788 Y106.780 E1.6892
G1 X82.920 Y106.384 E1.7429
G1 X81.786 Y106.029 E1.7763
G1 X80.998 Y105.704 E1.8003
G1 X80.314 Y105.342 E1.8221
G1 X79.872 Y105.048 E1.8370
G1 X79.489 Y104.735 E1.8510
G1 X79.163 Y104.403 E1.8640
G1 X78.894 Y104.050 E1.8765
G1 X78.748 Y103.808 E1.8845
G1 X78.625 Y103.555 E1.8924
G1 X78.527 Y103.293 E1.9003
G1 X78.399 Y102.817 E1.9141
G1 X78.309 Y102.266 E1.9299
G1 X78.292 Y101.919 E1.9396
G1 X78.304 Y101.554 E1.9499
G1 X78.341 Y101.200 E1.9599
G1 X78.423 Y100.771 E1.9722
G1 X78.543 Y100.361 E1.9842
G1 X78.702 Y99.967 E1.9962
G1 X78.901 Y99.589 E2.0082
G1 X79.139 Y99.227 E2.0204
G1 X79.417 Y98.881 E2.0329
G1 X79.488 Y98.808 E2.0357
G1 X79.378 Y99.127 E2.0452
G1 X79.294 Y99.479 E2.0554
G1 X79.251 Y99.782 E2.0640
G1 X79.237 Y100.078 E2.0723
G1 X79.247 Y100.289 E2.0783
G1 X79.275 Y100.498 E2.0842
G1 X79.381 Y100.879 E2.0953
G1 X79.465 Y101.069 E2.1012
G1 X79.625 Y101.343 E2.1101
G1 X79.821 Y101.603 E2.1193
G1 X80.052 Y101.847 E2.1287
G1 X80.318 Y102.076 E2.1386
G1 X80.695 Y102.339 E2.1515
G1 X81.126 Y102.578 E2.1654
G1 X81.710 Y102.835 E2.1834
G1 X82.603 Y103.127 E2.2098
G1 X83.908 Y103.416 E2.2474
G1 X86.766 Y103.719 E2.3283
G1 X91.623 Y103.981 E2.4652
G1 X99.535 Y96.040 E2.7806
G1 X83.882 Y96.069 E3.2210
G1 X83.871 Y90.214 E3.3858
G1 X105.379 Y90.175 E3.9910
G1 X117.638 Y77.871 E4.4797
G1 X116.211 Y76.803 E4.5298
G1 X114.936 Y75.947 E4.5730
G1 X112.644 Y74.638 E4.6473
G1 X110.268 Y73.567 E4.7206
G1 X107.810 Y72.735 E4.7936
G1 X105.270 Y72.143 E4.8670
G1 X102.650 Y71.789 E4.9414
