; G-Code generated by Simplify3D(R) Version 4.1.0
; Feb 28, 2020 at 6:14:28 PM
; Settings Summary
;   processName,Process1
;   applyToModels,No_Smoking_base
;   profileName,PETG (0.2mm) (modified)
;   profileVersion,2019-11-12 18:58:04
;   baseProfile,Wanhao Duplicator i3
;   printMaterial,PETG
;   printQuality,Medium
;   printExtruders,
;   extruderName,Primary Extruder
;   extruderToolheadNumber,0
;   extruderDiameter,0.4
;   extruderAutoWidth,0
;   extruderWidth,0.4
;   extrusionMultiplier,0.96
;   extruderUseRetract,1
;   extruderRetractionDistance,0.3
;   extruderExtraRestartDistance,0
;   extruderRetractionZLift,0
;   extruderRetractionSpeed,2100
;   extruderUseCoasting,0
;   extruderCoastingDistance,0.1
;   extruderUseWipe,0
;   extruderWipeDistance,5
;   primaryExtruder,0
;   layerHeight,0.2
;   topSolidLayers,5
;   bottomSolidLayers,5
;   perimeterOutlines,2
;   printPerimetersInsideOut,1
;   startPointOption,2
;   startPointOriginX,0
;   startPointOriginY,0
;   sequentialIslands,0
;   spiralVaseMode,0
;   firstLayerHeightPercentage,90
;   firstLayerWidthPercentage,100
;   firstLayerUnderspeed,0.5
;   useRaft,0
;   raftExtruder,0
;   raftTopLayers,3
;   raftBaseLayers,0
;   raftOffset,3
;   raftSeparationDistance,0.14
;   raftTopInfill,100
;   aboveRaftSpeedMultiplier,0.3
;   useSkirt,0
;   skirtExtruder,0
;   skirtLayers,2
;   skirtOutlines,6
;   skirtOffset,0.3
;   usePrimePillar,0
;   primePillarExtruder,999
;   primePillarWidth,12
;   primePillarLocation,7
;   primePillarSpeedMultiplier,1
;   useOozeShield,0
;   oozeShieldExtruder,999
;   oozeShieldOffset,2
;   oozeShieldOutlines,1
;   oozeShieldSidewallShape,1
;   oozeShieldSidewallAngle,30
;   oozeShieldSpeedMultiplier,1
;   infillExtruder,0
;   internalInfillPattern,Fast Honeycomb
;   externalInfillPattern,Rectilinear
;   infillPercentage,15
;   outlineOverlapPercentage,30
;   infillExtrusionWidthPercentage,105
;   minInfillLength,5
;   infillLayerInterval,1
;   internalInfillAngles,0
;   overlapInternalInfillAngles,0
;   externalInfillAngles,45,-45
;   generateSupport,0
;   supportExtruder,0
;   supportInfillPercentage,30
;   supportExtraInflation,0.2
;   supportBaseLayers,0
;   denseSupportExtruder,0
;   denseSupportLayers,2
;   denseSupportInfillPercentage,70
;   supportLayerInterval,1
;   supportHorizontalPartOffset,0.38
;   supportUpperSeparationLayers,1
;   supportLowerSeparationLayers,1
;   supportType,0
;   supportGridSpacing,2.5
;   maxOverhangAngle,80
;   supportAngles,0
;   temperatureName,Primary Extruder,Heated Bed
;   temperatureNumber,0,0
;   temperatureSetpointCount,2,1
;   temperatureSetpointLayers,1,2,1
;   temperatureSetpointTemperatures,245,240,85
;   temperatureStabilizeAtStartup,1,1
;   temperatureHeatedBed,0,1
;   fanLayers,1,2,30
;   fanSpeeds,0,15,25
;   blipFanToFullPower,0
;   adjustSpeedForCooling,1
;   minSpeedLayerTime,5
;   minCoolingSpeedSlowdown,20
;   increaseFanForCooling,1
;   minFanLayerTime,45
;   maxCoolingFanSpeed,35
;   increaseFanForBridging,1
;   bridgingFanSpeed,45
;   use5D,1
;   relativeEdistances,0
;   allowEaxisZeroing,1
;   independentExtruderAxes,0
;   includeM10123,0
;   stickySupport,1
;   applyToolheadOffsets,0
;   gcodeXoffset,0
;   gcodeYoffset,0
;   gcodeZoffset,0.01
;   overrideMachineDefinition,1
;   machineTypeOverride,0
;   strokeXoverride,200
;   strokeYoverride,200
;   strokeZoverride,180
;   originOffsetXoverride,0
;   originOffsetYoverride,0
;   originOffsetZoverride,0
;   homeXdirOverride,-1
;   homeYdirOverride,-1
;   homeZdirOverride,-1
;   flipXoverride,1
;   flipYoverride,-1
;   flipZoverride,1
;   toolheadOffsets,0,0|0,0|0,0|0,0|0,0|0,0
;   overrideFirmwareConfiguration,1
;   firmwareTypeOverride,RepRap (Marlin/Repetier/Sprinter)
;   GPXconfigOverride,r2
;   baudRateOverride,115200
;   overridePrinterModels,1
;   printerModelsOverride
;   startingGcode,G28 ; home all axes,M117 Relieving backpressure,G92 E0 ; reset extruder,G1 Z2.0 F3000 ; move z up little to prevent scratching of surface,G1 E-2 F300 ; retract filament 2mm,M117 Purging extruder,G1 X0.1 Y20 Z0.5 F5000.0 ; move to start-line position,G1 E5 F100 ; extrude filament 10mm,G92 E0,G1 X0.1 Y40.0 Z0.5 F200.0 E10 ; draw 1st line,G1 X0.4 Y40.0 Z0.5 F5000.0 ; move to side a little,G1 X0.4 Y23 Z0.5 F200.0 E20 ; draw 2nd line,G92 E0 ; reset extruder,; done purging extruder,G1 Z1.0 F3000 ; move z up little to prevent scratching of surface,
;   layerChangeGcode,
;   retractionGcode,
;   toolChangeGcode,
;   endingGcode,M117 Relieving backpressure,G1 E-10 F300; retract filament 10mm,G91 ; relative movements,G1 Z10 F3000 ; move z up to prevent hitting screwheads,G90 ; absolute movements,G28 X0 ; home X-axis,M104 S0 ; turn off extruder,M107 ; turn off fans,M140 S0 ; turn off bed,M84 ; disable motors
;   exportFileFormat,gcode
;   celebration,0
;   celebrationSong,Star Wars
;   postProcessing,curl -k -H "X-Api-Key: 4B9F0C1561C34405BE062DAB0E43C5AF" -F "select=false" -F "print=true" -F "file=@[output_filepath]" "http://192.168.1.109:5000/api/files/local" {STRIP "; postProcessing"},,
;   defaultSpeed,1800
;   outlineUnderspeed,0.5
;   solidInfillUnderspeed,0.8
;   supportUnderspeed,0.8
;   rapidXYspeed,12000
;   rapidZspeed,600
;   minBridgingArea,50
;   bridgingExtraInflation,0
;   bridgingExtrusionMultiplier,1
;   bridgingSpeedMultiplier,1
;   useFixedBridgingAngle,0
;   fixedBridgingAngle,0
;   applyBridgingToPerimeters,0
;   filamentDiameters,1.75|1.75|1.75|1.75|1.75|1.75
;   filamentPricesPerKg,24|24|24|24|24|24
;   filamentDensities,1.25|1.25|1.25|1.25|1.25|1.25
;   useMinPrintHeight,1
;   minPrintHeight,0
;   useMaxPrintHeight,0
;   maxPrintHeight,0.2
;   useDiaphragm,0
;   diaphragmLayerInterval,20
;   robustSlicing,1
;   mergeAllIntoSolid,0
;   onlyRetractWhenCrossingOutline,1
;   retractBetweenLayers,1
;   useRetractionMinTravel,0
;   retractionMinTravel,5
;   retractWhileWiping,0
;   onlyWipeOutlines,1
;   avoidCrossingOutline,1
;   maxMovementDetourFactor,3
;   toolChangeRetractionDistance,12
;   toolChangeExtraRestartDistance,-0.5
;   toolChangeRetractionSpeed,600
;   externalThinWallType,0
;   internalThinWallType,2
;   thinWallAllowedOverlapPercentage,10
;   singleExtrusionMinLength,1
;   singleExtrusionMinPrintingWidthPercentage,50
;   singleExtrusionMaxPrintingWidthPercentage,200
;   singleExtrusionEndpointExtension,0.2
;   horizontalSizeCompensation,0
G90
M82
M106 S0
M140 S85
M190 S85
M104 S245 T0
M109 S245 T0
G28 ; home all axes
M117 Relieving backpressure
G92 E0 ; reset extruder
G1 Z2.0 F3000 ; move z up little to prevent scratching of surface
G1 E-2 F300 ; retract filament 2mm
M117 Purging extruder
G1 X0.1 Y20 Z0.5 F5000.0 ; move to start-line position
G1 E5 F100 ; extrude filament 10mm
G92 E0
G1 X0.1 Y40.0 Z0.5 F200.0 E10 ; draw 1st line
G1 X0.4 Y40.0 Z0.5 F5000.0 ; move to side a little
G1 X0.4 Y23 Z0.5 F200.0 E20 ; draw 2nd line
G92 E0 ; reset extruder
; done purging extruder
G1 Z1.0 F3000 ; move z up little to prevent scratching of surface
; process Process1
; layer 1, Z = 0.190
T0
G92 E0.0000
G1 E-0.3000 F2100
; feature inner perimeter
; tool H0.180 W0.400
G1 Z0.190 F600
G1 X70.733 Y75.441 F12000
G1 E0.0000 F2100
G92 E0.0000
G1 X75.442 Y70.732 E0.1914 F675
G1 X80.897 Y66.912 E0.3828
G1 X86.933 Y64.098 E0.5741
G1 X93.366 Y62.374 E0.7655
G1 X100.000 Y61.794 E0.9569
G1 X104.207 Y62.162 E1.0783
G1 X106.634 Y62.374 E1.1483
G1 X113.067 Y64.098 E1.3397
G1 X119.103 Y66.912 E1.5310
G1 X122.312 Y69.159 E1.6436
G1 X124.558 Y70.732 E1.7224
G1 X129.268 Y75.441 E1.9138
G1 X133.087 Y80.897 E2.1052
G1 X135.902 Y86.933 E2.2966
G1 X137.626 Y93.365 E2.4879
G1 X138.206 Y100.000 E2.6793
G1 X137.626 Y106.634 E2.8707
G1 X135.902 Y113.067 E3.0621
G1 X133.087 Y119.103 E3.2534
G1 X129.268 Y124.558 E3.4448
G1 X124.558 Y129.267 E3.6362
G1 X119.103 Y133.087 E3.8276
G1 X115.551 Y134.743 E3.9402
G1 X113.067 Y135.902 E4.0190
G1 X106.634 Y137.625 E4.2103
G1 X100.000 Y138.206 E4.4017
G1 X93.366 Y137.625 E4.5931
G1 X86.933 Y135.902 E4.7845
G1 X80.897 Y133.087 E4.9759
G1 X75.442 Y129.267 E5.1672
G1 X70.733 Y124.558 E5.3586
G1 X66.913 Y119.103 E5.5500
G1 X64.098 Y113.067 E5.7414
G1 X62.375 Y106.634 E5.9328
G1 X61.794 Y100.000 E6.1241
G1 X62.375 Y93.365 E6.3155
G1 X64.098 Y86.933 E6.5069
G1 X66.913 Y80.897 E6.6983
G1 X70.733 Y75.441 E6.8897
; feature outer perimeter
G1 X70.425 Y75.183 F12000
G92 E0.0000
G1 X75.184 Y70.425 E0.1934 F450
G1 X80.696 Y66.565 E0.3868
G1 X86.795 Y63.721 E0.5802
G1 X93.296 Y61.979 E0.7736
G1 X100.000 Y61.392 E0.9670
G1 X103.938 Y61.737 E1.0805
G1 X106.704 Y61.979 E1.1603
G1 X113.205 Y63.721 E1.3537
G1 X119.304 Y66.565 E1.5471
G1 X122.541 Y68.831 E1.6607
G1 X124.816 Y70.425 E1.7405
G1 X129.575 Y75.183 E1.9339
G1 X133.435 Y80.696 E2.1273
G1 X136.279 Y86.795 E2.3207
G1 X138.021 Y93.296 E2.5141
G1 X138.608 Y100.000 E2.7075
G1 X138.021 Y106.704 E2.9009
G1 X136.279 Y113.204 E3.0943
G1 X133.435 Y119.304 E3.2876
G1 X129.575 Y124.816 E3.4810
G1 X124.816 Y129.575 E3.6744
G1 X119.304 Y133.435 E3.8678
G1 X115.720 Y135.106 E3.9814
G1 X113.205 Y136.279 E4.0612
G1 X106.704 Y138.021 E4.2546
G1 X100.000 Y138.607 E4.4480
G1 X93.296 Y138.021 E4.6414
G1 X86.795 Y136.279 E4.8348
G1 X80.696 Y133.435 E5.0282
G1 X75.184 Y129.575 E5.2215
G1 X70.425 Y124.816 E5.4149
G1 X66.565 Y119.303 E5.6083
G1 X63.721 Y113.204 E5.8017
G1 X61.979 Y106.704 E5.9951
G1 X61.392 Y100.000 E6.1885
G1 X61.979 Y93.296 E6.3819
G1 X63.721 Y86.795 E6.5753
G1 X66.565 Y80.696 E6.7687
G1 X70.425 Y75.183 E6.9621
; feature inner perimeter
G1 X98.626 Y98.847 F12000
G92 E0.0000
G1 X98.446 Y99.103 E0.0090 F675
G1 X98.314 Y99.386 E0.0180
G1 X98.233 Y99.688 E0.0270
G1 X98.206 Y100.000 E0.0359
G1 X98.233 Y100.311 E0.0449
G1 X98.314 Y100.613 E0.0539
G1 X98.446 Y100.897 E0.0629
G1 X98.626 Y101.153 E0.0719
G1 X98.847 Y101.374 E0.0809
G1 X99.103 Y101.553 E0.0899
G1 X99.386 Y101.686 E0.0989
G1 X99.688 Y101.767 E0.1078
G1 X100.000 Y101.794 E0.1168
G1 X100.312 Y101.766 E0.1258
G1 X100.614 Y101.686 E0.1348
G1 X100.897 Y101.553 E0.1438
G1 X101.153 Y101.374 E0.1528
G1 X101.374 Y101.153 E0.1618
G1 X101.466 Y101.021 E0.1664
G1 X101.554 Y100.897 E0.1707
G1 X101.686 Y100.613 E0.1797
G1 X101.767 Y100.311 E0.1887
G1 X101.794 Y100.000 E0.1977
G1 X101.767 Y99.688 E0.2067
G1 X101.686 Y99.386 E0.2157
G1 X101.554 Y99.103 E0.2247
G1 X101.374 Y98.847 E0.2336
G1 X101.153 Y98.625 E0.2426
G1 X100.897 Y98.446 E0.2516
G1 X100.614 Y98.314 E0.2606
G1 X100.312 Y98.233 E0.2696
G1 X100.152 Y98.219 E0.2742
G1 X100.000 Y98.206 E0.2786
G1 X99.688 Y98.233 E0.2876
G1 X99.386 Y98.314 E0.2966
G1 X99.103 Y98.446 E0.3055
G1 X98.847 Y98.625 E0.3145
G1 X98.626 Y98.847 E0.3235
; feature outer perimeter
G1 X98.933 Y99.105 F12000
G92 E0.0000
G1 X98.794 Y99.304 E0.0070 F450
G1 X98.691 Y99.524 E0.0140
G1 X98.629 Y99.758 E0.0209
G1 X98.608 Y100.000 E0.0279
G1 X98.629 Y100.242 E0.0349
G1 X98.691 Y100.476 E0.0418
G1 X98.794 Y100.696 E0.0488
G1 X98.933 Y100.895 E0.0558
G1 X99.105 Y101.067 E0.0628
G1 X99.304 Y101.206 E0.0698
G1 X99.524 Y101.308 E0.0767
G1 X99.758 Y101.371 E0.0837
G1 X100.000 Y101.392 E0.0907
G1 X100.242 Y101.371 E0.0977
G1 X100.476 Y101.308 E0.1046
G1 X100.696 Y101.206 E0.1116
G1 X100.895 Y101.067 E0.1186
G1 X101.067 Y100.895 E0.1256
G1 X101.139 Y100.792 E0.1292
G1 X101.206 Y100.696 E0.1325
G1 X101.309 Y100.476 E0.1395
G1 X101.371 Y100.242 E0.1465
G1 X101.392 Y100.000 E0.1535
G1 X101.371 Y99.758 E0.1604
G1 X101.309 Y99.523 E0.1674
G1 X101.206 Y99.304 E0.1744
G1 X101.067 Y99.105 E0.1814
G1 X100.895 Y98.933 E0.1883
G1 X100.696 Y98.794 E0.1953
G1 X100.476 Y98.691 E0.2023
G1 X100.242 Y98.628 E0.2093
G1 X100.117 Y98.617 E0.2129
G1 X100.000 Y98.607 E0.2162
G1 X99.758 Y98.628 E0.2232
G1 X99.524 Y98.691 E0.2302
G1 X99.304 Y98.794 E0.2372
G1 X99.105 Y98.933 E0.2441
G1 X98.933 Y99.105 E0.2511
; feature solid layer
G1 X98.794 Y99.304 F12000
G1 X98.691 Y99.524
G1 X98.629 Y99.758
G1 X98.608 Y100.000
G1 X98.629 Y100.242
G1 X98.691 Y100.476
G1 X98.794 Y100.696
G1 X98.933 Y100.895
G1 X98.961 Y100.923
G1 X98.974 Y101.802
G92 E0.0000
G1 X125.301 Y128.129 E1.0699 F720
G1 X125.584 Y127.846 E1.0814
G1 X99.794 Y102.057 E2.1295
G1 X100.000 Y102.075 E2.1354
G1 X100.348 Y102.044 E2.1454
G1 X125.866 Y127.563 E3.1825
G1 X126.149 Y127.280 E3.1940
G1 X100.784 Y101.915 E4.2248
G1 X101.037 Y101.797 E4.2329
G1 X101.152 Y101.717 E4.2369
G1 X126.432 Y126.998 E5.2643
G1 X126.715 Y126.715 E5.2758
G1 X101.462 Y101.462 E6.3021
G1 X101.590 Y101.333 E6.3073
G1 X101.696 Y101.182 E6.3126
G1 X101.717 Y101.151 E6.3137
G1 X126.998 Y126.432 E7.3411
G1 X127.281 Y126.149 E7.3526
G1 X101.915 Y100.784 E8.3834
G1 X101.950 Y100.709 E8.3857
G1 X102.044 Y100.360 E8.3961
G1 X102.045 Y100.347 E8.3965
G1 X127.563 Y125.866 E9.4336
G1 X127.846 Y125.583 E9.4451
G1 X102.057 Y99.794 E10.4932
G1 X123.526 Y70.351 F12000
G92 E0.0000
G1 X129.649 Y76.474 E0.2489 F720
G1 X130.970 Y78.361 E0.3150
G1 X121.639 Y69.030 E0.6943
G1 X119.752 Y67.708 E0.7605
G1 X132.291 Y80.248 E1.2701
G1 X132.844 Y81.037 E1.2978
G1 X133.131 Y81.654 E1.3173
G1 X118.346 Y66.868 E1.9182
G1 X117.286 Y66.374 E1.9518
G1 X133.626 Y82.714 E2.6159
G1 X134.120 Y83.774 E2.6495
G1 X116.226 Y65.880 E3.3767
G1 X115.166 Y65.385 E3.4103
G1 X134.614 Y84.834 E4.2007
G1 X135.109 Y85.894 E4.2343
G1 X114.106 Y64.891 E5.0878
G1 X113.046 Y64.397 E5.1214
G1 X135.603 Y86.954 E6.0381
G1 X135.638 Y87.029 E6.0405
G1 X135.830 Y87.747 E6.0619
G1 X112.253 Y64.170 E7.0201
G1 X111.480 Y63.962 E7.0430
G1 X136.037 Y88.519 E8.0410
G1 X136.244 Y89.292 E8.0640
G1 X110.708 Y63.755 E9.1018
G1 X109.935 Y63.548 E9.1248
G1 X136.451 Y90.065 E10.2025
G1 X136.658 Y90.838 E10.2254
G1 X109.162 Y63.341 E11.3429
G1 X108.389 Y63.134 E11.3659
G1 X136.865 Y91.610 E12.5231
G1 X137.072 Y92.383 E12.5461
G1 X107.617 Y62.927 E13.7432
G1 X106.844 Y62.720 E13.7662
G1 X137.279 Y93.156 E15.0031
G1 X137.349 Y93.414 E15.0108
G1 X137.385 Y93.827 E15.0227
G1 X106.173 Y62.615 E16.2912
G1 X105.553 Y62.561 E16.3090
G1 X137.439 Y94.447 E17.6049
G1 X137.493 Y95.067 E17.6228
G1 X104.933 Y62.506 E18.9460
G1 X104.313 Y62.452 E18.9639
G1 X137.548 Y95.687 E20.3145
G1 X137.602 Y96.307 E20.3324
G1 X103.693 Y62.398 E21.7105
G1 X103.073 Y62.344 E21.7284
G1 X137.656 Y96.926 E23.1338
G1 X137.710 Y97.546 E23.1517
G1 X102.453 Y62.289 E24.5845
G1 X101.833 Y62.235 E24.6024
G1 X137.765 Y98.166 E26.0626
G1 X137.819 Y98.786 E26.0805
G1 X101.214 Y62.181 E27.5682
G1 X100.594 Y62.127 E27.5860
G1 X137.873 Y99.406 E29.1011
G1 X137.925 Y100.000 E29.1182
G1 X137.923 Y100.022 E29.1188
G1 X99.978 Y62.077 E30.6609
G1 X99.458 Y62.122 E30.6759
G1 X137.878 Y100.542 E32.2373
G1 X137.832 Y101.062 E32.2523
G1 X98.938 Y62.168 E33.8330
G1 X98.418 Y62.213 E33.8480
G1 X137.787 Y101.582 E35.4479
G1 X137.741 Y102.103 E35.4629
G1 X97.897 Y62.259 E37.0822
G1 X97.377 Y62.304 E37.0972
G1 X137.695 Y102.623 E38.7357
G1 X137.650 Y103.143 E38.7507
G1 X96.857 Y62.350 E40.4085
G1 X96.337 Y62.395 E40.4235
G1 X137.604 Y103.663 E42.1007
G1 X137.559 Y104.183 E42.1157
G1 X95.817 Y62.441 E43.8121
G1 X95.296 Y62.486 E43.8271
G1 X137.513 Y104.703 E45.5428
G1 X137.468 Y105.224 E45.5578
G1 X94.776 Y62.532 E47.2927
G1 X94.256 Y62.577 E47.3078
G1 X137.422 Y105.744 E49.0620
G1 X137.377 Y106.264 E49.0770
G1 X93.736 Y62.623 E50.8506
G1 X93.414 Y62.651 E50.8599
G1 X93.244 Y62.697 E50.8649
G1 X137.303 Y106.756 E52.6555
G1 X137.184 Y107.202 E52.6688
G1 X92.798 Y62.816 E54.4726
G1 X92.352 Y62.936 E54.4859
G1 X137.064 Y107.648 E56.3030
G1 X136.944 Y108.094 E56.3162
G1 X91.906 Y63.055 E58.1466
G1 X91.459 Y63.175 E58.1599
G1 X136.825 Y108.540 E60.0035
G1 X136.705 Y108.987 E60.0168
G1 X91.013 Y63.294 E61.8737
