; G-Code generated by Simplify3D(R) Version 4.1.0
; May 9, 2020 at 3:06:54 AM
; Settings Summary
;   processName,Process1
;   applyToModels,stringingTest
;   profileName,PETG (0.2mm) (modified)
;   profileVersion,2020-02-28 21:43:21
;   baseProfile,Wanhao Duplicator i3
;   printMaterial,PETG
;   printQuality,Medium
;   printExtruders,
;   extruderName,Primary Extruder
;   extruderToolheadNumber,0
;   extruderDiameter,0.4
;   extruderAutoWidth,0
;   extruderWidth,0.4
;   extrusionMultiplier,0.96
;   extruderUseRetract,1
;   extruderRetractionDistance,0.35
;   extruderExtraRestartDistance,0
;   extruderRetractionZLift,0
;   extruderRetractionSpeed,2100
;   extruderUseCoasting,0
;   extruderCoastingDistance,0.1
;   extruderUseWipe,0
;   extruderWipeDistance,5
;   primaryExtruder,0
;   layerHeight,0.2
;   topSolidLayers,5
;   bottomSolidLayers,5
;   perimeterOutlines,2
;   printPerimetersInsideOut,1
;   startPointOption,2
;   startPointOriginX,0
;   startPointOriginY,0
;   sequentialIslands,0
;   spiralVaseMode,0
;   firstLayerHeightPercentage,90
;   firstLayerWidthPercentage,100
;   firstLayerUnderspeed,0.5
;   useRaft,0
;   raftExtruder,0
;   raftTopLayers,3
;   raftBaseLayers,0
;   raftOffset,3
;   raftSeparationDistance,0.14
;   raftTopInfill,100
;   aboveRaftSpeedMultiplier,0.3
;   useSkirt,1
;   skirtExtruder,0
;   skirtLayers,3
;   skirtOutlines,6
;   skirtOffset,0.32
;   usePrimePillar,0
;   primePillarExtruder,999
;   primePillarWidth,12
;   primePillarLocation,7
;   primePillarSpeedMultiplier,1
;   useOozeShield,0
;   oozeShieldExtruder,999
;   oozeShieldOffset,2
;   oozeShieldOutlines,1
;   oozeShieldSidewallShape,1
;   oozeShieldSidewallAngle,30
;   oozeShieldSpeedMultiplier,1
;   infillExtruder,0
;   internalInfillPattern,Fast Honeycomb
;   externalInfillPattern,Rectilinear
;   infillPercentage,15
;   outlineOverlapPercentage,30
;   infillExtrusionWidthPercentage,105
;   minInfillLength,5
;   infillLayerInterval,1
;   internalInfillAngles,0
;   overlapInternalInfillAngles,0
;   externalInfillAngles,45,-45
;   generateSupport,0
;   supportExtruder,0
;   supportInfillPercentage,30
;   supportExtraInflation,0.2
;   supportBaseLayers,0
;   denseSupportExtruder,0
;   denseSupportLayers,2
;   denseSupportInfillPercentage,70
;   supportLayerInterval,1
;   supportHorizontalPartOffset,0.38
;   supportUpperSeparationLayers,1
;   supportLowerSeparationLayers,1
;   supportType,0
;   supportGridSpacing,2.5
;   maxOverhangAngle,80
;   supportAngles,0
;   temperatureName,Primary Extruder,Heated Bed
;   temperatureNumber,0,0
;   temperatureSetpointCount,2,1
;   temperatureSetpointLayers,1,2,1
;   temperatureSetpointTemperatures,245,220,85
;   temperatureStabilizeAtStartup,1,1
;   temperatureHeatedBed,0,1
;   fanLayers,1,2,30
;   fanSpeeds,0,15,25
;   blipFanToFullPower,0
;   adjustSpeedForCooling,1
;   minSpeedLayerTime,5
;   minCoolingSpeedSlowdown,20
;   increaseFanForCooling,0
;   minFanLayerTime,45
;   maxCoolingFanSpeed,35
;   increaseFanForBridging,0
;   bridgingFanSpeed,45
;   use5D,1
;   relativeEdistances,0
;   allowEaxisZeroing,1
;   independentExtruderAxes,0
;   includeM10123,0
;   stickySupport,1
;   applyToolheadOffsets,0
;   gcodeXoffset,0
;   gcodeYoffset,0
;   gcodeZoffset,0.01
;   overrideMachineDefinition,1
;   machineTypeOverride,0
;   strokeXoverride,200
;   strokeYoverride,200
;   strokeZoverride,180
;   originOffsetXoverride,0
;   originOffsetYoverride,0
;   originOffsetZoverride,0
;   homeXdirOverride,-1
;   homeYdirOverride,-1
;   homeZdirOverride,-1
;   flipXoverride,1
;   flipYoverride,-1
;   flipZoverride,1
;   toolheadOffsets,0,0|0,0|0,0|0,0|0,0|0,0
;   overrideFirmwareConfiguration,1
;   firmwareTypeOverride,RepRap (Marlin/Repetier/Sprinter)
;   GPXconfigOverride,r2
;   baudRateOverride,115200
;   overridePrinterModels,1
;   printerModelsOverride
;   startingGcode,G28 ; home all axes,M117 Relieving backpressure,G92 E0 ; reset extruder,G1 Z2.0 F3000 ; move z up little to prevent scratching of surface,G1 E-2 F300 ; retract filament 2mm,M117 Purging extruder,G1 X0.1 Y20 Z0.5 F5000.0 ; move to start-line position,G1 E5 F100 ; extrude filament 10mm,G92 E0,G1 X0.1 Y40.0 Z0.5 F200.0 E10 ; draw 1st line,G1 X0.4 Y40.0 Z0.5 F5000.0 ; move to side a little,G1 X0.4 Y23 Z0.5 F200.0 E20 ; draw 2nd line,G92 E0 ; reset extruder,; done purging extruder,G1 Z1.0 F3000 ; move z up little to prevent scratching of surface,
;   layerChangeGcode,
;   retractionGcode,
;   toolChangeGcode,
;   endingGcode,M117 Relieving backpressure,G1 E-10 F300; retract filament 10mm,G91 ; relative movements,G1 Z10 F3000 ; move z up to prevent hitting screwheads,G90 ; absolute movements,G28 X0 ; home X-axis,M104 S0 ; turn off extruder,M107 ; turn off fans,M140 S0 ; turn off bed,M84 ; disable motors
;   exportFileFormat,gcode
;   celebration,0
;   celebrationSong,Star Wars
;   postProcessing,curl -k -H "X-Api-Key: 4B9F0C1561C34405BE062DAB0E43C5AF" -F "select=false" -F "print=true" -F "file=@[output_filepath]" "http://192.168.1.109:5000/api/files/local" {STRIP "; postProcessing"},,
;   defaultSpeed,1800
;   outlineUnderspeed,0.5
;   solidInfillUnderspeed,0.8
;   supportUnderspeed,0.8
;   rapidXYspeed,12000
;   rapidZspeed,600
;   minBridgingArea,50
;   bridgingExtraInflation,0
;   bridgingExtrusionMultiplier,1
;   bridgingSpeedMultiplier,1
;   useFixedBridgingAngle,0
;   fixedBridgingAngle,0
;   applyBridgingToPerimeters,0
;   filamentDiameters,1.75|1.75|1.75|1.75|1.75|1.75
;   filamentPricesPerKg,24|24|24|24|24|24
;   filamentDensities,1.25|1.25|1.25|1.25|1.25|1.25
;   useMinPrintHeight,1
;   minPrintHeight,0
;   useMaxPrintHeight,0
;   maxPrintHeight,0.2
;   useDiaphragm,0
;   diaphragmLayerInterval,20
;   robustSlicing,1
;   mergeAllIntoSolid,0
;   onlyRetractWhenCrossingOutline,1
;   retractBetweenLayers,1
;   useRetractionMinTravel,0
;   retractionMinTravel,5
;   retractWhileWiping,0
;   onlyWipeOutlines,1
;   avoidCrossingOutline,1
;   maxMovementDetourFactor,3
;   toolChangeRetractionDistance,12
;   toolChangeExtraRestartDistance,-0.5
;   toolChangeRetractionSpeed,600
;   externalThinWallType,0
;   internalThinWallType,2
;   thinWallAllowedOverlapPercentage,10
;   singleExtrusionMinLength,1
;   singleExtrusionMinPrintingWidthPercentage,50
;   singleExtrusionMaxPrintingWidthPercentage,200
;   singleExtrusionEndpointExtension,0.2
;   horizontalSizeCompensation,0
G90
M82
M106 S0
M140 S85
M190 S85
M104 S245 T0
M109 S245 T0
G28 ; home all axes
M117 Relieving backpressure
G92 E0 ; reset extruder
G1 Z2.0 F3000 ; move z up little to prevent scratching of surface
G1 E-2 F300 ; retract filament 2mm
M117 Purging extruder
G1 X0.1 Y20 Z0.5 F5000.0 ; move to start-line position
G1 E5 F100 ; extrude filament 10mm
G92 E0
G1 X0.1 Y40.0 Z0.5 F200.0 E10 ; draw 1st line
G1 X0.4 Y40.0 Z0.5 F5000.0 ; move to side a little
G1 X0.4 Y23 Z0.5 F200.0 E20 ; draw 2nd line
G92 E0 ; reset extruder
; done purging extruder
G1 Z1.0 F3000 ; move z up little to prevent scratching of surface
; process Process1
; layer 1, Z = 0.190
T0
G92 E0.0000
G1 E-0.3500 F2100
; feature skirt
; tool H0.180 W0.400
G1 Z0.190 F600
G1 X79.955 Y91.126 F12000
G1 E0.0000 F2100
G92 E0.0000
G1 X81.429 Y91.166 E0.0424 F900
G1 X81.565 Y91.177 E0.0463
G1 X82.735 Y91.337 E0.0802
G1 X82.902 Y91.371 E0.0851
G1 X83.710 Y91.595 E0.1092
G1 X83.839 Y91.639 E0.1132
G1 X84.618 Y91.949 E0.1373
G1 X84.773 Y92.023 E0.1422
G1 X85.818 Y92.615 E0.1767
G1 X85.961 Y92.709 E0.1816
G1 X86.625 Y93.214 E0.2056
G1 X86.729 Y93.302 E0.2095
G1 X87.338 Y93.879 E0.2336
G1 X87.454 Y94.005 E0.2385
G1 X88.206 Y94.942 E0.2730
G1 X88.304 Y95.081 E0.2779
G1 X88.734 Y95.796 E0.3019
G1 X88.797 Y95.917 E0.3058
G1 X89.142 Y96.662 E0.3294
G1 X89.193 Y96.789 E0.3334
G1 X89.455 Y97.568 E0.3570
G1 X89.492 Y97.699 E0.3609
G1 X89.672 Y98.518 E0.3850
G1 X89.697 Y98.688 E0.3899
G1 X89.794 Y99.885 E0.4244
G1 X89.797 Y100.056 E0.4293
G1 X89.751 Y100.889 E0.4533
G1 X89.737 Y101.024 E0.4572
G1 X89.604 Y101.835 E0.4808
G1 X89.574 Y101.968 E0.4848
G1 X89.355 Y102.760 E0.5084
G1 X89.311 Y102.889 E0.5123
G1 X89.001 Y103.668 E0.5364
G1 X88.927 Y103.823 E0.5413
G1 X88.335 Y104.868 E0.5758
G1 X88.241 Y105.011 E0.5807
G1 X87.736 Y105.675 E0.6047
G1 X87.648 Y105.779 E0.6086
G1 X87.071 Y106.388 E0.6327
G1 X86.945 Y106.504 E0.6377
G1 X86.008 Y107.256 E0.6722
G1 X85.869 Y107.354 E0.6771
G1 X85.154 Y107.784 E0.7011
G1 X85.033 Y107.847 E0.7050
G1 X84.288 Y108.192 E0.7286
G1 X84.161 Y108.243 E0.7325
G1 X83.382 Y108.505 E0.7561
G1 X83.251 Y108.542 E0.7600
G1 X82.432 Y108.722 E0.7841
G1 X82.263 Y108.747 E0.7890
G1 X80.054 Y108.927 E0.8527
G1 X78.430 Y107.430 E0.9162
G1 X78.430 Y92.610 E1.3421
G1 X79.955 Y91.126 E1.4032
G92 E0.0000
G1 E-0.3500 F2100
G1 X80.113 Y91.531 F12000
G1 E0.0000 F2100
G92 E0.0000
G1 X81.407 Y91.566 E0.0372 F900
G1 X81.522 Y91.575 E0.0405
G1 X82.667 Y91.731 E0.0737
G1 X82.808 Y91.760 E0.0779
G1 X83.592 Y91.978 E0.1013
G1 X83.701 Y92.015 E0.1046
G1 X84.458 Y92.316 E0.1280
G1 X84.588 Y92.378 E0.1321
G1 X85.610 Y92.957 E0.1659
G1 X85.729 Y93.036 E0.1700
G1 X86.374 Y93.526 E0.1932
G1 X86.462 Y93.600 E0.1965
G1 X87.053 Y94.160 E0.2199
G1 X87.150 Y94.266 E0.2241
G1 X87.886 Y95.182 E0.2578
G1 X87.968 Y95.299 E0.2619
G1 X88.385 Y95.993 E0.2852
G1 X88.439 Y96.095 E0.2885
G1 X88.775 Y96.820 E0.3115
G1 X88.817 Y96.927 E0.3148
G1 X89.073 Y97.685 E0.3378
G1 X89.103 Y97.796 E0.3411
G1 X89.278 Y98.591 E0.3645
G1 X89.300 Y98.734 E0.3686
G1 X89.395 Y99.904 E0.4024
G1 X89.397 Y100.047 E0.4065
G1 X89.353 Y100.856 E0.4298
G1 X89.340 Y100.970 E0.4331
G1 X89.211 Y101.759 E0.4561
G1 X89.186 Y101.872 E0.4594
G1 X88.972 Y102.642 E0.4823
G1 X88.935 Y102.751 E0.4856
G1 X88.634 Y103.508 E0.5090
G1 X88.572 Y103.638 E0.5132
G1 X87.993 Y104.660 E0.5469
G1 X87.914 Y104.779 E0.5510
G1 X87.424 Y105.424 E0.5743
G1 X87.350 Y105.512 E0.5776
G1 X86.790 Y106.103 E0.6010
G1 X86.684 Y106.200 E0.6052
G1 X85.768 Y106.936 E0.6389
G1 X85.651 Y107.018 E0.6430
G1 X84.957 Y107.435 E0.6663
G1 X84.855 Y107.489 E0.6696
G1 X84.129 Y107.825 E0.6926
G1 X84.023 Y107.867 E0.6959
G1 X83.265 Y108.123 E0.7189
G1 X83.154 Y108.153 E0.7222
G1 X82.359 Y108.328 E0.7456
G1 X82.217 Y108.350 E0.7497
G1 X80.196 Y108.514 E0.8080
G1 X78.830 Y107.255 E0.8614
G1 X78.830 Y92.779 E1.2773
G1 X80.113 Y91.531 E1.3288
G92 E0.0000
G1 E-0.3500 F2100
G1 X80.271 Y91.935 F12000
G1 E0.0000 F2100
G92 E0.0000
G1 X81.385 Y91.965 E0.0320 F900
G1 X81.478 Y91.973 E0.0347
G1 X82.600 Y92.126 E0.0672
G1 X82.714 Y92.149 E0.0706
G1 X83.475 Y92.360 E0.0933
G1 X83.563 Y92.390 E0.0960
G1 X84.297 Y92.683 E0.1187
G1 X84.402 Y92.733 E0.1220
G1 X85.401 Y93.298 E0.1550
G1 X85.498 Y93.362 E0.1583
G1 X86.123 Y93.838 E0.1809
G1 X86.194 Y93.898 E0.1836
G1 X86.768 Y94.441 E0.2063
G1 X86.847 Y94.527 E0.2096
G1 X87.566 Y95.422 E0.2426
G1 X87.632 Y95.517 E0.2460
G1 X88.037 Y96.190 E0.2685
G1 X88.081 Y96.273 E0.2712
G1 X88.407 Y96.979 E0.2936
G1 X88.442 Y97.065 E0.2963
G1 X88.690 Y97.803 E0.3186
G1 X88.715 Y97.892 E0.3213
G1 X88.885 Y98.664 E0.3440
G1 X88.902 Y98.780 E0.3474
G1 X88.995 Y99.923 E0.3803
G1 X88.996 Y100.039 E0.3837
G1 X88.954 Y100.824 E0.4062
G1 X88.944 Y100.916 E0.4089
G1 X88.818 Y101.684 E0.4313
G1 X88.798 Y101.775 E0.4339
G1 X88.590 Y102.525 E0.4563
G1 X88.560 Y102.613 E0.4590
G1 X88.267 Y103.347 E0.4817
G1 X88.217 Y103.452 E0.4850
G1 X87.652 Y104.451 E0.5180
G1 X87.588 Y104.548 E0.5214
G1 X87.112 Y105.173 E0.5439
G1 X87.052 Y105.244 E0.5466
G1 X86.509 Y105.818 E0.5693
G1 X86.423 Y105.897 E0.5727
G1 X85.528 Y106.615 E0.6056
G1 X85.433 Y106.682 E0.6090
G1 X84.760 Y107.087 E0.6316
G1 X84.678 Y107.130 E0.6342
G1 X83.971 Y107.457 E0.6566
G1 X83.885 Y107.492 E0.6593
G1 X83.147 Y107.740 E0.6816
G1 X83.058 Y107.765 E0.6843
G1 X82.286 Y107.935 E0.7070
G1 X82.171 Y107.952 E0.7103
G1 X80.338 Y108.101 E0.7632
G1 X79.230 Y107.080 E0.8065
G1 X79.230 Y92.948 E1.2126
G1 X80.271 Y91.935 E1.2543
G92 E0.0000
G1 E-0.3500 F2100
G1 X80.429 Y92.340 F12000
G1 E0.0000 F2100
G92 E0.0000
G1 X81.364 Y92.365 E0.0269 F900
G1 X81.435 Y92.371 E0.0289
G1 X82.532 Y92.520 E0.0608
G1 X82.620 Y92.538 E0.0633
G1 X83.357 Y92.743 E0.0853
G1 X83.425 Y92.766 E0.0874
G1 X84.136 Y93.049 E0.1094
G1 X84.217 Y93.088 E0.1120
G1 X85.192 Y93.640 E0.1441
G1 X85.267 Y93.689 E0.1467
G1 X85.873 Y94.150 E0.1686
G1 X85.927 Y94.196 E0.1706
G1 X86.483 Y94.722 E0.1926
G1 X86.544 Y94.788 E0.1952
G1 X87.245 Y95.662 E0.2274
G1 X87.296 Y95.734 E0.2300
G1 X87.689 Y96.387 E0.2519
G1 X87.722 Y96.450 E0.2539
G1 X88.040 Y97.137 E0.2756
G1 X88.066 Y97.203 E0.2777
G1 X88.308 Y97.920 E0.2994
G1 X88.327 Y97.989 E0.3015
G1 X88.491 Y98.737 E0.3235
G1 X88.505 Y98.825 E0.3261
G1 X88.595 Y99.942 E0.3583
G1 X88.596 Y100.031 E0.3608
G1 X88.555 Y100.791 E0.3827
G1 X88.547 Y100.862 E0.3848
G1 X88.425 Y101.609 E0.4065
G1 X88.409 Y101.679 E0.4085
G1 X88.207 Y102.407 E0.4303
G1 X88.184 Y102.475 E0.4323
G1 X87.901 Y103.186 E0.4543
G1 X87.862 Y103.267 E0.4569
G1 X87.310 Y104.242 E0.4891
G1 X87.261 Y104.317 E0.4917
G1 X86.800 Y104.923 E0.5135
G1 X86.754 Y104.977 E0.5156
G1 X86.228 Y105.533 E0.5376
G1 X86.162 Y105.594 E0.5402
G1 X85.289 Y106.295 E0.5724
G1 X85.215 Y106.346 E0.5749
G1 X84.563 Y106.738 E0.5968
G1 X84.500 Y106.772 E0.5989
G1 X83.813 Y107.090 E0.6206
G1 X83.747 Y107.116 E0.6227
G1 X83.030 Y107.358 E0.6444
G1 X82.961 Y107.377 E0.6464
G1 X82.213 Y107.541 E0.6684
G1 X82.125 Y107.555 E0.6710
G1 X80.481 Y107.688 E0.7184
G1 X79.630 Y106.904 E0.7517
G1 X79.630 Y93.117 E1.1479
G1 X80.429 Y92.340 E1.1799
G92 E0.0000
G1 E-0.3500 F2100
G1 X80.587 Y92.744 F12000
G1 E0.0000 F2100
G92 E0.0000
G1 X81.342 Y92.764 E0.0217 F900
G1 X81.392 Y92.768 E0.0232
G1 X82.465 Y92.915 E0.0543
G1 X82.526 Y92.927 E0.0561
G1 X83.240 Y93.125 E0.0774
G1 X83.287 Y93.141 E0.0788
G1 X83.976 Y93.416 E0.1001
G1 X84.032 Y93.443 E0.1019
G1 X84.983 Y93.981 E0.1333
G1 X85.035 Y94.015 E0.1351
G1 X85.622 Y94.461 E0.1563
G1 X85.660 Y94.494 E0.1577
G1 X86.198 Y95.003 E0.1790
G1 X86.240 Y95.049 E0.1808
G1 X86.925 Y95.902 E0.2122
G1 X86.960 Y95.952 E0.2140
G1 X87.340 Y96.584 E0.2352
G1 X87.364 Y96.628 E0.2366
G1 X87.672 Y97.295 E0.2577
G1 X87.691 Y97.341 E0.2591
G1 X87.925 Y98.037 E0.2803
G1 X87.938 Y98.086 E0.2817
G1 X88.098 Y98.810 E0.3030
G1 X88.107 Y98.871 E0.3048
G1 X88.195 Y99.961 E0.3362
G1 X88.196 Y100.023 E0.3380
G1 X88.156 Y100.759 E0.3592
G1 X88.151 Y100.808 E0.3606
G1 X88.032 Y101.533 E0.3817
G1 X88.021 Y101.582 E0.3831
G1 X87.825 Y102.290 E0.4043
G1 X87.809 Y102.337 E0.4057
G1 X87.534 Y103.026 E0.4270
G1 X87.507 Y103.082 E0.4288
G1 X86.969 Y104.033 E0.4602
G1 X86.935 Y104.085 E0.4620
G1 X86.489 Y104.672 E0.4832
G1 X86.456 Y104.710 E0.4846
G1 X85.947 Y105.248 E0.5059
G1 X85.901 Y105.290 E0.5077
G1 X85.049 Y105.975 E0.5391
G1 X84.997 Y106.010 E0.5409
G1 X84.366 Y106.390 E0.5621
G1 X84.322 Y106.414 E0.5635
G1 X83.655 Y106.722 E0.5846
G1 X83.609 Y106.741 E0.5860
G1 X82.912 Y106.975 E0.6072
G1 X82.865 Y106.988 E0.6086
G1 X82.141 Y107.148 E0.6299
G1 X82.079 Y107.157 E0.6317
G1 X80.623 Y107.276 E0.6737
G1 X80.030 Y106.729 E0.6968
G1 X80.030 Y93.286 E1.0831
G1 X80.587 Y92.744 E1.1055
G92 E0.0000
G1 E-0.3500 F2100
G1 X80.745 Y93.148 F12000
G1 E0.0000 F2100
G92 E0.0000
G1 X81.320 Y93.164 E0.0166 F900
G1 X81.348 Y93.166 E0.0174
G1 X82.398 Y93.309 E0.0478
G1 X82.432 Y93.316 E0.0488
G1 X83.122 Y93.508 E0.0694
G1 X83.150 Y93.517 E0.0702
G1 X83.815 Y93.782 E0.0908
G1 X83.847 Y93.797 E0.0918
G1 X84.774 Y94.322 E0.1224
G1 X84.804 Y94.342 E0.1235
G1 X85.371 Y94.773 E0.1439
G1 X85.393 Y94.791 E0.1447
G1 X85.913 Y95.284 E0.1653
G1 X85.937 Y95.310 E0.1663
G1 X86.605 Y96.142 E0.1970
