; G-Code generated by Simplify3D(R) Version 4.1.0
; Jan 26, 2019 at 9:37:41 PM
; Settings Summary
;   processName,Process1
;   applyToModels,ThinkOutside_with_ring,ThinkOutside_with_ring(2)
;   profileName,PLA - 0.2mm (modified)
;   profileVersion,2019-01-23 14:06:02
;   baseProfile,Wanhao Duplicator i3
;   printMaterial,PLA
;   printQuality,Medium
;   printExtruders,
;   extruderName,Primary Extruder
;   extruderToolheadNumber,0
;   extruderDiameter,0.4
;   extruderAutoWidth,0
;   extruderWidth,0.4
;   extrusionMultiplier,0.94
;   extruderUseRetract,1
;   extruderRetractionDistance,0.3
;   extruderExtraRestartDistance,0
;   extruderRetractionZLift,0.2
;   extruderRetractionSpeed,2100
;   extruderUseCoasting,0
;   extruderCoastingDistance,0.1
;   extruderUseWipe,0
;   extruderWipeDistance,5
;   primaryExtruder,0
;   layerHeight,0.2
;   topSolidLayers,5
;   bottomSolidLayers,3
;   perimeterOutlines,2
;   printPerimetersInsideOut,1
;   startPointOption,2
;   startPointOriginX,0
;   startPointOriginY,0
;   sequentialIslands,0
;   spiralVaseMode,0
;   firstLayerHeightPercentage,90
;   firstLayerWidthPercentage,100
;   firstLayerUnderspeed,0.25
;   useRaft,0
;   raftExtruder,0
;   raftTopLayers,3
;   raftBaseLayers,0
;   raftOffset,3
;   raftSeparationDistance,0.14
;   raftTopInfill,100
;   aboveRaftSpeedMultiplier,0.3
;   useSkirt,0
;   skirtExtruder,0
;   skirtLayers,2
;   skirtOutlines,2
;   skirtOffset,0.6
;   usePrimePillar,0
;   primePillarExtruder,999
;   primePillarWidth,12
;   primePillarLocation,7
;   primePillarSpeedMultiplier,1
;   useOozeShield,0
;   oozeShieldExtruder,999
;   oozeShieldOffset,2
;   oozeShieldOutlines,1
;   oozeShieldSidewallShape,1
;   oozeShieldSidewallAngle,30
;   oozeShieldSpeedMultiplier,1
;   infillExtruder,0
;   internalInfillPattern,Fast Honeycomb
;   externalInfillPattern,Rectilinear
;   infillPercentage,100
;   outlineOverlapPercentage,30
;   infillExtrusionWidthPercentage,105
;   minInfillLength,5
;   infillLayerInterval,1
;   internalInfillAngles,0
;   overlapInternalInfillAngles,0
;   externalInfillAngles,45,-45
;   generateSupport,0
;   supportExtruder,0
;   supportInfillPercentage,30
;   supportExtraInflation,0.2
;   supportBaseLayers,0
;   denseSupportExtruder,0
;   denseSupportLayers,2
;   denseSupportInfillPercentage,70
;   supportLayerInterval,1
;   supportHorizontalPartOffset,0.38
;   supportUpperSeparationLayers,1
;   supportLowerSeparationLayers,1
;   supportType,0
;   supportGridSpacing,1.5
;   maxOverhangAngle,60
;   supportAngles,0
;   temperatureName,Primary Extruder,Heated Bed
;   temperatureNumber,0,0
;   temperatureSetpointCount,2,2
;   temperatureSetpointLayers,1,2,1,2
;   temperatureSetpointTemperatures,210,200,75,70
;   temperatureStabilizeAtStartup,1,0
;   temperatureHeatedBed,0,1
;   fanLayers,1,2,30
;   fanSpeeds,0,25,50
;   blipFanToFullPower,0
;   adjustSpeedForCooling,1
;   minSpeedLayerTime,5
;   minCoolingSpeedSlowdown,20
;   increaseFanForCooling,0
;   minFanLayerTime,15
;   maxCoolingFanSpeed,100
;   increaseFanForBridging,1
;   bridgingFanSpeed,100
;   use5D,1
;   relativeEdistances,0
;   allowEaxisZeroing,1
;   independentExtruderAxes,0
;   includeM10123,0
;   stickySupport,1
;   applyToolheadOffsets,0
;   gcodeXoffset,0
;   gcodeYoffset,0
;   gcodeZoffset,-0.01
;   overrideMachineDefinition,1
;   machineTypeOverride,0
;   strokeXoverride,200
;   strokeYoverride,200
;   strokeZoverride,180
;   originOffsetXoverride,0
;   originOffsetYoverride,0
;   originOffsetZoverride,0
;   homeXdirOverride,-1
;   homeYdirOverride,-1
;   homeZdirOverride,-1
;   flipXoverride,1
;   flipYoverride,-1
;   flipZoverride,1
;   toolheadOffsets,0,0|0,0|0,0|0,0|0,0|0,0
;   overrideFirmwareConfiguration,1
;   firmwareTypeOverride,RepRap (Marlin/Repetier/Sprinter)
;   GPXconfigOverride,r2
;   baudRateOverride,115200
;   overridePrinterModels,1
;   printerModelsOverride
;   startingGcode,G28 ; home all axes,M117 Relieving backpressure,G92 E0 ; reset extruder,G1 Z2.0 F3000 ; move z up little to prevent scratching of surface,G1 E-2 F300 ; retract filament 2mm,M117 Purging extruder,G1 X0.1 Y20 Z0.5 F5000.0 ; move to start-line position,G1 E5 F100 ; extrude filament 10mm,G92 E0,G1 X0.1 Y40.0 Z0.5 F100.0 E10 ; draw 1st line,G1 X0.4 Y40.0 Z0.5 F5000.0 ; move to side a little,G1 X0.4 Y23 Z0.5 F100.0 E20 ; draw 2nd line,G92 E0 ; reset extruder,; done purging extruder,G1 Z1.0 F3000 ; move z up little to prevent scratching of surface,
;   layerChangeGcode,
;   retractionGcode,
;   toolChangeGcode,
;   endingGcode,M117 Relieving backpressure,G1 E-10 F300; retract filament 10mm,G91 ; relative movements,G1 Z10 F3000 ; move z up to prevent hitting screwheads,G90 ; absolute movements,G28 X0 ; home X-axis,M104 S0 ; turn off extruder,M107 ; turn off fans,M140 S0 ; turn off bed,M84 ; disable motors
;   exportFileFormat,gcode
;   celebration,0
;   celebrationSong,Star Wars
;   postProcessing,curl -k -H "X-Api-Key: 22CC1DFDF92842F6AFA41AFDA74ECE58" -F "select=false" -F "print=true" -F "file=@[output_filepath]" "http://192.168.1.109:5000/api/files/local" {STRIP "; postProcessing"},,
;   defaultSpeed,1800
;   outlineUnderspeed,0.5
;   solidInfillUnderspeed,0.8
;   supportUnderspeed,0.8
;   rapidXYspeed,12000
;   rapidZspeed,600
;   minBridgingArea,50
;   bridgingExtraInflation,0
;   bridgingExtrusionMultiplier,1
;   bridgingSpeedMultiplier,1
;   useFixedBridgingAngle,0
;   fixedBridgingAngle,0
;   applyBridgingToPerimeters,0
;   filamentDiameters,1.75|1.75|1.75|1.75|1.75|1.75
;   filamentPricesPerKg,24|24|24|24|24|24
;   filamentDensities,1.25|1.25|1.25|1.25|1.25|1.25
;   useMinPrintHeight,1
;   minPrintHeight,0
;   useMaxPrintHeight,0
;   maxPrintHeight,0.2
;   useDiaphragm,0
;   diaphragmLayerInterval,20
;   robustSlicing,1
;   mergeAllIntoSolid,0
;   onlyRetractWhenCrossingOutline,1
;   retractBetweenLayers,1
;   useRetractionMinTravel,0
;   retractionMinTravel,5
;   retractWhileWiping,0
;   onlyWipeOutlines,1
;   avoidCrossingOutline,1
;   maxMovementDetourFactor,3
;   toolChangeRetractionDistance,12
;   toolChangeExtraRestartDistance,-0.5
;   toolChangeRetractionSpeed,600
;   externalThinWallType,0
;   internalThinWallType,2
;   thinWallAllowedOverlapPercentage,10
;   singleExtrusionMinLength,1
;   singleExtrusionMinPrintingWidthPercentage,50
;   singleExtrusionMaxPrintingWidthPercentage,200
;   singleExtrusionEndpointExtension,0.2
;   horizontalSizeCompensation,0
G90
M82
M106 S0
M140 S75
M104 S210 T0
M109 S210 T0
G28 ; home all axes
M117 Relieving backpressure
G92 E0 ; reset extruder
G1 Z2.0 F3000 ; move z up little to prevent scratching of surface
G1 E-2 F300 ; retract filament 2mm
M117 Purging extruder
G1 X0.1 Y20 Z0.5 F5000.0 ; move to start-line position
G1 E5 F100 ; extrude filament 10mm
G92 E0
G1 X0.1 Y40.0 Z0.5 F100.0 E10 ; draw 1st line
G1 X0.4 Y40.0 Z0.5 F5000.0 ; move to side a little
G1 X0.4 Y23 Z0.5 F100.0 E20 ; draw 2nd line
G92 E0 ; reset extruder
; done purging extruder
G1 Z1.0 F3000 ; move z up little to prevent scratching of surface
; process Process1
; layer 1, Z = 0.170
T0
G92 E0.0000
G1 E-0.3000 F2100
; feature inner perimeter
; tool H0.180 W0.400
G1 Z0.200 F600
G1 X103.130 Y72.338 F12000
G1 Z0.170 F600
G1 E0.0000 F2100
G92 E0.0000
G1 X103.843 Y72.565 E0.0211 F337
G1 X103.379 Y73.203 E0.0433
G1 X103.130 Y73.123 E0.0506
G1 X103.130 Y72.338 E0.0727
G1 X103.578 Y71.853 F12000
G1 X103.578 Y72.061
G1 X103.857 Y72.150
G1 X105.683 Y69.571
G1 X107.794 Y67.285
G92 E0.0000
G1 X108.335 Y66.521 E0.0263 F337
G1 X108.586 Y66.601 E0.0338
G1 X108.586 Y67.543 E0.0603
G1 X107.794 Y67.285 E0.0837
G92 E0.0000
G1 E-0.3000 F2100
G1 Z0.370 F600
G1 X111.159 Y68.034 F12000
G1 Z0.170 F600
G1 E0.0000 F2100
G92 E0.0000
G1 X111.411 Y67.955 E0.0074 F337
G1 X111.961 Y68.737 E0.0343
G1 X111.159 Y68.985 E0.0579
G1 X111.159 Y68.034 E0.0847
; feature outer perimeter
G1 X111.691 Y67.657 F12000
G92 E0.0000
G1 X113.192 Y69.791 E0.0734 F225
G1 X116.037 Y65.167 E0.2261
G1 X117.027 Y65.167 E0.2540
G1 X113.829 Y70.466 E0.4281
G1 X116.585 Y74.460 E0.5647
G1 X115.615 Y74.460 E0.5920
G1 X111.972 Y69.152 E0.7731
G1 X111.691 Y69.239 E0.7814
G1 X111.691 Y74.460 E0.9283
G1 X111.669 Y74.460 E0.9289
G1 X111.669 Y95.317 E1.5158
G1 X99.165 Y95.317 E1.8677
G1 X99.597 Y95.773 E1.8853
G1 X99.680 Y95.894 E1.8895
G1 X99.743 Y96.027 E1.8936
G1 X99.784 Y96.163 E1.8976
G1 X99.804 Y96.417 E1.9048
G1 X99.785 Y96.557 E1.9087
G1 X99.743 Y96.698 E1.9129
G1 X99.680 Y96.831 E1.9170
G1 X99.597 Y96.952 E1.9211
G1 X99.496 Y97.059 E1.9253
G1 X99.379 Y97.148 E1.9294
G1 X99.250 Y97.218 E1.9336
G1 X99.116 Y97.266 E1.9375
G1 X98.869 Y97.298 E1.9446
G1 X98.621 Y97.266 E1.9516
G1 X98.488 Y97.218 E1.9556
G1 X98.358 Y97.148 E1.9597
G1 X98.242 Y97.059 E1.9639
G1 X98.141 Y96.952 E1.9680
G1 X98.057 Y96.831 E1.9721
G1 X97.994 Y96.698 E1.9763
G1 X97.952 Y96.557 E1.9804
G1 X97.934 Y96.417 E1.9844
G1 X97.954 Y96.163 E1.9916
G1 X97.994 Y96.027 E1.9955
G1 X98.057 Y95.894 E1.9997
G1 X98.141 Y95.773 E2.0038
G1 X98.573 Y95.317 E2.0215
G1 X86.069 Y95.317 E2.3733
G1 X86.069 Y74.460 E2.9602
G1 X82.818 Y74.460 E3.0517
G1 X82.818 Y73.654 E3.0744
G1 X85.897 Y73.654 E3.1610
G1 X85.897 Y65.167 E3.3998
G1 X86.828 Y65.167 E3.4260
G1 X86.828 Y69.718 E3.5540
G1 X90.996 Y69.718 E3.6713
G1 X90.996 Y65.167 E3.7993
G1 X91.928 Y65.167 E3.8255
G1 X91.928 Y69.718 E3.9536
G1 X96.529 Y69.718 E4.0830
G1 X96.529 Y65.167 E4.2111
G1 X97.460 Y65.167 E4.2373
G1 X97.460 Y69.718 E4.3653
G1 X99.436 Y69.718 E4.4209
G1 X99.436 Y65.167 E4.5489
G1 X100.367 Y65.167 E4.5751
G1 X100.367 Y69.718 E4.7031
G1 X102.730 Y69.718 E4.7696
G1 X102.730 Y65.167 E4.8977
G1 X103.578 Y65.167 E4.9215
G1 X103.578 Y72.061 E5.1155
G1 X103.857 Y72.150 E5.1237
G1 X108.892 Y65.043 E5.3688
G1 X108.986 Y65.043 E5.3714
G1 X108.986 Y69.718 E5.5030
G1 X110.759 Y69.718 E5.5529
G1 X110.759 Y65.167 E5.6809
G1 X111.691 Y65.167 E5.7071
G1 X111.691 Y67.657 E5.7772
G1 X110.759 Y70.618 F12000
G92 E0.0000
G1 X108.986 Y70.618 E0.0499 F225
G1 X108.986 Y74.460 E0.1580
G1 X108.138 Y74.460 E0.1819
G1 X108.138 Y67.817 E0.3688
G1 X107.862 Y67.728 E0.3770
G1 X102.958 Y74.460 E0.6113
G1 X102.730 Y74.460 E0.6178
G1 X102.730 Y70.618 E0.7259
G1 X100.367 Y70.618 E0.7924
G1 X100.367 Y74.460 E0.9005
G1 X99.436 Y74.460 E0.9267
G1 X99.436 Y70.618 E1.0348
G1 X97.460 Y70.618 E1.0904
G1 X97.460 Y74.460 E1.1986
G1 X96.529 Y74.460 E1.2248
G1 X96.529 Y70.618 E1.3329
G1 X91.928 Y70.618 E1.4624
G1 X91.928 Y74.460 E1.5705
G1 X90.996 Y74.460 E1.5967
G1 X90.996 Y70.618 E1.7048
G1 X86.969 Y70.618 E1.8182
G1 X86.969 Y73.654 E1.9036
G1 X90.073 Y73.654 E1.9909
G1 X90.073 Y74.460 E2.0136
G1 X86.969 Y74.460 E2.1010
G1 X86.969 Y94.418 E2.6625
G1 X110.769 Y94.418 E3.3322
G1 X110.759 Y70.618 E4.0019
G1 X108.986 Y70.618 F12000
G1 X108.986 Y74.436
G1 X108.975 Y74.460
G1 X108.986 Y74.460
G1 X108.986 Y70.618
G1 X110.759 Y70.618
G1 X110.769 Y94.418
G1 X99.708 Y94.418
G1 X99.290 Y95.317
G1 X99.165 Y95.317
G1 X99.249 Y95.406
G1 X99.174 Y95.568
G92 E0.0000
G1 X99.004 Y95.523 E0.0049 F225
G1 X98.869 Y95.512 E0.0088
G1 X98.733 Y95.523 E0.0126
G1 X98.564 Y95.568 E0.0175
G1 X98.405 Y95.649 E0.0225
G1 X98.267 Y95.761 E0.0275
G1 X98.155 Y95.899 E0.0325
G1 X98.074 Y96.057 E0.0376
G1 X98.029 Y96.227 E0.0425
G1 X98.018 Y96.365 E0.0464
G1 X98.036 Y96.539 E0.0513
G1 X98.090 Y96.706 E0.0562
G1 X98.156 Y96.828 E0.0602
G1 X98.267 Y96.964 E0.0651
G1 X98.405 Y97.076 E0.0701
G1 X98.564 Y97.157 E0.0751
G1 X98.733 Y97.202 E0.0800
G1 X98.869 Y97.213 E0.0839
G1 X99.004 Y97.202 E0.0877
G1 X99.174 Y97.157 E0.0926
G1 X99.332 Y97.076 E0.0976
G1 X99.470 Y96.964 E0.1026
G1 X99.582 Y96.826 E0.1076
G1 X99.663 Y96.668 E0.1127
G1 X99.709 Y96.498 E0.1176
G1 X99.719 Y96.362 E0.1214
G1 X99.709 Y96.227 E0.1252
G1 X99.663 Y96.057 E0.1302
G1 X99.582 Y95.899 E0.1352
G1 X99.470 Y95.761 E0.1402
G1 X99.332 Y95.649 E0.1452
G1 X99.174 Y95.568 E0.1502
G92 E0.0000
G1 E-0.3000 F2100
; feature gap fill
G1 Z0.370 F600
G1 X99.184 Y95.337 F12000
G1 X99.165 Y95.317
G1 X99.184 Y95.317
G1 X100.087 Y74.066
G1 Z0.170 F600
G1 E0.0000 F2100
G92 E0.0000
G1 X99.716 Y73.695 E0.0148 F450
G1 X99.716 Y73.129 E0.0307
G1 X100.087 Y73.500 E0.0455
G1 X100.087 Y72.935 E0.0614
G1 X99.716 Y72.563 E0.0761
G1 X99.716 Y71.998 E0.0921
G1 X100.087 Y72.369 E0.1068
G1 X100.087 Y71.803 E0.1228
G1 X99.716 Y71.432 E0.1375
G1 X99.413 Y69.998 F12000
G92 E0.0000
G1 X100.087 Y70.672 E0.0268 F450
G1 X100.087 Y71.237 E0.0427
G1 X99.716 Y70.866 E0.0575
G1 X99.716 Y70.338 E0.0724
G1 X99.187 Y70.338 E0.0873
G1 X98.847 Y69.998 E0.1008
G1 X98.282 Y69.998 E0.1167
G1 X98.622 Y70.338 E0.1303
G1 X98.056 Y70.338 E0.1462
G1 X97.716 Y69.998 E0.1597
G1 X96.809 Y70.788 F12000
G92 E0.0000
G1 X97.180 Y71.159 E0.0148 F450
G1 X97.180 Y71.724 E0.0307
G1 X96.809 Y71.353 E0.0455
G1 X96.809 Y71.919 E0.0614
G1 X97.180 Y72.290 E0.0761
G1 X97.180 Y72.856 E0.0921
G1 X96.809 Y72.485 E0.1068
G1 X96.809 Y73.050 E0.1228
G1 X97.180 Y73.422 E0.1375
G1 X97.180 Y73.987 E0.1534
G1 X96.809 Y73.616 E0.1682
G1 X96.529 Y73.622 F12000
G1 X96.529 Y70.618
G1 X91.928 Y70.618
G1 X91.928 Y73.725
G1 X91.276 Y73.740
G92 E0.0000
G1 X91.648 Y74.111 E0.0148 F450
G1 X91.648 Y73.546 E0.0307
G1 X91.276 Y73.174 E0.0455
G1 X91.276 Y72.609 E0.0614
G1 X91.648 Y72.980 E0.0761
G1 X91.648 Y72.414 E0.0921
G1 X91.276 Y72.043 E0.1068
G1 X91.276 Y71.477 E0.1228
G1 X91.648 Y71.849 E0.1375
G1 X91.648 Y71.283 E0.1534
G1 X91.276 Y70.912 E0.1682
G1 X91.276 Y69.780 F12000
G92 E0.0000
G1 X91.834 Y70.338 E0.0222 F450
G1 X91.648 Y70.338 E0.0274
G1 X91.648 Y70.717 E0.0381
G1 X91.276 Y70.346 E0.0529
G1 X91.276 Y70.338 E0.0531
G1 X91.268 Y70.338 E0.0533
G1 X90.928 Y69.998 E0.0669
G1 X90.362 Y69.998 E0.0828
G1 X90.702 Y70.338 E0.0963
G1 X90.137 Y70.338 E0.1122
G1 X89.797 Y69.998 E0.1258
G1 X89.231 Y69.998 E0.1417
G1 X89.571 Y70.338 E0.1552
G1 X89.005 Y70.338 E0.1711
G1 X88.665 Y69.998 E0.1847
G1 X88.099 Y69.998 E0.2006
G1 X88.439 Y70.338 E0.2141
G1 X87.874 Y70.338 E0.2300
G1 X87.534 Y69.998 E0.2436
G1 X86.968 Y69.998 E0.2595
G1 X87.308 Y70.338 E0.2730
G1 X86.742 Y70.338 E0.2889
G1 X86.177 Y69.772 E0.3114
G1 X86.177 Y69.206 E0.3273
G1 X86.548 Y69.577 E0.3421
G1 X86.548 Y69.012 E0.3580
G1 X86.177 Y68.640 E0.3728
G1 X86.177 Y68.075 E0.3887
G1 X86.548 Y68.446 E0.4035
G1 X86.548 Y67.880 E0.4194
G1 X86.177 Y67.509 E0.4342
G1 X86.177 Y66.943 E0.4501
G1 X86.548 Y67.315 E0.4649
G1 X86.548 Y66.749 E0.4808
G1 X86.177 Y66.378 E0.4956
G1 X86.177 Y65.812 E0.5115
G1 X86.548 Y66.183 E0.5262
G1 X86.548 Y65.617 E0.5422
G1 X86.378 Y65.447 E0.5489
G1 X86.177 Y70.337 F12000
G92 E0.0000
G1 X86.689 Y70.849 E0.0204 F450
G1 X86.689 Y71.415 E0.0363
G1 X86.177 Y70.903 E0.0567
G1 X86.177 Y71.469 E0.0726
G1 X86.689 Y71.981 E0.0930
G1 X86.689 Y72.547 E0.1089
G1 X86.177 Y72.035 E0.1293
G1 X86.177 Y72.600 E0.1452
G1 X86.689 Y73.112 E0.1655
G1 X86.689 Y73.678 E0.1815
G1 X86.177 Y73.166 E0.2018
G1 X85.897 Y73.397 F12000
G1 X85.897 Y73.654
G1 X85.586 Y73.654
G1 X85.248 Y73.934
G92 E0.0000
G1 X85.494 Y74.180 E0.0098 F450
G1 X84.928 Y74.180 E0.0257
G1 X84.682 Y73.934 E0.0355
G1 X84.116 Y73.934 E0.0514
G1 X84.363 Y74.180 E0.0612
G1 X83.797 Y74.180 E0.0772
G1 X83.551 Y73.934 E0.0870
G1 X83.098 Y73.934 E0.0997
G1 X83.098 Y74.047 E0.1029
G1 X83.231 Y74.180 E0.1082
G1 X89.793 Y73.953 F12000
G92 E0.0000
G1 X89.773 Y73.934 E0.0008 F450
G1 X89.207 Y73.934 E0.0167
G1 X89.454 Y74.180 E0.0265
G1 X88.888 Y74.180 E0.0424
G1 X88.642 Y73.934 E0.0522
G1 X88.076 Y73.934 E0.0681
G1 X88.322 Y74.180 E0.0779
G1 X87.757 Y74.180 E0.0939
G1 X87.510 Y73.934 E0.1037
G1 X86.945 Y73.934 E0.1196
G1 X87.191 Y74.180 E0.1294
