; G-Code generated by Simplify3D(R) Version 4.1.0
; Feb 16, 2020 at 1:07:52 AM
; Settings Summary
;   processName,Process1
;   applyToModels,washer
;   profileName,PETG (0.2mm) (modified)
;   profileVersion,2019-11-12 18:58:04
;   baseProfile,Wanhao Duplicator i3
;   printMaterial,PETG
;   printQuality,Medium
;   printExtruders,
;   extruderName,Primary Extruder
;   extruderToolheadNumber,0
;   extruderDiameter,0.4
;   extruderAutoWidth,0
;   extruderWidth,0.4
;   extrusionMultiplier,0.96
;   extruderUseRetract,1
;   extruderRetractionDistance,0.3
;   extruderExtraRestartDistance,0
;   extruderRetractionZLift,0
;   extruderRetractionSpeed,2100
;   extruderUseCoasting,0
;   extruderCoastingDistance,0.1
;   extruderUseWipe,0
;   extruderWipeDistance,5
;   primaryExtruder,0
;   layerHeight,0.2
;   topSolidLayers,5
;   bottomSolidLayers,5
;   perimeterOutlines,2
;   printPerimetersInsideOut,1
;   startPointOption,2
;   startPointOriginX,0
;   startPointOriginY,0
;   sequentialIslands,0
;   spiralVaseMode,0
;   firstLayerHeightPercentage,90
;   firstLayerWidthPercentage,100
;   firstLayerUnderspeed,0.5
;   useRaft,0
;   raftExtruder,0
;   raftTopLayers,3
;   raftBaseLayers,0
;   raftOffset,3
;   raftSeparationDistance,0.14
;   raftTopInfill,100
;   aboveRaftSpeedMultiplier,0.3
;   useSkirt,1
;   skirtExtruder,0
;   skirtLayers,2
;   skirtOutlines,6
;   skirtOffset,0.3
;   usePrimePillar,0
;   primePillarExtruder,999
;   primePillarWidth,12
;   primePillarLocation,7
;   primePillarSpeedMultiplier,1
;   useOozeShield,0
;   oozeShieldExtruder,999
;   oozeShieldOffset,2
;   oozeShieldOutlines,1
;   oozeShieldSidewallShape,1
;   oozeShieldSidewallAngle,30
;   oozeShieldSpeedMultiplier,1
;   infillExtruder,0
;   internalInfillPattern,Fast Honeycomb
;   externalInfillPattern,Rectilinear
;   infillPercentage,100
;   outlineOverlapPercentage,30
;   infillExtrusionWidthPercentage,105
;   minInfillLength,5
;   infillLayerInterval,1
;   internalInfillAngles,0
;   overlapInternalInfillAngles,0
;   externalInfillAngles,45,-45
;   generateSupport,0
;   supportExtruder,0
;   supportInfillPercentage,30
;   supportExtraInflation,0.2
;   supportBaseLayers,0
;   denseSupportExtruder,0
;   denseSupportLayers,2
;   denseSupportInfillPercentage,70
;   supportLayerInterval,1
;   supportHorizontalPartOffset,0.38
;   supportUpperSeparationLayers,1
;   supportLowerSeparationLayers,1
;   supportType,0
;   supportGridSpacing,2.5
;   maxOverhangAngle,80
;   supportAngles,0
;   temperatureName,Primary Extruder,Heated Bed
;   temperatureNumber,0,0
;   temperatureSetpointCount,2,1
;   temperatureSetpointLayers,1,2,1
;   temperatureSetpointTemperatures,245,240,85
;   temperatureStabilizeAtStartup,1,1
;   temperatureHeatedBed,0,1
;   fanLayers,1,2,30
;   fanSpeeds,0,15,25
;   blipFanToFullPower,0
;   adjustSpeedForCooling,1
;   minSpeedLayerTime,5
;   minCoolingSpeedSlowdown,20
;   increaseFanForCooling,1
;   minFanLayerTime,45
;   maxCoolingFanSpeed,35
;   increaseFanForBridging,1
;   bridgingFanSpeed,45
;   use5D,1
;   relativeEdistances,0
;   allowEaxisZeroing,1
;   independentExtruderAxes,0
;   includeM10123,0
;   stickySupport,1
;   applyToolheadOffsets,0
;   gcodeXoffset,0
;   gcodeYoffset,0
;   gcodeZoffset,0.01
;   overrideMachineDefinition,1
;   machineTypeOverride,0
;   strokeXoverride,200
;   strokeYoverride,200
;   strokeZoverride,180
;   originOffsetXoverride,0
;   originOffsetYoverride,0
;   originOffsetZoverride,0
;   homeXdirOverride,-1
;   homeYdirOverride,-1
;   homeZdirOverride,-1
;   flipXoverride,1
;   flipYoverride,-1
;   flipZoverride,1
;   toolheadOffsets,0,0|0,0|0,0|0,0|0,0|0,0
;   overrideFirmwareConfiguration,1
;   firmwareTypeOverride,RepRap (Marlin/Repetier/Sprinter)
;   GPXconfigOverride,r2
;   baudRateOverride,115200
;   overridePrinterModels,1
;   printerModelsOverride
;   startingGcode,G28 ; home all axes,M117 Relieving backpressure,G92 E0 ; reset extruder,G1 Z2.0 F3000 ; move z up little to prevent scratching of surface,G1 E-2 F300 ; retract filament 2mm,M117 Purging extruder,G1 X0.1 Y20 Z0.5 F5000.0 ; move to start-line position,G1 E5 F100 ; extrude filament 10mm,G92 E0,G1 X0.1 Y40.0 Z0.5 F200.0 E10 ; draw 1st line,G1 X0.4 Y40.0 Z0.5 F5000.0 ; move to side a little,G1 X0.4 Y23 Z0.5 F200.0 E20 ; draw 2nd line,G92 E0 ; reset extruder,; done purging extruder,G1 Z1.0 F3000 ; move z up little to prevent scratching of surface,
;   layerChangeGcode,
;   retractionGcode,
;   toolChangeGcode,
;   endingGcode,M117 Relieving backpressure,G1 E-10 F300; retract filament 10mm,G91 ; relative movements,G1 Z10 F3000 ; move z up to prevent hitting screwheads,G90 ; absolute movements,G28 X0 ; home X-axis,M104 S0 ; turn off extruder,M107 ; turn off fans,M140 S0 ; turn off bed,M84 ; disable motors
;   exportFileFormat,gcode
;   celebration,0
;   celebrationSong,Star Wars
;   postProcessing,curl -k -H "X-Api-Key: 4B9F0C1561C34405BE062DAB0E43C5AF" -F "select=false" -F "print=true" -F "file=@[output_filepath]" "http://192.168.1.109:5000/api/files/local" {STRIP "; postProcessing"},,
;   defaultSpeed,1800
;   outlineUnderspeed,0.5
;   solidInfillUnderspeed,0.8
;   supportUnderspeed,0.8
;   rapidXYspeed,12000
;   rapidZspeed,600
;   minBridgingArea,50
;   bridgingExtraInflation,0
;   bridgingExtrusionMultiplier,1
;   bridgingSpeedMultiplier,1
;   useFixedBridgingAngle,0
;   fixedBridgingAngle,0
;   applyBridgingToPerimeters,0
;   filamentDiameters,1.75|1.75|1.75|1.75|1.75|1.75
;   filamentPricesPerKg,24|24|24|24|24|24
;   filamentDensities,1.25|1.25|1.25|1.25|1.25|1.25
;   useMinPrintHeight,1
;   minPrintHeight,0
;   useMaxPrintHeight,0
;   maxPrintHeight,0.2
;   useDiaphragm,0
;   diaphragmLayerInterval,20
;   robustSlicing,1
;   mergeAllIntoSolid,0
;   onlyRetractWhenCrossingOutline,1
;   retractBetweenLayers,1
;   useRetractionMinTravel,0
;   retractionMinTravel,5
;   retractWhileWiping,0
;   onlyWipeOutlines,1
;   avoidCrossingOutline,1
;   maxMovementDetourFactor,3
;   toolChangeRetractionDistance,12
;   toolChangeExtraRestartDistance,-0.5
;   toolChangeRetractionSpeed,600
;   externalThinWallType,0
;   internalThinWallType,2
;   thinWallAllowedOverlapPercentage,10
;   singleExtrusionMinLength,1
;   singleExtrusionMinPrintingWidthPercentage,50
;   singleExtrusionMaxPrintingWidthPercentage,200
;   singleExtrusionEndpointExtension,0.2
;   horizontalSizeCompensation,0
G90
M82
M106 S0
M140 S85
M190 S85
M104 S245 T0
M109 S245 T0
G28 ; home all axes
M117 Relieving backpressure
G92 E0 ; reset extruder
G1 Z2.0 F3000 ; move z up little to prevent scratching of surface
G1 E-2 F300 ; retract filament 2mm
M117 Purging extruder
G1 X0.1 Y20 Z0.5 F5000.0 ; move to start-line position
G1 E5 F100 ; extrude filament 10mm
G92 E0
G1 X0.1 Y40.0 Z0.5 F200.0 E10 ; draw 1st line
G1 X0.4 Y40.0 Z0.5 F5000.0 ; move to side a little
G1 X0.4 Y23 Z0.5 F200.0 E20 ; draw 2nd line
G92 E0 ; reset extruder
; done purging extruder
G1 Z1.0 F3000 ; move z up little to prevent scratching of surface
; process Process1
; layer 1, Z = 0.190
T0
G92 E0.0000
G1 E-0.3000 F2100
; feature skirt
; tool H0.180 W0.400
G1 Z0.190 F600
G1 X82.132 Y82.516 F12000
G1 E0.0000 F2100
G92 E0.0000
G1 X83.276 Y81.419 E0.0456 F900
G1 X83.323 Y81.377 E0.0474
G1 X83.942 Y80.840 E0.0709
G1 X83.990 Y80.800 E0.0727
G1 X85.231 Y79.831 E0.1180
G1 X85.281 Y79.793 E0.1198
G1 X85.943 Y79.328 E0.1430
G1 X85.977 Y79.304 E0.1442
G1 X86.654 Y78.861 E0.1674
G1 X86.707 Y78.828 E0.1693
G1 X88.067 Y78.033 E0.2145
G1 X88.122 Y78.003 E0.2163
G1 X88.849 Y77.625 E0.2399
G1 X88.905 Y77.598 E0.2417
G1 X90.347 Y76.939 E0.2872
G1 X90.425 Y76.907 E0.2896
G1 X91.908 Y76.347 E0.3352
G1 X91.967 Y76.326 E0.3370
G1 X92.737 Y76.079 E0.3602
G1 X92.777 Y76.067 E0.3614
G1 X93.555 Y75.845 E0.3847
G1 X93.616 Y75.830 E0.3865
G1 X95.150 Y75.476 E0.4317
G1 X95.212 Y75.463 E0.4335
G1 X96.018 Y75.319 E0.4571
G1 X96.080 Y75.310 E0.4589
G1 X97.653 Y75.111 E0.5044
G1 X97.737 Y75.103 E0.5069
G1 X99.319 Y75.010 E0.5524
G1 X99.382 Y75.007 E0.5542
G1 X100.201 Y75.001 E0.5778
G1 X100.264 Y75.002 E0.5796
G1 X101.848 Y75.068 E0.6251
G1 X101.932 Y75.075 E0.6275
G1 X103.507 Y75.247 E0.6731
G1 X103.570 Y75.256 E0.6749
G1 X104.378 Y75.386 E0.6984
G1 X104.440 Y75.397 E0.7002
G1 X105.991 Y75.728 E0.7458
G1 X106.072 Y75.748 E0.7482
G1 X107.607 Y76.185 E0.7941
G1 X107.687 Y76.211 E0.7965
G1 X109.179 Y76.746 E0.8420
G1 X109.238 Y76.769 E0.8438
G1 X109.984 Y77.080 E0.8671
G1 X110.023 Y77.096 E0.8683
G1 X110.758 Y77.432 E0.8915
G1 X110.815 Y77.460 E0.8933
G1 X112.212 Y78.185 E0.9386
G1 X112.268 Y78.216 E0.9404
G1 X112.974 Y78.629 E0.9639
G1 X113.028 Y78.662 E0.9657
G1 X114.354 Y79.531 E1.0113
G1 X114.423 Y79.579 E1.0137
G1 X115.688 Y80.534 E1.0593
G1 X115.737 Y80.573 E1.0611
G1 X116.365 Y81.099 E1.0846
G1 X116.413 Y81.141 E1.0864
G1 X117.567 Y82.212 E1.1317
G1 X117.612 Y82.255 E1.1335
G1 X118.184 Y82.842 E1.1570
G1 X118.227 Y82.888 E1.1588
G1 X119.268 Y84.069 E1.2041
G1 X119.309 Y84.118 E1.2059
G1 X119.818 Y84.759 E1.2294
G1 X119.856 Y84.809 E1.2312
G1 X120.780 Y86.098 E1.2768
G1 X120.826 Y86.168 E1.2792
G1 X121.661 Y87.515 E1.3247
G1 X121.693 Y87.570 E1.3266
G1 X122.083 Y88.278 E1.3498
G1 X122.103 Y88.315 E1.3510
G1 X122.469 Y89.035 E1.3742
G1 X122.496 Y89.092 E1.3760
G1 X123.143 Y90.540 E1.4216
G1 X123.174 Y90.618 E1.4240
G1 X123.722 Y92.105 E1.4696
G1 X123.742 Y92.165 E1.4714
G1 X123.986 Y92.947 E1.4949
G1 X124.003 Y93.007 E1.4967
G1 X124.396 Y94.532 E1.5420
G1 X124.410 Y94.594 E1.5438
G1 X124.574 Y95.396 E1.5673
G1 X124.585 Y95.458 E1.5691
G1 X124.822 Y97.015 E1.6144
G1 X124.830 Y97.077 E1.6162
G1 X124.913 Y97.892 E1.6397
G1 X124.917 Y97.955 E1.6415
G1 X124.997 Y99.528 E1.6868
G1 X124.998 Y99.591 E1.6886
G1 X124.998 Y100.409 E1.7121
G1 X124.997 Y100.472 E1.7139
G1 X124.917 Y102.045 E1.7592
G1 X124.913 Y102.108 E1.7610
G1 X124.830 Y102.923 E1.7845
G1 X124.822 Y102.985 E1.7864
G1 X124.585 Y104.542 E1.8316
G1 X124.574 Y104.604 E1.8334
G1 X124.410 Y105.406 E1.8569
G1 X124.396 Y105.468 E1.8588
G1 X124.003 Y106.993 E1.9040
G1 X123.986 Y107.053 E1.9058
G1 X123.742 Y107.835 E1.9294
G1 X123.722 Y107.895 E1.9312
G1 X123.174 Y109.382 E1.9767
G1 X123.143 Y109.460 E1.9791
G1 X122.496 Y110.908 E2.0247
G1 X122.469 Y110.965 E2.0265
G1 X122.103 Y111.685 E2.0497
G1 X122.083 Y111.722 E2.0509
G1 X121.693 Y112.430 E2.0742
G1 X121.661 Y112.485 E2.0760
G1 X120.826 Y113.832 E2.1215
G1 X120.780 Y113.902 E2.1239
G1 X119.856 Y115.191 E2.1695
G1 X119.818 Y115.241 E2.1713
G1 X119.309 Y115.882 E2.1948
G1 X119.268 Y115.931 E2.1967
G1 X118.227 Y117.112 E2.2419
G1 X118.184 Y117.158 E2.2437
G1 X117.612 Y117.744 E2.2673
G1 X117.567 Y117.788 E2.2691
G1 X116.413 Y118.859 E2.3143
G1 X116.365 Y118.901 E2.3161
G1 X115.737 Y119.427 E2.3397
G1 X115.688 Y119.466 E2.3415
G1 X114.431 Y120.415 E2.3867
G1 X114.380 Y120.451 E2.3885
G1 X113.711 Y120.906 E2.4118
G1 X113.676 Y120.929 E2.4130
G1 X112.992 Y121.360 E2.4362
G1 X112.938 Y121.392 E2.4380
G1 X111.566 Y122.164 E2.4833
G1 X111.510 Y122.194 E2.4851
G1 X110.777 Y122.559 E2.5086
G1 X110.720 Y122.585 E2.5104
G1 X109.267 Y123.220 E2.5560
G1 X109.189 Y123.251 E2.5584
G1 X107.697 Y123.786 E2.6039
G1 X107.637 Y123.806 E2.6058
G1 X106.853 Y124.043 E2.6293
G1 X106.793 Y124.060 E2.6311
G1 X105.264 Y124.439 E2.6764
G1 X105.203 Y124.453 E2.6782
G1 X104.399 Y124.610 E2.7017
G1 X104.337 Y124.621 E2.7035
G1 X102.778 Y124.845 E2.7488
G1 X102.716 Y124.852 E2.7506
G1 X101.911 Y124.927 E2.7738
G1 X101.869 Y124.930 E2.7750
G1 X101.062 Y124.978 E2.7982
G1 X100.999 Y124.980 E2.8001
G1 X99.414 Y124.993 E2.8456
G1 X99.330 Y124.991 E2.8480
G1 X97.747 Y124.898 E2.8936
G1 X97.684 Y124.893 E2.8954
G1 X96.870 Y124.803 E2.9189
G1 X96.808 Y124.795 E2.9207
G1 X95.253 Y124.545 E2.9660
G1 X95.191 Y124.533 E2.9678
G1 X94.401 Y124.364 E2.9910
G1 X94.360 Y124.355 E2.9922
G1 X93.575 Y124.160 E3.0155
G1 X93.514 Y124.143 E3.0173
G1 X91.997 Y123.684 E3.0628
G1 X91.918 Y123.657 E3.0652
G1 X90.435 Y123.097 E3.1108
G1 X90.376 Y123.073 E3.1126
G1 X89.626 Y122.745 E3.1361
G1 X89.569 Y122.719 E3.1380
G1 X88.159 Y122.017 E3.1832
G1 X88.103 Y121.987 E3.1850
G1 X87.399 Y121.591 E3.2083
G1 X87.362 Y121.570 E3.2095
G1 X86.671 Y121.150 E3.2327
G1 X86.618 Y121.116 E3.2345
G1 X85.316 Y120.231 E3.2798
G1 X85.264 Y120.195 E3.2816
G1 X84.611 Y119.701 E3.3051
G1 X84.562 Y119.662 E3.3069
G1 X83.346 Y118.644 E3.3525
G1 X83.284 Y118.588 E3.3549
G1 X82.132 Y117.484 E3.4007
G1 X82.073 Y117.423 E3.4032
G1 X81.005 Y116.252 E3.4487
G1 X80.964 Y116.204 E3.4505
G1 X80.450 Y115.580 E3.4737
G1 X80.424 Y115.547 E3.4750
G1 X79.931 Y114.906 E3.4982
G1 X79.894 Y114.855 E3.5000
G1 X78.999 Y113.560 E3.5452
G1 X78.964 Y113.507 E3.5471
G1 X78.533 Y112.811 E3.5706
G1 X78.501 Y112.757 E3.5724
G1 X77.736 Y111.368 E3.6180
G1 X77.698 Y111.294 E3.6204
G1 X77.023 Y109.848 E3.6662
G1 X76.990 Y109.770 E3.6686
G1 X76.417 Y108.292 E3.7142
G1 X76.396 Y108.233 E3.7160
G1 X76.139 Y107.455 E3.7395
G1 X76.121 Y107.395 E3.7414
G1 X75.702 Y105.877 E3.7866
G1 X75.687 Y105.816 E3.7884
G1 X75.512 Y105.027 E3.8116
G1 X75.504 Y104.985 E3.8129
G1 X75.355 Y104.191 E3.8361
G1 X75.345 Y104.128 E3.8379
G1 X75.134 Y102.568 E3.8832
G1 X75.127 Y102.505 E3.8850
G1 X75.059 Y101.689 E3.9085
G1 X75.055 Y101.626 E3.9103
G1 X75.002 Y100.042 E3.9559
G1 X75.002 Y99.958 E3.9583
G1 X75.055 Y98.374 E4.0038
G1 X75.059 Y98.311 E4.0056
G1 X75.127 Y97.495 E4.0292
G1 X75.134 Y97.432 E4.0310
G1 X75.345 Y95.872 E4.0762
G1 X75.355 Y95.809 E4.0780
G1 X75.504 Y95.015 E4.1013
G1 X75.512 Y94.973 E4.1025
G1 X75.687 Y94.184 E4.1257
G1 X75.702 Y94.123 E4.1275
G1 X76.121 Y92.605 E4.1728
G1 X76.139 Y92.545 E4.1746
G1 X76.396 Y91.767 E4.1981
G1 X76.417 Y91.708 E4.1999
G1 X76.990 Y90.230 E4.2455
G1 X77.023 Y90.152 E4.2479
G1 X77.693 Y88.716 E4.2935
G1 X77.721 Y88.659 E4.2953
G1 X78.105 Y87.936 E4.3188
G1 X78.136 Y87.881 E4.3206
G1 X78.948 Y86.519 E4.3662
G1 X78.993 Y86.449 E4.3686
G1 X79.894 Y85.145 E4.4141
G1 X79.931 Y85.094 E4.4159
G1 X80.424 Y84.453 E4.4392
G1 X80.450 Y84.420 E4.4404
G1 X80.964 Y83.796 E4.4636
G1 X81.005 Y83.748 E4.4654
G1 X82.073 Y82.577 E4.5110
G1 X82.132 Y82.516 E4.5134
G92 E0.0000
G1 E-0.3000 F2100
G1 X82.414 Y82.800 F12000
G1 E0.0000 F2100
G92 E0.0000
G1 X83.549 Y81.711 E0.0452 F900
G1 X83.588 Y81.676 E0.0467
G1 X84.200 Y81.146 E0.0700
G1 X84.241 Y81.112 E0.0715
G1 X85.473 Y80.149 E0.1165
G1 X85.516 Y80.117 E0.1180
G1 X86.170 Y79.657 E0.1410
G1 X86.199 Y79.637 E0.1420
G1 X86.868 Y79.199 E0.1650
G1 X86.914 Y79.171 E0.1665
G1 X88.264 Y78.381 E0.2115
G1 X88.311 Y78.355 E0.2130
G1 X89.029 Y77.983 E0.2362
G1 X89.076 Y77.960 E0.2378
G1 X90.507 Y77.306 E0.2830
G1 X90.572 Y77.279 E0.2850
G1 X92.044 Y76.723 E0.3302
G1 X92.094 Y76.705 E0.3317
G1 X92.856 Y76.461 E0.3547
G1 X92.890 Y76.450 E0.3557
G1 X93.659 Y76.231 E0.3787
G1 X93.711 Y76.218 E0.3803
G1 X95.235 Y75.866 E0.4252
G1 X95.287 Y75.856 E0.4267
G1 X96.083 Y75.714 E0.4500
G1 X96.135 Y75.706 E0.4515
G1 X97.697 Y75.508 E0.4967
G1 X97.767 Y75.502 E0.4987
G1 X99.337 Y75.409 E0.5440
G1 X99.391 Y75.407 E0.5455
G1 X100.200 Y75.401 E0.5687
G1 X100.252 Y75.402 E0.5702
G1 X101.825 Y75.468 E0.6155
G1 X101.895 Y75.473 E0.6175
G1 X103.459 Y75.644 E0.6627
G1 X103.511 Y75.651 E0.6642
G1 X104.310 Y75.780 E0.6875
G1 X104.362 Y75.790 E0.6890
G1 X105.901 Y76.118 E0.7342
G1 X105.969 Y76.135 E0.7362
G1 X107.491 Y76.568 E0.7817
G1 X107.559 Y76.589 E0.7837
G1 X109.039 Y77.121 E0.8289
G1 X109.089 Y77.140 E0.8305
G1 X109.827 Y77.447 E0.8535
G1 X109.860 Y77.462 E0.8545
G1 X110.587 Y77.794 E0.8775
G1 X110.635 Y77.817 E0.8790
G1 X112.023 Y78.538 E0.9239
G1 X112.070 Y78.564 E0.9255
G1 X112.768 Y78.972 E0.9487
