; G-Code generated by Simplify3D(R) Version 4.1.0
; May 6, 2020 at 6:36:52 PM
; Settings Summary
;   processName,Process1
;   applyToModels,X Optical Switch Mount
;   profileName,PETG (0.2mm) (modified)
;   profileVersion,2020-02-28 21:43:21
;   baseProfile,Wanhao Duplicator i3
;   printMaterial,PETG
;   printQuality,Medium
;   printExtruders,
;   extruderName,Primary Extruder
;   extruderToolheadNumber,0
;   extruderDiameter,0.4
;   extruderAutoWidth,0
;   extruderWidth,0.4
;   extrusionMultiplier,0.96
;   extruderUseRetract,1
;   extruderRetractionDistance,0.3
;   extruderExtraRestartDistance,0
;   extruderRetractionZLift,0
;   extruderRetractionSpeed,2100
;   extruderUseCoasting,0
;   extruderCoastingDistance,0.1
;   extruderUseWipe,0
;   extruderWipeDistance,5
;   primaryExtruder,0
;   layerHeight,0.2
;   topSolidLayers,5
;   bottomSolidLayers,5
;   perimeterOutlines,2
;   printPerimetersInsideOut,1
;   startPointOption,2
;   startPointOriginX,0
;   startPointOriginY,0
;   sequentialIslands,0
;   spiralVaseMode,0
;   firstLayerHeightPercentage,90
;   firstLayerWidthPercentage,100
;   firstLayerUnderspeed,0.5
;   useRaft,0
;   raftExtruder,0
;   raftTopLayers,3
;   raftBaseLayers,0
;   raftOffset,3
;   raftSeparationDistance,0.14
;   raftTopInfill,100
;   aboveRaftSpeedMultiplier,0.3
;   useSkirt,0
;   skirtExtruder,0
;   skirtLayers,3
;   skirtOutlines,6
;   skirtOffset,0.32
;   usePrimePillar,0
;   primePillarExtruder,999
;   primePillarWidth,12
;   primePillarLocation,7
;   primePillarSpeedMultiplier,1
;   useOozeShield,0
;   oozeShieldExtruder,999
;   oozeShieldOffset,2
;   oozeShieldOutlines,1
;   oozeShieldSidewallShape,1
;   oozeShieldSidewallAngle,30
;   oozeShieldSpeedMultiplier,1
;   infillExtruder,0
;   internalInfillPattern,Fast Honeycomb
;   externalInfillPattern,Rectilinear
;   infillPercentage,15
;   outlineOverlapPercentage,30
;   infillExtrusionWidthPercentage,105
;   minInfillLength,5
;   infillLayerInterval,1
;   internalInfillAngles,0
;   overlapInternalInfillAngles,0
;   externalInfillAngles,45,-45
;   generateSupport,0
;   supportExtruder,0
;   supportInfillPercentage,30
;   supportExtraInflation,0.2
;   supportBaseLayers,0
;   denseSupportExtruder,0
;   denseSupportLayers,2
;   denseSupportInfillPercentage,70
;   supportLayerInterval,1
;   supportHorizontalPartOffset,0.38
;   supportUpperSeparationLayers,1
;   supportLowerSeparationLayers,1
;   supportType,0
;   supportGridSpacing,2.5
;   maxOverhangAngle,80
;   supportAngles,0
;   temperatureName,Primary Extruder,Heated Bed
;   temperatureNumber,0,0
;   temperatureSetpointCount,2,1
;   temperatureSetpointLayers,1,2,1
;   temperatureSetpointTemperatures,245,240,85
;   temperatureStabilizeAtStartup,1,1
;   temperatureHeatedBed,0,1
;   fanLayers,1,2,30
;   fanSpeeds,0,15,25
;   blipFanToFullPower,0
;   adjustSpeedForCooling,1
;   minSpeedLayerTime,5
;   minCoolingSpeedSlowdown,20
;   increaseFanForCooling,0
;   minFanLayerTime,45
;   maxCoolingFanSpeed,35
;   increaseFanForBridging,0
;   bridgingFanSpeed,45
;   use5D,1
;   relativeEdistances,0
;   allowEaxisZeroing,1
;   independentExtruderAxes,0
;   includeM10123,0
;   stickySupport,1
;   applyToolheadOffsets,0
;   gcodeXoffset,0
;   gcodeYoffset,0
;   gcodeZoffset,0.01
;   overrideMachineDefinition,1
;   machineTypeOverride,0
;   strokeXoverride,200
;   strokeYoverride,200
;   strokeZoverride,180
;   originOffsetXoverride,0
;   originOffsetYoverride,0
;   originOffsetZoverride,0
;   homeXdirOverride,-1
;   homeYdirOverride,-1
;   homeZdirOverride,-1
;   flipXoverride,1
;   flipYoverride,-1
;   flipZoverride,1
;   toolheadOffsets,0,0|0,0|0,0|0,0|0,0|0,0
;   overrideFirmwareConfiguration,1
;   firmwareTypeOverride,RepRap (Marlin/Repetier/Sprinter)
;   GPXconfigOverride,r2
;   baudRateOverride,115200
;   overridePrinterModels,1
;   printerModelsOverride
;   startingGcode,G28 ; home all axes,M117 Relieving backpressure,G92 E0 ; reset extruder,G1 Z2.0 F3000 ; move z up little to prevent scratching of surface,G1 E-2 F300 ; retract filament 2mm,M117 Purging extruder,G1 X0.1 Y20 Z0.5 F5000.0 ; move to start-line position,G1 E5 F100 ; extrude filament 10mm,G92 E0,G1 X0.1 Y40.0 Z0.5 F200.0 E10 ; draw 1st line,G1 X0.4 Y40.0 Z0.5 F5000.0 ; move to side a little,G1 X0.4 Y23 Z0.5 F200.0 E20 ; draw 2nd line,G92 E0 ; reset extruder,; done purging extruder,G1 Z1.0 F3000 ; move z up little to prevent scratching of surface,
;   layerChangeGcode,
;   retractionGcode,
;   toolChangeGcode,
;   endingGcode,M117 Relieving backpressure,G1 E-10 F300; retract filament 10mm,G91 ; relative movements,G1 Z10 F3000 ; move z up to prevent hitting screwheads,G90 ; absolute movements,G28 X0 ; home X-axis,M104 S0 ; turn off extruder,M107 ; turn off fans,M140 S0 ; turn off bed,M84 ; disable motors
;   exportFileFormat,gcode
;   celebration,0
;   celebrationSong,Star Wars
;   postProcessing,curl -k -H "X-Api-Key: 4B9F0C1561C34405BE062DAB0E43C5AF" -F "select=false" -F "print=true" -F "file=@[output_filepath]" "http://192.168.1.109:5000/api/files/local" {STRIP "; postProcessing"},,
;   defaultSpeed,1800
;   outlineUnderspeed,0.5
;   solidInfillUnderspeed,0.8
;   supportUnderspeed,0.8
;   rapidXYspeed,12000
;   rapidZspeed,600
;   minBridgingArea,50
;   bridgingExtraInflation,0
;   bridgingExtrusionMultiplier,1
;   bridgingSpeedMultiplier,1
;   useFixedBridgingAngle,0
;   fixedBridgingAngle,0
;   applyBridgingToPerimeters,0
;   filamentDiameters,1.75|1.75|1.75|1.75|1.75|1.75
;   filamentPricesPerKg,24|24|24|24|24|24
;   filamentDensities,1.25|1.25|1.25|1.25|1.25|1.25
;   useMinPrintHeight,1
;   minPrintHeight,0
;   useMaxPrintHeight,0
;   maxPrintHeight,0.2
;   useDiaphragm,0
;   diaphragmLayerInterval,20
;   robustSlicing,1
;   mergeAllIntoSolid,0
;   onlyRetractWhenCrossingOutline,1
;   retractBetweenLayers,1
;   useRetractionMinTravel,0
;   retractionMinTravel,5
;   retractWhileWiping,0
;   onlyWipeOutlines,1
;   avoidCrossingOutline,1
;   maxMovementDetourFactor,3
;   toolChangeRetractionDistance,12
;   toolChangeExtraRestartDistance,-0.5
;   toolChangeRetractionSpeed,600
;   externalThinWallType,0
;   internalThinWallType,2
;   thinWallAllowedOverlapPercentage,10
;   singleExtrusionMinLength,1
;   singleExtrusionMinPrintingWidthPercentage,50
;   singleExtrusionMaxPrintingWidthPercentage,200
;   singleExtrusionEndpointExtension,0.2
;   horizontalSizeCompensation,0
G90
M82
M106 S0
M140 S85
M190 S85
M104 S245 T0
M109 S245 T0
G28 ; home all axes
M117 Relieving backpressure
G92 E0 ; reset extruder
G1 Z2.0 F3000 ; move z up little to prevent scratching of surface
G1 E-2 F300 ; retract filament 2mm
M117 Purging extruder
G1 X0.1 Y20 Z0.5 F5000.0 ; move to start-line position
G1 E5 F100 ; extrude filament 10mm
G92 E0
G1 X0.1 Y40.0 Z0.5 F200.0 E10 ; draw 1st line
G1 X0.4 Y40.0 Z0.5 F5000.0 ; move to side a little
G1 X0.4 Y23 Z0.5 F200.0 E20 ; draw 2nd line
G92 E0 ; reset extruder
; done purging extruder
G1 Z1.0 F3000 ; move z up little to prevent scratching of surface
; process Process1
; layer 1, Z = 0.190
T0
G92 E0.0000
G1 E-0.3000 F2100
; feature inner perimeter
; tool H0.180 W0.400
G1 Z0.190 F600
G1 X103.100 Y95.760 F12000
G1 E0.0000 F2100
G92 E0.0000
G1 X104.900 Y95.760 E0.0517 F675
G1 X104.900 Y106.150 E0.3503
G1 X101.010 Y106.150 E0.4621
G1 X101.010 Y104.350 E0.5138
G1 X103.100 Y104.350 E0.5739
G1 X103.100 Y95.760 E0.8207
; feature outer perimeter
G1 X102.700 Y95.360 F12000
G92 E0.0000
G1 X105.300 Y95.360 E0.0747 F450
G1 X105.300 Y106.550 E0.3963
G1 X100.610 Y106.550 E0.5311
G1 X100.610 Y103.950 E0.6058
G1 X102.700 Y103.950 E0.6658
G1 X102.700 Y95.360 E0.9127
; feature solid layer
G1 X104.525 Y96.040 F12000
G92 E0.0000
G1 X104.620 Y96.135 E0.0038 F720
G1 X104.620 Y96.700 E0.0201
G1 X103.960 Y96.040 E0.0469
G1 X103.394 Y96.040 E0.0632
G1 X104.620 Y97.266 E0.1130
G1 X104.620 Y97.832 E0.1293
G1 X103.380 Y96.592 E0.1797
G1 X103.380 Y97.157 E0.1959
G1 X104.620 Y98.397 E0.2463
G1 X104.620 Y98.963 E0.2626
G1 X103.380 Y97.723 E0.3130
G1 X103.380 Y98.289 E0.3292
G1 X104.620 Y99.529 E0.3796
G1 X104.620 Y100.095 E0.3959
G1 X103.380 Y98.855 E0.4463
G1 X103.380 Y99.420 E0.4625
G1 X104.620 Y100.660 E0.5129
G1 X104.620 Y101.226 E0.5292
G1 X103.380 Y99.986 E0.5796
G1 X103.380 Y100.552 E0.5958
G1 X104.620 Y101.792 E0.6462
G1 X104.620 Y102.357 E0.6625
G1 X103.380 Y101.117 E0.7129
G1 X103.380 Y101.683 E0.7291
G1 X104.620 Y102.923 E0.7795
G1 X104.620 Y103.489 E0.7958
G1 X103.380 Y102.249 E0.8462
G1 X103.380 Y102.814 E0.8624
G1 X104.620 Y104.054 E0.9128
G1 X104.620 Y104.620 E0.9291
G1 X103.380 Y103.380 E0.9795
G1 X103.380 Y103.946 E0.9957
G1 X104.620 Y105.186 E1.0461
G1 X104.620 Y105.751 E1.0624
G1 X103.380 Y104.511 E1.1128
G1 X103.380 Y104.630 E1.1162
G1 X102.933 Y104.630 E1.1290
G1 X104.173 Y105.870 E1.1794
G1 X103.607 Y105.870 E1.1957
G1 X102.367 Y104.630 E1.2461
G1 X101.802 Y104.630 E1.2623
G1 X103.042 Y105.870 E1.3127
G1 X102.476 Y105.870 E1.3290
G1 X101.290 Y104.684 E1.3772
G1 X101.290 Y105.250 E1.3934
G1 X101.910 Y105.870 E1.4186
G1 X101.345 Y105.870 E1.4349
G1 X101.290 Y105.815 E1.4371
G92 E0.0000
G1 E-0.3000 F2100
; layer 2, Z = 0.390
M106 S38
M104 S240 T0
; feature inner perimeter
; tool H0.200 W0.400
G1 Z0.390 F600
G1 X100.820 Y106.150 F12000
G1 E0.0000 F2100
G92 E0.0000
G1 X100.820 Y104.350 E0.0575 F1350
G1 X103.100 Y104.350 E0.1303
G1 X103.100 Y95.570 E0.4106
G1 X104.900 Y95.570 E0.4681
G1 X104.900 Y106.150 E0.8059
G1 X100.820 Y106.150 E0.9362
; feature outer perimeter
G1 X100.420 Y106.550 F12000
G92 E0.0000
G1 X100.420 Y103.950 E0.0830 F900
G1 X102.700 Y103.950 E0.1558
G1 X102.700 Y95.170 E0.4362
G1 X105.300 Y95.170 E0.5192
G1 X105.300 Y106.550 E0.8825
G1 X100.420 Y106.550 E1.0384
; feature solid layer
G1 X101.593 Y104.630 F12000
G92 E0.0000
G1 X101.100 Y105.123 E0.0222 F1440
G1 X101.100 Y105.688 E0.0403
G1 X102.158 Y104.630 E0.0881
G1 X102.724 Y104.630 E0.1062
G1 X101.484 Y105.870 E0.1621
G1 X102.050 Y105.870 E0.1802
G1 X103.290 Y104.630 E0.2362
G1 X103.380 Y104.630 E0.2391
G1 X103.380 Y104.540 E0.2420
G1 X104.620 Y103.300 E0.2980
G1 X104.620 Y102.734 E0.3160
G1 X103.380 Y103.974 E0.3720
G1 X103.380 Y103.408 E0.3901
G1 X104.620 Y102.168 E0.4461
G1 X104.620 Y101.603 E0.4641
G1 X103.380 Y102.843 E0.5201
G1 X103.380 Y102.277 E0.5382
G1 X104.620 Y101.037 E0.5942
G1 X104.620 Y100.471 E0.6122
G1 X103.380 Y101.711 E0.6682
G1 X103.380 Y101.146 E0.6863
G1 X104.620 Y99.906 E0.7423
G1 X104.620 Y99.340 E0.7604
G1 X103.380 Y100.580 E0.8163
G1 X103.380 Y100.014 E0.8344
G1 X104.620 Y98.774 E0.8904
G1 X104.620 Y98.208 E0.9085
G1 X103.380 Y99.448 E0.9645
G1 X103.380 Y98.883 E0.9825
G1 X104.620 Y97.643 E1.0385
G1 X104.620 Y97.077 E1.0566
G1 X103.380 Y98.317 E1.1126
G1 X103.380 Y97.751 E1.1306
G1 X104.620 Y96.511 E1.1866
G1 X104.620 Y95.946 E1.2047
G1 X103.380 Y97.186 E1.2607
G1 X103.380 Y96.620 E1.2787
G1 X104.150 Y95.850 E1.3135
G1 X103.584 Y95.850 E1.3316
G1 X103.380 Y96.054 E1.3408
G1 X102.615 Y105.870 F12000
G92 E0.0000
G1 X104.620 Y103.865 E0.0905 F1440
G1 X104.620 Y104.431 E0.1086
G1 X103.181 Y105.870 E0.1736
G1 X103.747 Y105.870 E0.1916
G1 X104.620 Y104.997 E0.2311
G1 X104.620 Y105.562 E0.2491
G1 X104.312 Y105.870 E0.2630
G92 E0.0000
G1 E-0.3000 F2100
; layer 3, Z = 0.590
; feature inner perimeter
G1 Z0.590 F600
G1 X104.900 Y106.150 F12000
G1 E0.0000 F2100
G92 E0.0000
G1 X100.620 Y106.150 E0.1367 F1350
G1 X100.620 Y104.350 E0.1941
G1 X103.100 Y104.350 E0.2733
G1 X103.100 Y95.370 E0.5600
G1 X104.900 Y95.370 E0.6175
G1 X104.900 Y106.150 E0.9617
; feature outer perimeter
G1 X105.300 Y106.550 F12000
G92 E0.0000
G1 X100.220 Y106.550 E0.1622 F900
G1 X100.220 Y103.950 E0.2452
G1 X102.700 Y103.950 E0.3244
G1 X102.700 Y94.970 E0.6111
G1 X105.300 Y94.970 E0.6942
G1 X105.300 Y106.550 E1.0639
; feature solid layer
G1 X100.900 Y105.425 F12000
G92 E0.0000
G1 X101.345 Y105.870 E0.0201 F1440
G1 X101.910 Y105.870 E0.0381
G1 X100.900 Y104.860 E0.0838
G1 X100.900 Y104.630 E0.0911
G1 X101.236 Y104.630 E0.1018
G1 X102.476 Y105.870 E0.1578
G1 X103.042 Y105.870 E0.1759
G1 X101.802 Y104.630 E0.2319
G1 X102.367 Y104.630 E0.2499
G1 X103.607 Y105.870 E0.3059
G1 X104.173 Y105.870 E0.3240
G1 X102.933 Y104.630 E0.3800
G1 X103.380 Y104.630 E0.3942
G1 X103.380 Y104.511 E0.3980
G1 X104.620 Y105.751 E0.4540
G1 X104.620 Y105.186 E0.4721
G1 X103.380 Y103.946 E0.5281
G1 X103.380 Y103.380 E0.5461
G1 X104.620 Y104.620 E0.6021
G1 X104.620 Y104.054 E0.6202
G1 X103.380 Y102.814 E0.6762
G1 X103.380 Y102.249 E0.6943
G1 X104.620 Y103.489 E0.7502
G1 X104.620 Y102.923 E0.7683
G1 X103.380 Y101.683 E0.8243
G1 X103.380 Y101.117 E0.8424
G1 X104.620 Y102.357 E0.8984
G1 X104.620 Y101.792 E0.9164
G1 X103.380 Y100.552 E0.9724
G1 X103.380 Y99.986 E0.9905
G1 X104.620 Y101.226 E1.0465
G1 X104.620 Y100.660 E1.0645
G1 X103.380 Y99.420 E1.1205
G1 X103.380 Y98.855 E1.1386
G1 X104.620 Y100.095 E1.1946
G1 X104.620 Y99.529 E1.2126
G1 X103.380 Y98.289 E1.2686
G1 X103.380 Y97.723 E1.2867
G1 X104.620 Y98.963 E1.3427
G1 X104.620 Y98.397 E1.3607
G1 X103.380 Y97.157 E1.4167
G1 X103.380 Y96.592 E1.4348
G1 X104.620 Y97.832 E1.4908
G1 X104.620 Y97.266 E1.5089
G1 X103.380 Y96.026 E1.5649
G1 X103.380 Y95.650 E1.5769
G1 X103.570 Y95.650 E1.5829
G1 X104.620 Y96.700 E1.6303
G1 X104.620 Y96.135 E1.6484
G1 X104.135 Y95.650 E1.6703
G92 E0.0000
G1 E-0.3000 F2100
; layer 4, Z = 0.790
; feature inner perimeter
G1 Z0.790 F600
G1 X104.900 Y95.170 F12000
G1 E0.0000 F2100
G92 E0.0000
G1 X104.900 Y106.150 E0.3506 F1350
G1 X100.420 Y106.150 E0.4936
G1 X100.420 Y104.350 E0.5511
G1 X103.100 Y104.350 E0.6367
G1 X103.100 Y95.170 E0.9298
G1 X104.900 Y95.170 E0.9873
; feature outer perimeter
G1 X105.300 Y94.770 F12000
G92 E0.0000
G1 X105.300 Y106.550 E0.3761 F900
G1 X100.020 Y106.550 E0.5447
G1 X100.020 Y103.950 E0.6277
G1 X102.700 Y103.950 E0.7133
G1 X102.700 Y94.770 E1.0064
G1 X105.300 Y94.770 E1.0894
; feature solid layer
G1 X103.380 Y95.489 F12000
G92 E0.0000
G1 X103.419 Y95.450 E0.0017 F1440
G1 X103.984 Y95.450 E0.0198
G1 X103.380 Y96.054 E0.0471
G1 X103.380 Y96.620 E0.0652
G1 X104.550 Y95.450 E0.1180
G1 X104.620 Y95.450 E0.1202
G1 X104.620 Y95.946 E0.1361
G1 X103.380 Y97.186 E0.1920
G1 X103.380 Y97.751 E0.2101
G1 X104.620 Y96.511 E0.2661
G1 X104.620 Y97.077 E0.2842
G1 X103.380 Y98.317 E0.3402
G1 X103.380 Y98.883 E0.3582
G1 X104.620 Y97.643 E0.4142
G1 X104.620 Y98.208 E0.4323
G1 X103.380 Y99.448 E0.4883
G1 X103.380 Y100.014 E0.5063
G1 X104.620 Y98.774 E0.5623
G1 X104.620 Y99.340 E0.5804
G1 X103.380 Y100.580 E0.6364
G1 X103.380 Y101.146 E0.6544
G1 X104.620 Y99.906 E0.7104
G1 X104.620 Y100.471 E0.7285
G1 X103.380 Y101.711 E0.7845
G1 X103.380 Y102.277 E0.8026
G1 X104.620 Y101.037 E0.8585
G1 X104.620 Y101.603 E0.8766
G1 X103.380 Y102.843 E0.9326
G1 X103.380 Y103.408 E0.9507
G1 X104.620 Y102.168 E1.0067
G1 X104.620 Y102.734 E1.0247
G1 X103.380 Y103.974 E1.0807
G1 X103.380 Y104.540 E1.0988
G1 X104.620 Y103.300 E1.1548
G1 X104.620 Y103.865 E1.1728
G1 X102.615 Y105.870 E1.2633
G1 X102.050 Y105.870 E1.2814
G1 X103.290 Y104.630 E1.3374
G1 X102.724 Y104.630 E1.3555
G1 X101.484 Y105.870 E1.4115
G1 X100.918 Y105.870 E1.4295
G1 X102.158 Y104.630 E1.4855
G1 X101.593 Y104.630 E1.5036
G1 X100.700 Y105.523 E1.5439
G1 X100.700 Y104.957 E1.5619
G1 X101.027 Y104.630 E1.5767
G1 X103.181 Y105.870 F12000
G92 E0.0000
G1 X104.620 Y104.431 E0.0650 F1440
G1 X104.620 Y104.997 E0.0830
G1 X103.747 Y105.870 E0.1225
G1 X104.312 Y105.870 E0.1405
G1 X104.620 Y105.562 E0.1544
G92 E0.0000
G1 E-0.3000 F2100
; layer 5, Z = 0.990
; feature inner perimeter
G1 Z0.990 F600
G1 X104.900 Y106.150 F12000
G1 E0.0000 F2100
G92 E0.0000
