; G-Code generated by Simplify3D(R) Version 4.1.0
; May 6, 2020 at 7:21:39 PM
; Settings Summary
;   processName,Process1
;   applyToModels,X Optical Switch Mount2
;   profileName,PETG (0.2mm) (modified)
;   profileVersion,2020-02-28 21:43:21
;   baseProfile,Wanhao Duplicator i3
;   printMaterial,PETG
;   printQuality,Medium
;   printExtruders,
;   extruderName,Primary Extruder
;   extruderToolheadNumber,0
;   extruderDiameter,0.4
;   extruderAutoWidth,0
;   extruderWidth,0.4
;   extrusionMultiplier,0.96
;   extruderUseRetract,1
;   extruderRetractionDistance,0.3
;   extruderExtraRestartDistance,0
;   extruderRetractionZLift,0
;   extruderRetractionSpeed,2100
;   extruderUseCoasting,0
;   extruderCoastingDistance,0.1
;   extruderUseWipe,0
;   extruderWipeDistance,5
;   primaryExtruder,0
;   layerHeight,0.2
;   topSolidLayers,5
;   bottomSolidLayers,5
;   perimeterOutlines,2
;   printPerimetersInsideOut,1
;   startPointOption,2
;   startPointOriginX,0
;   startPointOriginY,0
;   sequentialIslands,0
;   spiralVaseMode,0
;   firstLayerHeightPercentage,90
;   firstLayerWidthPercentage,100
;   firstLayerUnderspeed,0.5
;   useRaft,0
;   raftExtruder,0
;   raftTopLayers,3
;   raftBaseLayers,0
;   raftOffset,3
;   raftSeparationDistance,0.14
;   raftTopInfill,100
;   aboveRaftSpeedMultiplier,0.3
;   useSkirt,0
;   skirtExtruder,0
;   skirtLayers,3
;   skirtOutlines,6
;   skirtOffset,0.32
;   usePrimePillar,0
;   primePillarExtruder,999
;   primePillarWidth,12
;   primePillarLocation,7
;   primePillarSpeedMultiplier,1
;   useOozeShield,0
;   oozeShieldExtruder,999
;   oozeShieldOffset,2
;   oozeShieldOutlines,1
;   oozeShieldSidewallShape,1
;   oozeShieldSidewallAngle,30
;   oozeShieldSpeedMultiplier,1
;   infillExtruder,0
;   internalInfillPattern,Fast Honeycomb
;   externalInfillPattern,Rectilinear
;   infillPercentage,15
;   outlineOverlapPercentage,30
;   infillExtrusionWidthPercentage,105
;   minInfillLength,5
;   infillLayerInterval,1
;   internalInfillAngles,0
;   overlapInternalInfillAngles,0
;   externalInfillAngles,45,-45
;   generateSupport,0
;   supportExtruder,0
;   supportInfillPercentage,30
;   supportExtraInflation,0.2
;   supportBaseLayers,0
;   denseSupportExtruder,0
;   denseSupportLayers,2
;   denseSupportInfillPercentage,70
;   supportLayerInterval,1
;   supportHorizontalPartOffset,0.38
;   supportUpperSeparationLayers,1
;   supportLowerSeparationLayers,1
;   supportType,0
;   supportGridSpacing,2.5
;   maxOverhangAngle,80
;   supportAngles,0
;   temperatureName,Primary Extruder,Heated Bed
;   temperatureNumber,0,0
;   temperatureSetpointCount,2,1
;   temperatureSetpointLayers,1,2,1
;   temperatureSetpointTemperatures,245,240,85
;   temperatureStabilizeAtStartup,1,1
;   temperatureHeatedBed,0,1
;   fanLayers,1,2,30
;   fanSpeeds,0,15,25
;   blipFanToFullPower,0
;   adjustSpeedForCooling,1
;   minSpeedLayerTime,5
;   minCoolingSpeedSlowdown,20
;   increaseFanForCooling,0
;   minFanLayerTime,45
;   maxCoolingFanSpeed,35
;   increaseFanForBridging,0
;   bridgingFanSpeed,45
;   use5D,1
;   relativeEdistances,0
;   allowEaxisZeroing,1
;   independentExtruderAxes,0
;   includeM10123,0
;   stickySupport,1
;   applyToolheadOffsets,0
;   gcodeXoffset,0
;   gcodeYoffset,0
;   gcodeZoffset,0.01
;   overrideMachineDefinition,1
;   machineTypeOverride,0
;   strokeXoverride,200
;   strokeYoverride,200
;   strokeZoverride,180
;   originOffsetXoverride,0
;   originOffsetYoverride,0
;   originOffsetZoverride,0
;   homeXdirOverride,-1
;   homeYdirOverride,-1
;   homeZdirOverride,-1
;   flipXoverride,1
;   flipYoverride,-1
;   flipZoverride,1
;   toolheadOffsets,0,0|0,0|0,0|0,0|0,0|0,0
;   overrideFirmwareConfiguration,1
;   firmwareTypeOverride,RepRap (Marlin/Repetier/Sprinter)
;   GPXconfigOverride,r2
;   baudRateOverride,115200
;   overridePrinterModels,1
;   printerModelsOverride
;   startingGcode,G28 ; home all axes,M117 Relieving backpressure,G92 E0 ; reset extruder,G1 Z2.0 F3000 ; move z up little to prevent scratching of surface,G1 E-2 F300 ; retract filament 2mm,M117 Purging extruder,G1 X0.1 Y20 Z0.5 F5000.0 ; move to start-line position,G1 E5 F100 ; extrude filament 10mm,G92 E0,G1 X0.1 Y40.0 Z0.5 F200.0 E10 ; draw 1st line,G1 X0.4 Y40.0 Z0.5 F5000.0 ; move to side a little,G1 X0.4 Y23 Z0.5 F200.0 E20 ; draw 2nd line,G92 E0 ; reset extruder,; done purging extruder,G1 Z1.0 F3000 ; move z up little to prevent scratching of surface,
;   layerChangeGcode,
;   retractionGcode,
;   toolChangeGcode,
;   endingGcode,M117 Relieving backpressure,G1 E-10 F300; retract filament 10mm,G91 ; relative movements,G1 Z10 F3000 ; move z up to prevent hitting screwheads,G90 ; absolute movements,G28 X0 ; home X-axis,M104 S0 ; turn off extruder,M107 ; turn off fans,M140 S0 ; turn off bed,M84 ; disable motors
;   exportFileFormat,gcode
;   celebration,0
;   celebrationSong,Star Wars
;   postProcessing,curl -k -H "X-Api-Key: 4B9F0C1561C34405BE062DAB0E43C5AF" -F "select=false" -F "print=true" -F "file=@[output_filepath]" "http://192.168.1.109:5000/api/files/local" {STRIP "; postProcessing"},,
;   defaultSpeed,1800
;   outlineUnderspeed,0.5
;   solidInfillUnderspeed,0.8
;   supportUnderspeed,0.8
;   rapidXYspeed,12000
;   rapidZspeed,600
;   minBridgingArea,50
;   bridgingExtraInflation,0
;   bridgingExtrusionMultiplier,1
;   bridgingSpeedMultiplier,1
;   useFixedBridgingAngle,0
;   fixedBridgingAngle,0
;   applyBridgingToPerimeters,0
;   filamentDiameters,1.75|1.75|1.75|1.75|1.75|1.75
;   filamentPricesPerKg,24|24|24|24|24|24
;   filamentDensities,1.25|1.25|1.25|1.25|1.25|1.25
;   useMinPrintHeight,1
;   minPrintHeight,0
;   useMaxPrintHeight,0
;   maxPrintHeight,0.2
;   useDiaphragm,0
;   diaphragmLayerInterval,20
;   robustSlicing,1
;   mergeAllIntoSolid,0
;   onlyRetractWhenCrossingOutline,1
;   retractBetweenLayers,1
;   useRetractionMinTravel,0
;   retractionMinTravel,5
;   retractWhileWiping,0
;   onlyWipeOutlines,1
;   avoidCrossingOutline,1
;   maxMovementDetourFactor,3
;   toolChangeRetractionDistance,12
;   toolChangeExtraRestartDistance,-0.5
;   toolChangeRetractionSpeed,600
;   externalThinWallType,0
;   internalThinWallType,2
;   thinWallAllowedOverlapPercentage,10
;   singleExtrusionMinLength,1
;   singleExtrusionMinPrintingWidthPercentage,50
;   singleExtrusionMaxPrintingWidthPercentage,200
;   singleExtrusionEndpointExtension,0.2
;   horizontalSizeCompensation,0
G90
M82
M106 S0
M140 S85
M190 S85
M104 S245 T0
M109 S245 T0
G28 ; home all axes
M117 Relieving backpressure
G92 E0 ; reset extruder
G1 Z2.0 F3000 ; move z up little to prevent scratching of surface
G1 E-2 F300 ; retract filament 2mm
M117 Purging extruder
G1 X0.1 Y20 Z0.5 F5000.0 ; move to start-line position
G1 E5 F100 ; extrude filament 10mm
G92 E0
G1 X0.1 Y40.0 Z0.5 F200.0 E10 ; draw 1st line
G1 X0.4 Y40.0 Z0.5 F5000.0 ; move to side a little
G1 X0.4 Y23 Z0.5 F200.0 E20 ; draw 2nd line
G92 E0 ; reset extruder
; done purging extruder
G1 Z1.0 F3000 ; move z up little to prevent scratching of surface
; process Process1
; layer 1, Z = 0.190
T0
G92 E0.0000
G1 E-0.3000 F2100
; feature inner perimeter
; tool H0.180 W0.400
G1 Z0.190 F600
G1 X95.100 Y93.850 F12000
G1 E0.0000 F2100
G92 E0.0000
G1 X104.900 Y93.850 E0.2816 F675
G1 X104.900 Y106.150 E0.6351
G1 X95.100 Y106.150 E0.9167
G1 X95.100 Y93.850 E1.2702
; feature outer perimeter
G1 X94.700 Y93.450 F12000
G92 E0.0000
G1 X105.300 Y93.450 E0.3046 F450
G1 X105.300 Y106.550 E0.6811
G1 X94.700 Y106.550 E0.9857
G1 X94.700 Y93.450 E1.3621
; feature solid layer
G1 X104.312 Y94.130 F12000
G92 E0.0000
G1 X104.620 Y94.438 E0.0125 F720
G1 X104.620 Y95.003 E0.0288
G1 X103.747 Y94.130 E0.0643
G1 X103.181 Y94.130 E0.0805
G1 X104.620 Y95.569 E0.1390
G1 X104.620 Y96.135 E0.1552
G1 X102.615 Y94.130 E0.2367
G1 X102.050 Y94.130 E0.2530
G1 X104.620 Y96.700 E0.3574
G1 X104.620 Y97.266 E0.3737
G1 X101.484 Y94.130 E0.5011
G1 X100.918 Y94.130 E0.5174
G1 X104.620 Y97.832 E0.6678
G1 X104.620 Y98.397 E0.6841
G1 X100.353 Y94.130 E0.8575
G1 X99.787 Y94.130 E0.8738
G1 X104.620 Y98.963 E1.0702
G1 X104.620 Y99.529 E1.0864
G1 X99.221 Y94.130 E1.3059
G1 X98.655 Y94.130 E1.3221
G1 X104.620 Y100.095 E1.5645
G1 X104.620 Y100.660 E1.5808
G1 X98.090 Y94.130 E1.8462
G1 X97.524 Y94.130 E1.8624
G1 X104.620 Y101.226 E2.1508
G1 X104.620 Y101.792 E2.1670
G1 X96.958 Y94.130 E2.4784
G1 X96.393 Y94.130 E2.4947
G1 X104.620 Y102.357 E2.8290
G1 X104.620 Y102.923 E2.8453
G1 X95.827 Y94.130 E3.2026
G1 X95.380 Y94.130 E3.2155
G1 X95.380 Y94.249 E3.2189
G1 X104.620 Y103.489 E3.5944
G1 X104.620 Y104.054 E3.6106
G1 X95.380 Y94.814 E3.9862
G1 X95.380 Y95.380 E4.0024
G1 X104.620 Y104.620 E4.3779
G1 X104.620 Y105.186 E4.3942
G1 X95.380 Y95.946 E4.7697
G1 X95.380 Y96.511 E4.7859
G1 X104.620 Y105.751 E5.1615
G1 X104.620 Y105.870 E5.1649
G1 X104.173 Y105.870 E5.1777
G1 X95.380 Y97.077 E5.5351
G1 X95.380 Y97.643 E5.5513
G1 X103.607 Y105.870 E5.8857
G1 X103.042 Y105.870 E5.9019
G1 X95.380 Y98.208 E6.2133
G1 X95.380 Y98.774 E6.2295
G1 X102.476 Y105.870 E6.5179
G1 X101.910 Y105.870 E6.5342
G1 X95.380 Y99.340 E6.7996
G1 X95.380 Y99.905 E6.8158
G1 X101.345 Y105.870 E7.0582
G1 X100.779 Y105.870 E7.0745
G1 X95.380 Y100.471 E7.2939
G1 X95.380 Y101.037 E7.3101
G1 X100.213 Y105.870 E7.5066
G1 X99.647 Y105.870 E7.5228
G1 X95.380 Y101.603 E7.6962
G1 X95.380 Y102.168 E7.7125
G1 X99.082 Y105.870 E7.8629
G1 X98.516 Y105.870 E7.8792
G1 X95.380 Y102.734 E8.0067
G1 X95.380 Y103.300 E8.0229
G1 X97.950 Y105.870 E8.1274
G1 X97.385 Y105.870 E8.1436
G1 X95.380 Y103.865 E8.2251
G1 X95.380 Y104.431 E8.2414
G1 X96.819 Y105.870 E8.2998
G1 X96.253 Y105.870 E8.3161
G1 X95.380 Y104.997 E8.3516
G1 X95.380 Y105.562 E8.3678
G1 X95.688 Y105.870 E8.3803
G92 E0.0000
G1 E-0.3000 F2100
; layer 2, Z = 0.390
M106 S38
M104 S240 T0
; feature inner perimeter
; tool H0.200 W0.400
G1 Z0.390 F600
G1 X95.100 Y106.150 F12000
G1 E0.0000 F2100
G92 E0.0000
G1 X95.100 Y93.850 E0.3927 F1350
G1 X104.900 Y93.850 E0.7056
G1 X104.900 Y106.150 E1.0984
G1 X95.100 Y106.150 E1.4113
; feature outer perimeter
G1 X94.700 Y106.550 F12000
G92 E0.0000
G1 X94.700 Y93.450 E0.4183 F900
G1 X105.300 Y93.450 E0.7567
G1 X105.300 Y106.550 E1.1750
G1 X94.700 Y106.550 E1.5135
; feature solid layer
G1 X104.620 Y105.562 F12000
G92 E0.0000
G1 X104.312 Y105.870 E0.0139 F1440
G1 X103.747 Y105.870 E0.0320
G1 X104.620 Y104.997 E0.0714
G1 X104.620 Y104.431 E0.0895
G1 X103.181 Y105.870 E0.1544
G1 X102.615 Y105.870 E0.1725
G1 X104.620 Y103.865 E0.2630
G1 X104.620 Y103.300 E0.2811
G1 X102.050 Y105.870 E0.3971
G1 X101.484 Y105.870 E0.4152
G1 X104.620 Y102.734 E0.5568
G1 X104.620 Y102.168 E0.5749
G1 X100.918 Y105.870 E0.7420
G1 X100.353 Y105.870 E0.7601
G1 X104.620 Y101.603 E0.9528
G1 X104.620 Y101.037 E0.9709
G1 X99.787 Y105.870 E1.1891
G1 X99.221 Y105.870 E1.2072
G1 X104.620 Y100.471 E1.4509
G1 X104.620 Y99.906 E1.4690
G1 X98.656 Y105.870 E1.7383
G1 X98.090 Y105.870 E1.7564
G1 X104.620 Y99.340 E2.0513
G1 X104.620 Y98.774 E2.0693
G1 X97.524 Y105.870 E2.3897
G1 X96.958 Y105.870 E2.4078
G1 X104.620 Y98.208 E2.7538
G1 X104.620 Y97.643 E2.7718
G1 X96.393 Y105.870 E3.1433
G1 X95.827 Y105.870 E3.1614
G1 X104.620 Y97.077 E3.5584
G1 X104.620 Y96.511 E3.5765
G1 X95.380 Y105.751 E3.9937
G1 X95.380 Y105.186 E4.0118
G1 X104.620 Y95.946 E4.4290
G1 X104.620 Y95.380 E4.4471
G1 X95.380 Y104.620 E4.8643
G1 X95.380 Y104.054 E4.8824
G1 X104.620 Y94.814 E5.2996
G1 X104.620 Y94.249 E5.3177
G1 X95.380 Y103.489 E5.7349
G1 X95.380 Y102.923 E5.7530
G1 X104.173 Y94.130 E6.1501
G1 X103.607 Y94.130 E6.1681
G1 X95.380 Y102.357 E6.5396
G1 X95.380 Y101.792 E6.5577
G1 X103.042 Y94.130 E6.9036
G1 X102.476 Y94.130 E6.9217
G1 X95.380 Y101.226 E7.2421
G1 X95.380 Y100.660 E7.2602
G1 X101.910 Y94.130 E7.5551
G1 X101.345 Y94.130 E7.5731
G1 X95.380 Y100.095 E7.8425
G1 X95.380 Y99.529 E7.8605
G1 X100.779 Y94.130 E8.1043
G1 X100.213 Y94.130 E8.1224
G1 X95.380 Y98.963 E8.3406
G1 X95.380 Y98.397 E8.3587
G1 X99.647 Y94.130 E8.5514
G1 X99.082 Y94.130 E8.5694
G1 X95.380 Y97.832 E8.7366
G1 X95.380 Y97.266 E8.7547
G1 X98.516 Y94.130 E8.8963
G1 X97.950 Y94.130 E8.9143
G1 X95.380 Y96.700 E9.0304
G1 X95.380 Y96.135 E9.0485
G1 X97.385 Y94.130 E9.1390
G1 X96.819 Y94.130 E9.1571
G1 X95.380 Y95.569 E9.2220
G1 X95.380 Y95.003 E9.2401
G1 X96.253 Y94.130 E9.2795
G1 X95.688 Y94.130 E9.2976
G1 X95.380 Y94.438 E9.3115
G92 E0.0000
G1 E-0.3000 F2100
; layer 3, Z = 0.590
; feature inner perimeter
G1 Z0.590 F600
G1 X95.100 Y93.850 F12000
G1 E0.0000 F2100
G92 E0.0000
G1 X104.900 Y93.850 E0.3129 F1350
G1 X104.900 Y106.150 E0.7056
G1 X95.100 Y106.150 E1.0186
G1 X95.100 Y93.850 E1.4113
; feature outer perimeter
G1 X94.700 Y93.450 F12000
G92 E0.0000
G1 X105.300 Y93.450 E0.3385 F900
G1 X105.300 Y106.550 E0.7567
G1 X94.700 Y106.550 E1.0952
G1 X94.700 Y93.450 E1.5135
; feature solid layer
G1 X104.312 Y94.130 F12000
G92 E0.0000
G1 X104.620 Y94.438 E0.0139 F1440
G1 X104.620 Y95.003 E0.0320
G1 X103.747 Y94.130 E0.0714
G1 X103.181 Y94.130 E0.0895
G1 X104.620 Y95.569 E0.1544
G1 X104.620 Y96.135 E0.1725
G1 X102.615 Y94.130 E0.2630
G1 X102.050 Y94.130 E0.2811
G1 X104.620 Y96.700 E0.3971
G1 X104.620 Y97.266 E0.4152
G1 X101.484 Y94.130 E0.5568
G1 X100.918 Y94.130 E0.5749
G1 X104.620 Y97.832 E0.7420
G1 X104.620 Y98.397 E0.7601
G1 X100.353 Y94.130 E0.9528
G1 X99.787 Y94.130 E0.9709
G1 X104.620 Y98.963 E1.1891
G1 X104.620 Y99.529 E1.2072
G1 X99.221 Y94.130 E1.4510
G1 X98.655 Y94.130 E1.4690
G1 X104.620 Y100.095 E1.7383
G1 X104.620 Y100.660 E1.7564
G1 X98.090 Y94.130 E2.0513
G1 X97.524 Y94.130 E2.0693
G1 X104.620 Y101.226 E2.3898
G1 X104.620 Y101.792 E2.4078
G1 X96.958 Y94.130 E2.7538
G1 X96.393 Y94.130 E2.7718
G1 X104.620 Y102.357 E3.1433
G1 X104.620 Y102.923 E3.1614
G1 X95.827 Y94.130 E3.5585
G1 X95.380 Y94.130 E3.5727
G1 X95.380 Y94.249 E3.5765
G1 X104.620 Y103.489 E3.9938
G1 X104.620 Y104.054 E4.0118
G1 X95.380 Y94.814 E4.4291
G1 X95.380 Y95.380 E4.4471
G1 X104.620 Y104.620 E4.8644
G1 X104.620 Y105.186 E4.8824
G1 X95.380 Y95.946 E5.2997
G1 X95.380 Y96.511 E5.3177
G1 X104.620 Y105.751 E5.7350
G1 X104.620 Y105.870 E5.7387
G1 X104.173 Y105.870 E5.7530
G1 X95.380 Y97.077 E6.1501
G1 X95.380 Y97.643 E6.1681
G1 X103.607 Y105.870 E6.5396
G1 X103.042 Y105.870 E6.5577
G1 X95.380 Y98.208 E6.9037
G1 X95.380 Y98.774 E6.9217
G1 X102.476 Y105.870 E7.2421
G1 X101.910 Y105.870 E7.2602
G1 X95.380 Y99.340 E7.5551
G1 X95.380 Y99.905 E7.5731
G1 X101.345 Y105.870 E7.8425
G1 X100.779 Y105.870 E7.8605
G1 X95.380 Y100.471 E8.1043
G1 X95.380 Y101.037 E8.1224
G1 X100.213 Y105.870 E8.3406
G1 X99.647 Y105.870 E8.3587
G1 X95.380 Y101.603 E8.5514
G1 X95.380 Y102.168 E8.5694
G1 X99.082 Y105.870 E8.7366
G1 X98.516 Y105.870 E8.7547
G1 X95.380 Y102.734 E8.8963
G1 X95.380 Y103.300 E8.9143
G1 X97.950 Y105.870 E9.0304
G1 X97.385 Y105.870 E9.0485
G1 X95.380 Y103.865 E9.1390
G1 X95.380 Y104.431 E9.1571
G1 X96.819 Y105.870 E9.2220
G1 X96.253 Y105.870 E9.2401
G1 X95.380 Y104.997 E9.2795
G1 X95.380 Y105.562 E9.2976
G1 X95.688 Y105.870 E9.3115
G92 E0.0000
G1 E-0.3000 F2100
; layer 4, Z = 0.790
; feature inner perimeter
G1 Z0.790 F600
G1 X95.100 Y106.150 F12000
G1 E0.0000 F2100
G92 E0.0000
G1 X95.100 Y93.850 E0.3927 F1350
G1 X104.900 Y93.850 E0.7056
G1 X104.900 Y106.150 E1.0984
G1 X95.100 Y106.150 E1.4113
; feature outer perimeter
G1 X94.700 Y106.550 F12000
G92 E0.0000
G1 X94.700 Y93.450 E0.4183 F900
G1 X105.300 Y93.450 E0.7567
G1 X105.300 Y106.550 E1.1750
G1 X94.700 Y106.550 E1.5135
; feature solid layer
G1 X104.620 Y105.562 F12000
G92 E0.0000
G1 X104.312 Y105.870 E0.0139 F1440
G1 X103.747 Y105.870 E0.0320
G1 X104.620 Y104.997 E0.0714
